/* XPM */
static char *result[] = {
/* columns rows colors chars-per-pixel */
"60 60 236 2 ",
"   c #1B0D1C",
".  c #1E131B",
"X  c #1E1317",
"o  c #28150F",
"O  c #220E13",
"+  c #2A0E15",
"@  c #240E19",
"#  c #2A0B19",
"$  c #241215",
"%  c #2C1314",
"&  c #23141C",
"*  c #2A151B",
"=  c #25191D",
"-  c #2A1A1D",
";  c #291815",
":  c #331C1B",
">  c #341717",
",  c #2A0E09",
"<  c #37221C",
"1  c #27271F",
"2  c #1E1827",
"3  c #2A0E24",
"4  c #221621",
"5  c #241A23",
"6  c #2C1C23",
"7  c #271928",
"8  c #341E26",
"9  c #331B35",
"0  c #261E36",
"q  c #2C232B",
"w  c #27222A",
"e  c #32242C",
"r  c #39242B",
"t  c #392627",
"y  c #2A2738",
"u  c #3C2235",
"i  c #3D253B",
"p  c #342A39",
"a  c #3E283D",
"s  c #372735",
"d  c #3B343B",
"f  c #48251C",
"g  c #542B1B",
"h  c #452924",
"j  c #472A27",
"k  c #562B22",
"l  c #4A332C",
"z  c #573529",
"x  c #432C34",
"c  c #43253C",
"v  c #4C2B3B",
"b  c #462838",
"n  c #4C353A",
"m  c #4D393B",
"M  c #473738",
"N  c #533B3C",
"B  c #583937",
"V  c #522D3B",
"C  c #683A29",
"Z  c #623B35",
"A  c #713C27",
"S  c #5C443C",
"D  c #64433B",
"F  c #67443A",
"G  c #784A3C",
"H  c #77553B",
"J  c #392643",
"K  c #3B3944",
"L  c #2C2E4E",
"P  c #4C3A44",
"I  c #473B45",
"U  c #533C43",
"Y  c #583B45",
"T  c #493E57",
"R  c #493148",
"E  c #403C61",
"W  c #603C44",
"Q  c #3C476D",
"!  c #4A4446",
"~  c #574648",
"^  c #47465B",
"/  c #554657",
"(  c #5E5E5D",
")  c #545254",
"_  c #6D4A42",
"`  c #664B46",
"'  c #744E44",
"]  c #794B45",
"[  c #7C5444",
"{  c #7A554B",
"}  c #755447",
"|  c #665C59",
" . c #705655",
".. c #5E615B",
"X. c #67635E",
"o. c #77665D",
"O. c #494A66",
"+. c #5B5965",
"@. c #454D76",
"#. c #4A5378",
"$. c #535777",
"%. c #4D536F",
"&. c #625C62",
"*. c #5D6265",
"=. c #55607D",
"-. c #636262",
";. c #676769",
":. c #72706B",
">. c #87563D",
",. c #92573D",
"<. c #825544",
"1. c #855945",
"2. c #8B5A45",
"3. c #855A4A",
"4. c #8C5C4A",
"5. c #885645",
"6. c #955A47",
"7. c #875E52",
"8. c #A75F40",
"9. c #8A6149",
"0. c #96654A",
"q. c #8E6752",
"w. c #996A58",
"e. c #9D7258",
"r. c #8D705F",
"t. c #A7654A",
"y. c #BD6D4B",
"u. c #A56A56",
"i. c #B36C52",
"p. c #AB7B5C",
"a. c #A77758",
"s. c #BC7455",
"d. c #B7724E",
"f. c #897667",
"g. c #917C75",
"h. c #927668",
"j. c #A77A67",
"k. c #B97D60",
"l. c #C16B45",
"z. c #C56E48",
"x. c #C3714D",
"c. c #C77249",
"v. c #C27353",
"b. c #BD8A5A",
"n. c #96846D",
"m. c #9B856D",
"M. c #9B8473",
"N. c #9B8972",
"B. c #948274",
"V. c #8C8478",
"C. c #A5876E",
"Z. c #BA876A",
"A. c #A78873",
"S. c #B89173",
"D. c #C3865D",
"F. c #C88E68",
"G. c #CD956A",
"H. c #D99A6A",
"J. c #CB9976",
"K. c #D89C77",
"L. c #CF8F6B",
"P. c #E49E6C",
"I. c #E89C69",
"U. c #E59E76",
"Y. c #DDA16D",
"T. c #DAA268",
"R. c #DDA373",
"E. c #DDA37A",
"W. c #D7A376",
"Q. c #CAA17D",
"!. c #E3A26E",
"~. c #E8A36A",
"^. c #E3A373",
"/. c #E4A47B",
"(. c #E8A676",
"). c #F2A470",
"_. c #395282",
"`. c #4B5986",
"'. c #535C8C",
"]. c #58648A",
"[. c #4C6299",
"{. c #52639E",
"}. c #5A6996",
"|. c #4D618E",
" X c #666D96",
".X c #5A6DA6",
"XX c #5874AA",
"oX c #5877B7",
"OX c #4E72B1",
"+X c #657DB4",
"@X c #6671AC",
"#X c #555FA2",
"$X c #4E7ECC",
"%X c #557DC5",
"&X c #5B7DC4",
"*X c #537DCB",
"=X c #5B7ECB",
"-X c #5877C3",
";X c #5B7DD3",
":X c #537DD4",
">X c #627CC6",
",X c #647ED1",
"<X c #5A83BE",
"1X c #6D85B1",
"2X c #5B81C5",
"3X c #5481CC",
"4X c #5A81CD",
"5X c #5581C4",
"6X c #4C82D8",
"7X c #5483D3",
"8X c #5A82D1",
"9X c #5185DB",
"0X c #6684C7",
"qX c #6F8FCB",
"wX c #7EA9DD",
"eX c #79A8E0",
"rX c #988897",
"tX c #AA9B92",
"yX c #A7A297",
"uX c #B3A094",
"iX c #9090A8",
"pX c #A6B1B5",
"aX c #A69DA1",
"sX c #C59A86",
"dX c #DCA480",
"fX c #86A5D8",
"gX c #AFBAC1",
"hX c #BDCBCF",
"jX c #C7DEEC",
"kX c #CAE3EC",
"lX c #CAE5F4",
"zX c #CAEAFB",
"xX c #C8E7F7",
"cX c #D4E9F3",
"vX c #C0CBCF",
"bX c None",
/* pixels */
"bXbXbXbXbXbXbXbXbXbXbXbXbXbXbXbXbXbXbXbXbXbXbXbXbXbXbXbXbXbXbXbXbXbXbXbXbXbXbXbXbXbXbXbXbXbXbXbXbXbXbXbXbXbXbXbXbXbXbXbX",
"bXbXbXbXbXbXbXbXbXbXbXbXbXbXbXbXbXbXbXbXbXbXbXbXbXbXbXbXbXbXbXbXw * 4 5 4 4 4 4 & X 4 q bXbXbXbXbXbXbXbXbXbXbXbXbXbXbXbX",
"bXbXbXbXbXbXbXbXbXbXbXbXbXbXbXbXbXbXbXbXbXbXbXbXbXbXbXbXbXbXbXbX5 6 6 - 6 - 6 - 6 6 6 w bXbXbXbXbXbXbXbXbXbXbXbXbXbXbXbX",
"bXbXbXbXbXbXbXbXbXbXbXbXbXbXbXbXbXbXbXe O $ & * 5 & & & * & * s n n n V n n n n m m m l : $ 7 bXbXbXbXbXbXbXbXbXbXbXbXbX",
"bXbXbXbXbXbXbXbXbXbXbXbXbXbXbXbXbXbXbXm j h h h j h h j j h j l Z F F ` ` ~ P m P P P m r 6 r I bXbXbXbXbXbXbXbXbXbXbXbX",
"bXbXbXbXbXbXbXbXbXbXbXbXbXbXbXbX& $ t D { 3.1.5.<.<.<.3.1.<.1.3.5.2.5.1.3.' S m m m U U N N n t 5 q bXbXbXbXbXbXbXbXbXbX",
"bXbXbXbXbXbXbXbXbXbXbXbXbXbXbXbX4 O > G q.5.2.2.2.2.6.4.6.2.2.2.2.2.5.4.1.[ ' G _ ` _ _ _ ` ~ t = = e M bXbXbXbXbXbXbXbX",
"bXbXbXbXbXbXbXbXbXbXbXbXbXbXbXbX& $ % ' 3.5.2.2.2.2.4.2.2.2.2.2.5.2.5.4.4.7.3.3.4.4.4.3.4.3.{ j % $ - = = I bXbXbXbXbXbX",
"bXbXbXbXbXbXbXbXbXbXbXbXbXbXbXbX= $ ; _ 1.2.2.2.2.1.2.2.2.2.2.9.2.1.4.2.2.2.>.2.5.5.5.5.6.4.3.G F S F D S B t w bXbXbXbX",
"bXbXbXbXbXbXbXbXbXbXbXbXbXbXbXbX& ; t F { <.1.9.2.2.9.>.9.9.9.9.2.6.0.2.6.0.>.1.1.[ { 5.<.<.<.5.>.,.>.1.2.F > < m bXbXbX",
"bXbXbXbXbXbXbXbXbXbXbXbXbXbXbXbXbXbXbXr < f F 3.2.,.,.,.d.L.L.H.L.H.L.L.J.j.B v R v R V R V Z ] 5.9.>.2.2.[ G ` B t q bX",
"bXbXbXbXbXbXbXbXbXbXbXbXbXbXbXbXbXbXbXbXX t B _ } ] G G a.E.(.I.I.(.(.^./.F.] Z U b c J c 9 v Y } } [ [ ] [ 7.7.B % 2 7 ",
"bXbXbXbXbXbXbXbXbXbXbXbXbXbXbXbXbXbXbXbXbXbXx 8 6 * - < 1.K.^.^.^.^.^.Y.^.^.G.K.Z.Y 9 R a a u x b b v x j F 7.7.Z o 4 7 ",
"bXbXbXbXbXbXbXbXbXbXbXbXbXbXbXbXbXbXbXbXbXbXbXp I q 4 : [ K.^.Y.R.^./.R.U.^.^./.L.Y c 9 i i a u i c c u u V Z D B x p bX",
"bXbXbXbXbXbXbXbXbXbXbXbXbXbXbXbXbXbXbXbXbXbXbXbXbXp 5 % <.K.!.Y.R.^.U.^.^.^.^.^.F.Y i i i i i i i u c a s u % $ e bXbXbX",
"bXbXbXbXbXbXbXbXbXbXbXbXbXbXbXbXbXbXbXbXbXbXbXbXbXbX. ; <.K.!.Y.R.^.R.^.^.R.^.^.F.Y i i i i i a i u c J u 8 $ . 2 bXbXbX",
"bXbXbXbXbXbXbXbXbXbXbXbXbXbXbXbXbXbXbXbXbXbXbXbXbXw & : <.K.^.^.R.^.^.^.^.^.(.^.G.Y a R J c J a J a p a a 8 ; $ 4 bXbXbX",
"bXbXbXbXbXbXbXbXbXbXbXbXbXbXbXbXbXbXbXbXbXbXbX7 e s s z 0.H.^.(.^.^.^.^.U.K.~.~.J. X{.[.{.{.{.{.{.#XE s c 9 & . 2 bXbXbX",
"bXbXbXbXbXbXbXbXbXbXbXbXbXbXbXbXbXbXbXbXbXbX$ + % x P N r.K.^.!.P.R.Y.~.!.R.J.Q.uXqX;X3X8X4X4X8X8X,X`.L L 9 ; ; w bXbXbX",
"bXbXbXbXbXbXbXbXbXbXbXbXbXbXbXbXbXbXbXbXbXbX8 + + b P U w.E.~.I.!.U.P.(./.sXrX1X0X8X4X4X8X4X4X8X4X>XOXOXOXO.o O 7 bXbXbX",
"bXbXbXbXbXbXbXbXbXbXbXbXbXbXbXbXbXbXbXbXbXbXE L p x P B 9.Z.F.S.sXsXsXsXuXiX1X%X6X4X4X4X8X4X4X4X4X8X2X9X:X_.L L E bXbXbX",
"bXbXbXbXbXbXbXbXbXbXbXbXbXbXbXbXbXbXbX: 5 y @.OXXXQ T P Z F ` ].+X0X0X2X1X2X2X=X;X=X4X4X4X4X4X8X=X:X:X,X0XOXOX%X@.w 7 p ",
"bXbXbXbXbXbXbXbXbXbXbXbXbXbXbXbXbXbXbX* % 7 @.2X3X[.#.%.^ N V #.5X7X$X3X3X3X5X0X&X&X3X4X*X*X8X=X=X;XqXrXrXiXiXiX&.4 4 7 ",
"bXbXbXbXbXbXbXbXbXbXbXbXbXbXbXbXbXbXbX* @ 0 `.:X9X*X&X1X`.P S $.oX=X-X5X2X5X2X;X=X2X%X3X3X$X8X%X>X+XaXU.U.dXdXdX6.> & 5 ",
"bXbXbXbXbXbXbXbXbXbXbXbXbXbXbXbXbXbXbX4 4 0 `.0X4X7X6X%X].U B ~ +.].[.oX;X;X:X2X<X3X$X3X7X4XoX[.Q Q g./.).P.!.^.q.- & 5 ",
"bXbXbXbXbXbXbXbXbXbXbXbXbXbXbXbXbXbXbX5 2 0 #.<X@X>X9X%X].T P T U P +.@X,X;X;X=X<X=X=X8X2XoX}.^ 6 8 9.H.).P.I.!.q.- & 5 ",
"bXbXbXbXbXbXbXbXbXbXbXbXbXbXbXbXbXbXbXbXbXbXO.L L [.6X7X@X X.X$.Y Y / / #.'.oX;X:X:X8X-XQ L I { a.a.G.(.W.W.^./.q.% & 7 ",
"bXbXbXbXbXbXbXbXbXbXbXbXbXbXbXbXbXbXbXbXbXbX5 & 4 #.3X6X4X8X0X}.O.T / U R +.}.oX%X%X9XOXL 2 : j.E.T.~.^./.T.D.S.7.8 0 p ",
"bXbXbXbXbXbXbXbXbXbXbXbXbXbXbXbXbXbXbXbXbXbXq . $ @.3X3X=X4X9XoXXXOX]./ n U / / @.OX;XoXL X > u./.!.!./.dXw.g l M bXbXbX",
"bXbXbXbXbXbXbXbXbXbXbXbXbXbXbXbXbXbXbXbXbXbXe = * #.3X3X%X:X9X7X2X2X.X`./ Y N m Y |..X'.~ z C j.E.!.^.R.dX3.o X   bXbXbX",
"bX5 . 4   & 5 5 & & & = 4 4 = * - - 5 5 5 7 $ X 4 @.3X3X&X%X6X3X0X>X2XoXoX].O.m N T T  .A.G.G.E.!.T.~.(.E.7.> 4 4 bXbXbX",
"a % @ 8 6 5 6 * - = * = = * $ & + % & bX  4 bXbXbXbXbXqXfXfXwXfXfXfXfXeXwX1XO.m Z 4.7.6.G.!.^.!.~.!.b.0.q.] > bXbXbXbXbX",
"5 @ 3 bXbXbXbXbXbXbXbXbXbXbXbXbXbXbXbXbXbXbXbXbXbXbXbXxXxXxXxXxXxXxXxXjXcXpX) ! ` D.^.U./.U.!.H.K.Q.[ ; & bXbXbXbXbXbXbX",
"& & 4 bXbXbXbXbXbXbXbXbXbXbXbXbXbXbXbXbXbXbXbXbXbXbXxXzXxXxXxXxXxXxXxXzXzXgX) S G F.P.I.!.~.T.u.] {  .bXbXbXbXbXbXbXbXbX",
"7 . 5 bXbXbXbXbXbXbXbXbXbXbXbXbXbXbXbXbXbXbXbXbXbXbXxXzXjXjXkXkXjXjXjXkXjXpX+.! ` F.dXU.T.W.S.F > * bXbXbXbXbXbXbXbXbXbX",
"bXbXbXbXp y bXbXbXbXbXbXbXbXbXbXbXbXbXbXbXbXbXbXbXbXcXcXhXyXyXyXyXyXyXyXtXtXf.r.f.C.A.tXA.A.C.z & = bXbXbXbXbXbXbXbXbXbX",
"bXbXbXbX7 2 y bXbXbXbXbXbXbXbXbXbXbXbXbXbXbXbXbXbXbXhXhXpXrXV.n.g.f.n.n.n.m.m.m.C.n.M.M.n.N.B.S $ & bXbXbXbXbXbXbXbXbXbX",
"bXbXbXbXbXbXbX2 = . = . = . . = . . w X X - ! -.;.*.*.:.;...X.X.X.X.:.V.m.n.N.m.M.M.M.N.n.N.n.d & 4 bXbXbXbXbXbXbXbXbXbX",
"bXbXbXbXbXbXbXw = = = - - = = = & = e = X - ! | -.( ( | ......( ) ! | o.o.o.m.N.M.M.M.N.n.N.V.l $ * bXbXbXbXbXbXbXbXbXbX",
"bXbXbXbXbXbXbXbXbXbXbXbXbXbXbXbXbXbXbXa . & ! *.;.X.( ( *.;.*.K = = ; ; 1 l h.m.M.M.n.N.n.N.B.M & 4 bXbXbXbXbXbXbXbXbXbX",
"bXbXbXbXbXbXbXbXbXbXbXbXbXbXbXbXbXbX! I d d ) ..-.*.X.+.! S M ! M s e = ; r g.A.m.M.M.m.N.N.B.M & * bXbXbXbXbXbXbXbXbXbX",
"bXbXbXbXbXbXbXbXbXbXbXbXbXbXbXbX% & q ~ X.-...X.( ( *.;.K X X s bXbXbXw ; r f.N.M.M.M.N.n.N.B.M $ & bXbXbXbXbXbXbXbXbXbX",
"bXbXbXbXbXbXbXbXbXbXbXbXbXbXbXbX- % 6 / &.&.+.&.X.X.*.+.! = $ 5 bXbXbXbXbX~ ~ S ~ h.M.M.N.N.g.m = & bXbXbXbXbXbXbXbXbXbX",
"bXbXbXbXbXbXbXbXbXbXbXbXbXbXbXbX4 $ 6 ` o.| o.-.X.| +.+.I - - bXbXbXbXbXbXbX5 . t r.C.C.C.C.r.S > < ~ bXbXbXbXbXbXbXbXbX",
"bXbXbXbXbXbXbXbXbXbXbXbXbXbXbXbX7 O > [ e.e.u.u.w.F s p K bXbXbXbXbXbXbXbXbXX . r Z.J.G.Q.J.J.Z.p.m.} t p bXbXbXbXbXbXbX",
"bXbXbXbXbXbXbXbXbXbXbXbXbXbXbXbX8 f k 6.v.x.x.l.d.C o . bXbXbXbXbXbXbXbXbXbX5 $ j D.~.!.(.!.!.^.R.W.H o O bXbXbXbXbXbXbX",
"bXbXbXbXbXbXbXbXbXbXbXbXbX4 & h 6.t.t.s.z.z.c.d.d.A , X bXbXbXbXbXbXbXbXbXbXw . t D.~.Y.!.H.R.(.U.T.' 3 % bXbXbXbXbXbXbX",
"bXbXbXbXbXbXbXbXbXbXbXbXbX. & t t.v.y.v.z.y.8.<.H F d p bXbXbXbXbXbXbXbXbXbXbX2 t e.e.b.J.R.^.Y.R.T.' 3 + < bXbXbXbXbXbX",
"bXbXbXbXbXbXbXbXbXbXbXbXbX& @ 8 8.x.y.v.v.t.C > 8 bXbXbXbXbXbXbXbXbXbXbXbXbXbXbXbX- % g p.W.^.H.^.Y.' 3 + < bXbXbXbXbXbX",
"bXbXbXbXbXbXbXbXbXbXbXbXbX. @ h 8.x.x.x.v.i.z * & bXbXbXbXbXbXbXbXbXbXbXbXbXbXbXbX2 $ f p.dXR.Y.(.Y.' 3 + < bXbXbXbXbXbX",
"bXbXbXbXbXbXbXbXbXbXbXbXbXe $ > 8.x.x.x.y.i.k @ $ bXbXbXbXbXbXbXbXbXbXbXbXbXbXbXbX2 $ < j.E.Y.Y.R.K.H > > t bXbXbXbXbXbX",
"bXbXbXbXbXbXbXbXbXbXbXr Y { >.,.i.z.y.z.y.i.z + 2 bXbXbXbXbXbXbXbXbXbXbXbXbXbXbXbX5 O f a.R.~.T.R.R.k.w.0.} c w bXbXbXbX",
"bXbXbXbXbXbXbXbXbXbX& o k u.v.z.l.l.l.y.i.0.Z > 5 bXbXbXbXbXbXbXbXbXbXbXbXbXbXbXbX& $ k e.G.H.T.!.~.U./.W.9.- ; ; bXbXbX",
"bXbXbXbXbXbXbXbXbXbX4 @ k t.v.x.v.v.t.A f j bXbXbXbXbXbXbXbXbXbXbXbXbXbXbXbXbXbXbXbXbXbXS z C a.H.Y.U.R.W.9.+ X 1 bXbXbX",
"bXbXbXbXbXbXbXbXbXbX* # f u.v.z.y.v.u.j $ X bXbXbXbXbXbXbXbXbXbXbXbXbXbXbXbXbXbXbXbXbXbX2 X > e.E.^.U./.P.6.j l ~ bXbXbX",
"bXbXbXbXbXbXbXbXbXbX% + k 6.v.z.v.v.t.k % . bXbXbXbXbXbXbXbXbXbXbXbXbXbXbXbXbXbXbXbXbXbX2 X > a.(.(.^.I.~.I.sXJ.9.t 4 bX",
"bXbXbXbXbXbXbXbXbXbX. % f G 6.6.6.6.G f % $ bXbXbXbXbXbXbXbXbXbXbXbXbXbXbXbXbXbXbXbXbXbXbXs l q.e.a.a.p.p.p.j.A.{ : & 5 ",
"bXbXbXbXbXbXbXbXbXbX. @ * b v c v v V 3 @   bXbXbXbXbXbXbXbXbXbXbXbXbXbXbXbXbXbXbXbXbXbXbXbXbXt < ; r x b b x x e & * 5 ",
"bXbXbXbXbXbXbXbXbXbX4 * 3 a J J J J c 3 * . bXbXbXbXbXbXbXbXbXbXbXbXbXbXbXbXbXbXbXbXbXbXbXbXbXX . & 9 i 9 R u u 8 4 & 5 ",
"bXbXbXbXbXbXbXbXbXbX& @ = a J J J J c 3 & * bXbXbXbXbXbXbXbXbXbXbXbXbXbXbXbXbXbXbXbXbXbXbXbXbXbX* * 8 i i c i i 9 4 & 5 "
};
