/* XPM */
static char *result[] = {
/* columns rows colors chars-per-pixel */
"60 60 241 2 ",
"   c #1B130E",
".  c #1D0D15",
"X  c #1E0F19",
"o  c #1D131B",
"O  c #1A1516",
"+  c #1D0B0E",
"@  c #2A120B",
"#  c #35120D",
"$  c #240E1B",
"%  c #270E17",
"&  c #241315",
"*  c #2B1315",
"=  c #23141C",
"-  c #2A131C",
";  c #2C1A1B",
":  c #251A1B",
">  c #331C1B",
",  c #361815",
"<  c #230E0F",
"1  c #3B211D",
"2  c #2D201A",
"3  c #1D1523",
"4  c #1B1B23",
"5  c #241522",
"6  c #2B1623",
"7  c #241A23",
"8  c #2B1A24",
"9  c #2A1D29",
"0  c #241A29",
"q  c #341C27",
"w  c #361D34",
"e  c #2C232C",
"r  c #282229",
"t  c #33232B",
"y  c #3B242C",
"u  c #372627",
"i  c #2C2332",
"p  c #282533",
"a  c #3B2535",
"s  c #342B33",
"d  c #3C243B",
"f  c #3E2A3B",
"g  c #372836",
"h  c #3D333B",
"j  c #36323A",
"k  c #2F333B",
"l  c #441E1A",
"z  c #44251B",
"x  c #4C251C",
"c  c #532B1A",
"v  c #441F31",
"b  c #462A28",
"n  c #532E24",
"m  c #55332A",
"M  c #452C34",
"N  c #43243C",
"B  c #442838",
"V  c #4A343A",
"C  c #4D3C3C",
"Z  c #473536",
"A  c #533B3D",
"S  c #573838",
"D  c #4D302D",
"F  c #643729",
"G  c #6A3C36",
"H  c #703E34",
"J  c #57423C",
"K  c #43403F",
"L  c #69433D",
"P  c #764838",
"I  c #7E4F38",
"U  c #3B2B43",
"Y  c #372848",
"T  c #393447",
"R  c #353454",
"E  c #323969",
"W  c #422541",
"Q  c #442B42",
"!  c #4C3C42",
"~  c #483947",
"^  c #543D44",
"/  c #553C47",
"(  c #473B54",
")  c #603C45",
"_  c #413F69",
"`  c #36456E",
"'  c #3C405C",
"]  c #4A4347",
"[  c #5C4642",
"{  c #52424A",
"}  c #584949",
"|  c #4C4A55",
" . c #554A56",
".. c #5D5C5C",
"X. c #5A5658",
"o. c #4F5055",
"O. c #664946",
"+. c #714D44",
"@. c #764E47",
"#. c #6B534B",
"$. c #7B5546",
"%. c #655A59",
"&. c #715555",
"*. c #5E635D",
"=. c #68635D",
"-. c #776357",
";. c #4D5168",
":. c #575565",
">. c #55557A",
",. c #4A4E6C",
"<. c #635E62",
"1. c #615677",
"2. c #5C636C",
"3. c #636263",
"4. c #6C6765",
"5. c #756764",
"6. c #6F6F72",
"7. c #83483D",
"8. c #875236",
"9. c #B1653D",
"0. c #855944",
"q. c #895B45",
"w. c #845A4B",
"e. c #8B5B4B",
"r. c #865544",
"t. c #935745",
"y. c #8D594E",
"u. c #A45D44",
"i. c #9B664C",
"p. c #876859",
"a. c #986857",
"s. c #9F725D",
"d. c #8F644B",
"f. c #A6654A",
"g. c #BC6E4C",
"h. c #B96C46",
"j. c #BB734D",
"k. c #A96953",
"l. c #B66C55",
"z. c #A77456",
"x. c #B97354",
"c. c #A3764C",
"v. c #876E61",
"b. c #88746A",
"n. c #987869",
"m. c #967C72",
"M. c #917870",
"N. c #A67B63",
"B. c #B57469",
"V. c #C36D4B",
"C. c #C66D46",
"Z. c #C3734D",
"A. c #C67445",
"S. c #C47255",
"D. c #C76E52",
"F. c #93816C",
"G. c #958273",
"H. c #9A8574",
"J. c #9A8876",
"K. c #A6826B",
"L. c #B38363",
"P. c #B88567",
"I. c #AD8C76",
"U. c #B6825F",
"Y. c #DD9E6C",
"T. c #D6986B",
"R. c #C89874",
"E. c #DC9C72",
"W. c #D59E79",
"Q. c #CA926B",
"!. c #E39E6C",
"~. c #E79D68",
"^. c #E29D72",
"/. c #DCA36C",
"(. c #DDA273",
"). c #D9A379",
"_. c #CFA078",
"`. c #E3A26C",
"'. c #E9A26C",
"]. c #E5A264",
"[. c #E4A373",
"{. c #E3A37B",
"}. c #E8A674",
"|. c #3A548F",
" X c #485A89",
".X c #565E89",
"XX c #4F5A9B",
"oX c #576797",
"OX c #586389",
"+X c #6C6D94",
"@X c #576BA6",
"#X c #5673A9",
"$X c #556EB6",
"%X c #5778B9",
"&X c #4C6AA8",
"*X c #6979AF",
"=X c #5B7CC5",
"-X c #557CCC",
";X c #5B7ECC",
":X c #5779C4",
">X c #5C7ED3",
",X c #557DD3",
"<X c #4E7AD4",
"1X c #637EC4",
"2X c #8F7890",
"3X c #7687B6",
"4X c #6E85B6",
"5X c #5B81BF",
"6X c #4D83CD",
"7X c #5B82CB",
"8X c #5683C7",
"9X c #4A84D7",
"0X c #5882D4",
"qX c #6485C8",
"wX c #7189C3",
"eX c #6382DB",
"rX c #4E8DE1",
"tX c #908D96",
"yX c #B79794",
"uX c #AF958E",
"iX c #8588AA",
"pX c #918DAC",
"aX c #A397A3",
"sX c #AFB3B8",
"dX c #D19F80",
"fX c #CE9B82",
"gX c #D7A286",
"hX c #D3AD8F",
"jX c #C1BDAA",
"kX c #D6C8B7",
"lX c #BACAD3",
"zX c #B4CCD4",
"xX c #BEDCE8",
"cX c #D2D2CC",
"vX c #C8D9E3",
"bX c #CFDEFA",
"nX c #C7E5EB",
"mX c #C8E7F5",
"MX c #D3E6F6",
"NX c #CAF1F5",
"BX c None",
/* pixels */
"BXBXBXBXBXBXBXBXBXBXBXBXBXBXBXBXBXBXBXBXBXBXBXBXBXBXBXBXBXBXBXBXBXBXBXBXBXBXBXBXBXBXBXBXBXBXBXBXBXBXBXBXBXBXBXBXBXBXBXBX",
"BXBXBXBXBXe 7 8 7 8 t s 9 j BXBXBXBXBXBXBXBXBXBXBXBXBXBXBXBXBXBXBXBXBXBXBXBXBXBXBXBXBXBXBXBXBXBXBXBXBXBXBXBXBXBXBXBXBXBX",
"BXBXBXBXr o o 7 7 3 7 3 O s X.BXBXBXBXBXBXBXBXBXBXBXBXBXBXBXBXBXBXBXBXBXBXBXBXBXBXBXBXBXBXBXBXBXBXBXBXBXBXBXBXBXBXBXBXBX",
"BXBXBXBX7 = = BXBXBXBXBXBXBXT p 4 k BXBXBXBXBXBXBXBXBXBXBXBXBXBXBXBXBXBXBXBXBXBXBXBXBXBXBXBXBXBXBXBXBXBXBXBXBXBXBXBXBXBX",
"BXBXBXBX= = = BXBXBXBXBXBXBXBXBXj o.:.BXBXBXBXBXBXBXBXBXBXBXBXBXBXBXBXBXBXBXBXBXBXBXBXBXBXBXBXBXBXBXBXBXBXBXBXBXBXBXBXBX",
"BXBXBXBX7 o = BXBXBXBXBXBXBXBXBXBXBXp X 9 BXBXBXBXBXBXBXV 5 $ = % = 6 8 6 % - % 5 g BXBXBXBXBXBXBXBXBXBXBXBXBXBXBXBXBXBX",
"BXBXBXBX5 = = BXBXBXBXBXBXBXBXBXBXBX0 = 6 8 : & o 7 ; t f M V V M M M Z M M V V M f t 8 r BXBXBXBXBXBXBXBXBXBXBXBXBXBXBX",
"BXBXBXBXBX5 8 BXBXBXBXBXBXBXBXBXBXBX0 8 w y u u u u u y S ) ) O.[ J J J C ^ ] ^ ^ V u 8 7 p BXBXBXBXBXBXBXBXBXBXBXBXBXBX",
"BXBXBXBXBXBXBXBX: O 4 BXBXBXBXBXBXBXBXBXBXp.8.8.0.$.0.0.0.0.0.0.r.r.r.[ A A J C J A C A C b = = e BXBXBXBXBXBXBXBXBXBXBX",
"BXBXBXBXBXBXBXBX- . O BXBXBXBXBXBXBXBXBXBXM.0.8.t.e.q.q.w.q.q.q.q.q.0.@.+.+.+.+.+.+.+.+.#.y & * 7 s s BXBXBXBXBXBXBXBXBX",
"BXBXBXBXBXBXBXBX$ 9 k BXBXBXBXBXBXBXBXMXvXaX5.a.d.0.0.q.q.q.q.q.q.q.q.w.0.q.q.e.0.w.q.q.$.m , 2 , ; ; u / BXBXBXBXBXBXBX",
"BXBXBXBXBXBXBXBXBXBXBXa t p BXBXBXBXnXnXmXxXlXcXyXp.q.q.r.q.q.q.q.0.0.q.q.q.q.q.q.q.q.q.q.$.I P +.@.+.O.m u i T BXBXBXBX",
"BXBXBXBXBXBXBXBXBXBXBX8 < o | BXNXmXxXnXMXMXmXmXjXN.z.c.k.l.z.z.z.z.f.$.@.@.O.+.@.O.P +.+.$.e.0.q.e.y.w.S z b Z BXBXBXBX",
"BXBXBXBXBXBXBXBXBXBXBXe o r 6.vXnXnXNXnXbXbXmXmXcXgXW.T.~.'./.).).W.Q.L B Q N w Q d d f B G $.q.8.e.y.r.8.q.w.L , & 7 BX",
"BXBXBXBXBXBXBXBXBXBXBXBXBXBX:.o.X.+XxXnXbXMXmXxXcXcXcXkXhX(.Y.Y./.[.^.x.N.s.&.B d d d d N Q ^ S ^ ) S G $.e.e.P , + = BX",
"BXBXBXBXBXBXBXBXBXBXBXBXBXBXs : < { lXNXmXbXmXmXnXcXzXcXhX).`.`.!.`.'.'.^.W.a.D y f a d d d N B B U W N / @.@.S 1 = r BX",
"BXBXBXBXBXBXBXBXBXBXBXBXBXBXe 5 : | zXNXnXnXnXnXsX<. .-.P.!.].'.`.(.(./.}.(.a.B w W d U d B a d d d Q B q - 8 y BXBXBXBX",
"BXBXBXBXBXBXBXBXBXBXBXBXBXBXBXBXT :.M.tX3XzXNXNXsX/ ^ O.L.(.`.].[./.(._.[.!.a.N Y a B a a w a N U d f a 8 $ 6 0 BXBXBXBX",
"BXBXBXBXBXBXBXBXBXBXBXBXBXBXBXBXBXBXr o j tXvXvXaXO./ @.L._.[.[.`.[././.`.Y.a.( R Y B Y R Y w N N v a q t 8 9 s BXBXBXBX",
"BXBXBXBXBXBXBXBXBXBXBXBXBXBXBXBXBXBX5 - 8  .4.6.M.K.P.P.T.Y.[.[.Y.(./.(.'.{.tXOX&XoX.XoX.X_ R Y w q - 8 h BXBXBXBXBXBXBX",
"BXBXBXBXBXBXBXBXBXBXBXBXBXBXBXBXBXBXo $ - V ~ Z w.E.[.^.}.].}.[.(.(.(.E.^.dXuXiXwXwXqX0X:X XE R a 7   o BXBXBXBXBXBXBXBX",
"BXBXBXBXBXBXBXBXBXBXBXBXBXBXBXBXBXBXp 3 # D ~ ~ w.^.~.Y.(.}./.].].(.).{.^.[.!.E.fXyXiX1X:X-X:X;X,.4   O BXBXBXBXBXBXBXBX",
"BXBXBXBXBXBXBXBXBXBXBXBXBXBXBXBXy ~ ` ` ' / A S O.d.i.n.tXaXtXyXgX[.].'.'.'./.[.W.fXyXaXaXiX,X<X|.4 @ @ BXBXBXBXBXBXBXBX",
"BXBXBXBXBXBXBXBXBXBXBXBXBXBX~ 7 & g &XrX%X>. .|  .^ V ,.oX%XqXpXyXW.Y.W.dXdX).[.~.~.^.gXgXuX3XwX X9 ; : BXBXBXBXBXBXBXBX",
"BXBXBXBXBXBXBXBX9 9 8 6 8 q = = = Y $X0X8X%X$X#X.X/ A  .oX5XqXqXwX3X3X3X3XiXuXgX[.~.Y.).[._.R.).n.b - o BXBXBXBXBXBXBXBX",
"BXBXBXBXBXBXBXD n n m n m D q = 5 T $X>X7X%X-X>X+X^ ^ / 1.@X$X$X-X-X,X9X<X*XiXaXyXR.uXfXyXK.c.z.a.S > r BXBXBXBXBXBXBXBX",
"BXBXBXBXe = = P h.h.C.V.l.f.F , - R $X>X5X%X9X>XoX/ S S ^ / ( >.#XqX6X7X8X-X;X1XqX5X7X5X*XT : 2 w BXBXBXBXBXBXBXBXBXBXBX",
"BXBXBXBX8 = - P x.g.V.D.S.l.i.$.I w.m.m.2X*X0X9X%XoXoXOX;./ /  .1..X X$X>X7X7X;X=X;X>X>X:XE 4 O = BXBXBXBXBXBXBXBXBXBXBX",
"BXBXBXBXe 9 = H f.u.f.h.u.u.g.D.D.D.A.j.B.2X,X9X9X1X8X%X X,.{ ^ Z S { oX%X:X8X7X7X:X$X@XXX` 8   = BXBXBXBXBXBXBXBXBXBXBX",
"BXBXBXBXBXBXBXb v q > q , x r.l.x.x.j.Z.B.2X;X6X0X1X;XeX>X:X*X.X| ~ A J ] ,.oX=X1XoXR 0 p BXBXBXBXBXBXBXBXBXBXBXBXBXBXBX",
"BXBXBXBXBXBXBXBXBX9 5 9 q m H P P 7.r.P $.+X:X:X8X;X%X8X6X0X5X#X>.>.>.{ C ( ,.OXoX,.p = = BXBXBXBXBXBXBXBXBXBXBXBXBXBXBX",
"BXBXBXBXBXBXBXBXBXBXBXBXBXBXBX> * 6 $ # r ` 0X6X8X0X0X0X-X:X7X%X:X:X*X .A S A ^ [ V 8 = 7 BXBXBXBXBXBXBXBXBXBXBXBXBXBXBX",
"BXBXBXBXBXBXBXBXBXBXBXBXBXBXBXBXBXBXw = o ` BXBX8X0X7X%X.X;.:.:.;.;.;./ / S S A S V ; = = BXBXBXBXBXBXBXBXBXBXBXBXBXBXBX",
"BXBXBXBXBXBXBXBXBXBXBXBXBXBXBXBXBXBX6 - : E #XoXoX#X%XoX;.C S / O.O.} O.X.O.} } } [ D u y h BXBXBXBXBXBXBXBXBXBXBXBXBXBX",
"BXBXBXBXBXBXBXBXBXBXBXBXBXBXBXBXBXBX5 6 ; f ] { S ) { { ^ A ] &.M.m.G.m.G.G.m.F.G.G.m.m.M.J & : 9 BXBXBXBXBXBXBXBXBXBXBX",
"BXBXBXBXBXBXBXBXBXBXBXBXBXBXBXBXBXBX5 < - Z } } O.-.-.-.-.-.-.v.G.H.J.J.H.H.H.H.H.H.H.H.G.[ * = 9 BXBXBXBXBXBXBXBXBXBXBX",
"BXBXBXBXBXBXBXBXBXBXBXBXBXBXBXBXBXBXt 8 e } ....5.G.G.G.J.J.m.G.H.F.H.J.H.H.H.H.H.H.H.H.G.J : : 9 BXBXBXBXBXBXBXBXBXBXBX",
"BXBXBXBXBXBXBXBXBXBXBXBXBXBXBXi p k |  . .X.*.*.3.4.4.4.4.4.4.b.H.G.J.J.H.H.H.H.H.H.H.H.G.} * = 9 BXBXBXBXBXBXBXBXBXBXBX",
"BXBXBXBXBXBXBXBXBXBXBXBXBXBXg = . e X.*.=.3.3.*.=...%.<.o.] { %.5.-.5.G.H.H.H.H.H.H.H.H.J.J & : 9 BXBXBXBXBXBXBXBXBXBXBX",
"BXBXBXBXBXBXBXBXBXBXBXBXBXBXe = & s ..*...3...*.3.<.3.o.s 7 7 9 - & u p.H.H.H.H.H.H.H.H.H.J & : r BXBXBXBXBXBXBXBXBXBXBX",
"BXBXBXBXBXBXBXBXBXBXBXBXBXBXt : : u ..*.3.3.:.=.o.Z h h ~ BXBXr = & u p.J.H.H.H.H.H.H.H.G.[ : o 9 BXBXBXBXBXBXBXBXBXBXBX",
"BXBXBXBXBXBXBXBXBXBXBXBXBXBXs e e j X.*.3.3.*.%.] : $ 6 BXBXBXBXO = u v.H.H.H.J.H.H.J.J.G.[ & : 9 BXBXBXBXBXBXBXBXBXBXBX",
"BXBXBXBXBXBXBXBXBXBXBXp 4 r Z o...X.3.3.3...3.4.] : - 6 BXBXBXBXo 5 u v.H.F.J.J.G.J.F.G.J.J * O 5 BXBXBXBXBXBXBXBXBXBXBX",
"BXBXBXBXBXBXBXBXBXBXBX7 . : K *.*.*.3.X.3. .] ] ] h 9 BXBXBXBXBXBX8 y #.#.#.v.F.F.J.F.F.G.O.: & 7 BXBXBXBXBXBXBXBXBXBXBX",
"BXBXBXBXBXBXBXBXBXBXBXy > ; C %.=.=.=.%.%.Z : O r BXBXBXBXBXBXBXBXBXBX5 = ; L H.K.K.K.H.H.O., : s BXBXBXBXBXBXBXBXBXBXBX",
"BXBXBXBXBXBXBXBX7 b S @.q.r.d.k.z.i.z.s.p.D & o 4 BXBXBXBXBXBXBXBXBXBX5 = @ $.I._.R.R.R.R.L.z.N.p.S u e BXBXBXBXBXBXBXBX",
"BXBXBXBXBXBXBXBX- * l f.S.Z.C.V.S.V.u.u.y.F , : BXBXBXBXBXBXBXBXBXBXBX7 & # 8.(.[./.!.}.'.'.[.).L.z < = BXBXBXBXBXBXBXBX",
"BXBXBXBXBXBXBXBX- * b k.Z.C.Z.x.x.t.l 6 g BXBXBXBXBXBXBXBXBXBXBXBXBXBX0 X , $.).gX}.Y.(.(.`.`.[.L.z = 3 BXBXBXBXBXBXBXBX",
"BXBXBXBXBXBXBXBX9 - b i.x.A.9.h.j.8., < 8 BXBXBXBXBXBXBXBXBXBXBXBXBXBXBXBXBX#.w.e.f.Q.).[.[.`.E.L.z . 3 BXBXBXBXBXBXBXBX",
"BXBXBXBXBXBXBXu ; > c i.Z.A.C.f.k.q.b : 9 BXBXBXBXBXBXBXBXBXBXBXBXBXBXBXBXBXBX= @ c P.{.[.`.'.[.L.z $ 3 BXBXBXBXBXBXBXBX",
"BXBXBXBXT i i H u.u.u.g.Z.h.P x D S BXBXBXBXBXBXBXBXBXBXBXBXBXBXBXBXBXBXBXBXBX3 * c P.}.[.`.'./.z.z & 3 BXBXBXBXBXBXBXBX",
"BXBXBXBXi X $ P D.S.S.V.V.x.F & 4 9 BXBXBXBXBXBXBXBXBXBXBXBXBXBXBXBXBXBXBXBXBX0 & b P.(.[.`.].(.L.z = 3 BXBXBXBXBXBXBXBX",
"BXBXBXBXt & * P j.j.j.h.j.l.F < 3 7 BXBXBXBXBXBXBXBXBXBXBXBXBXBXBXBXBXBXBXBXBXo + m P.Y.E.E.[.).z.z & 7 BXBXBXBXBXBXBXBX",
"BXBXBXBXe o < P g.g.g.x.Z.k.F # = 4 BXBXBXBXBXBXBXBXBXBXBXBXBXBXBXBXBXBXBXBXBX. @ n U.`.[.[.[.}.T.c.d.p.#.Z j BXBXBXBXBX",
"BXBXBXBXM > , 8.Z.S.l.l.f.y.O.q 3 BXBXBXBXBXBXBXBXBXBXBXBXBXBXBXBXBXBXBXBXBXBX7 : Z N.R.Q.T.^.^.~.].}._.P % 5 9 BXBXBXBX",
"BXr 1 m r.f.k.h.S.x.t.m l b C BXBXBXBXBXBXBXBXBXBXBXBXBXBXBXBXBXBXBXBXBXBXBXBXBXBXBXJ z c d.W.gX`.]./._.P * 5 9 BXBXBXBX",
"BXo * l H y.t.t.t.r.G l - . BXBXBXBXBXBXBXBXBXBXBXBXBXBXBXBXBXBXBXBXBXBXBXBXBXBXBXBX: = * O.s.z.z.z.s.v.S * = 9 BXBXBXBX",
"BX= $ - B B N v N W N $ $ = BXBXBXBXBXBXBXBXBXBXBXBXBXBXBXBXBXBXBXBXBXBXBXBXBXBXBXBX: = = t d d Q N B B 8 $ = 9 BXBXBXBX",
"BX= $ 6 d U Y Y Y U N $ = = BXBXBXBXBXBXBXBXBXBXBXBXBXBXBXBXBXBXBXBXBXBXBXBXBXBXBXBX7 & & q B d W W d B 6 = = 9 BXBXBXBX",
"BX= % % a U g U U N v % - = BXBXBXBXBXBXBXBXBXBXBXBXBXBXBXBXBXBXBXBXBXBXBXBXBXBXBXBX7 = 6 w d a g a a d w 6 = BXBXBXBXBX"
};
