/* XPM */
static char *result[] = {
/* columns rows colors chars-per-pixel */
"60 60 234 2 ",
"   c #1E0D17",
".  c #1E131B",
"X  c #1E1417",
"o  c #220E15",
"O  c #231215",
"+  c #2B1416",
"@  c #23141C",
"#  c #2B1A1A",
"$  c #29171A",
"%  c #331B19",
"&  c #361817",
"*  c #3A211D",
"=  c #36211B",
"-  c #1B1522",
";  c #1E1825",
":  c #1B1D34",
">  c #241522",
",  c #2A1522",
"<  c #251B24",
"1  c #2A1C25",
"2  c #251D2B",
"3  c #2A1C29",
"4  c #331C2C",
"5  c #351C23",
"6  c #251F33",
"7  c #391E37",
"8  c #2C222C",
"9  c #2D262B",
"0  c #35242C",
"q  c #392729",
"w  c #2C2733",
"e  c #332433",
"r  c #3B2436",
"t  c #332B35",
"y  c #3D243A",
"u  c #3D2A3A",
"i  c #3A2937",
"p  c #3D333D",
"a  c #3A323A",
"s  c #102130",
"d  c #441B16",
"f  c #46261B",
"g  c #572316",
"h  c #492625",
"j  c #472927",
"k  c #522B28",
"l  c #4A322D",
"z  c #58352B",
"x  c #432E34",
"c  c #452939",
"v  c #433136",
"b  c #443338",
"n  c #4A343C",
"m  c #4C3738",
"M  c #5E3B33",
"N  c #523B3B",
"B  c #5C3D3B",
"V  c #563439",
"C  c #63372D",
"Z  c #633E34",
"A  c #663B38",
"S  c #763F2E",
"D  c #441F33",
"F  c #5B413A",
"G  c #62413B",
"H  c #69453A",
"J  c #77483A",
"K  c #784A31",
"L  c #262747",
"P  c #3C2642",
"I  c #37374B",
"U  c #422543",
"Y  c #422840",
"T  c #4B3C43",
"R  c #473945",
"E  c #523C43",
"W  c #553543",
"Q  c #4B3D56",
"!  c #633E43",
"~  c #3F4761",
"^  c #4B4145",
"/  c #494448",
"(  c #5A4344",
")  c #54454A",
"_  c #4A4455",
"`  c #554855",
"'  c #5C5C5C",
"]  c #59555C",
"[  c #6C4A45",
"{  c #744D45",
"}  c #6B534C",
"|  c #7C5443",
" . c #7B5648",
".. c #6E5C54",
"X. c #625C5D",
"o. c #685652",
"O. c #725A55",
"+. c #6C4C57",
"@. c #5D605D",
"#. c #6B625C",
"$. c #76645B",
"%. c #444B6A",
"&. c #595465",
"*. c #4A5576",
"=. c #57567B",
"-. c #514F6B",
";. c #645C64",
":. c #665D7E",
">. c #5E6161",
",. c #5B617E",
"<. c #636262",
"1. c #6C666C",
"2. c #776A65",
"3. c #7C726B",
"4. c #696872",
"5. c #71747D",
"6. c #6D717A",
"7. c #864D3A",
"8. c #89583D",
"9. c #8C442B",
"0. c #C3693B",
"q. c #835644",
"w. c #845A44",
"e. c #8B5B44",
"r. c #835A4A",
"t. c #8B5C4A",
"y. c #885548",
"u. c #965948",
"i. c #83544B",
"p. c #A75E48",
"a. c #8C624A",
"s. c #8B6040",
"d. c #97654B",
"f. c #876556",
"g. c #976A56",
"h. c #9E755C",
"j. c #AB6548",
"k. c #BB6E4B",
"l. c #B76A49",
"z. c #BC7245",
"x. c #B97549",
"c. c #A96A55",
"v. c #BD6D52",
"b. c #A9775B",
"n. c #B87455",
"m. c #AC704C",
"M. c #856B66",
"N. c #8B7769",
"B. c #927770",
"V. c #AA7865",
"C. c #A56D70",
"Z. c #C36E4D",
"A. c #C76D45",
"S. c #C3714B",
"D. c #C26E52",
"F. c #C16E5C",
"G. c #C37253",
"H. c #C87150",
"J. c #B7835E",
"K. c #9A8574",
"L. c #9A8576",
"P. c #97816E",
"I. c #B98567",
"U. c #A68B76",
"Y. c #BC8C71",
"T. c #EE9D5D",
"R. c #C48B66",
"E. c #CD946C",
"W. c #CA9364",
"Q. c #DB9D6C",
"!. c #D49267",
"~. c #CB9774",
"^. c #D49B73",
"/. c #DB9D72",
"(. c #D39B78",
"). c #E59D69",
"_. c #E59D73",
"`. c #DEA26E",
"'. c #DDA273",
"]. c #DCA37A",
"[. c #D6A379",
"{. c #CCA27C",
"}. c #E3A26D",
"|. c #E3A272",
" X c #E9A473",
".X c #E4A578",
"XX c #C78C5F",
"oX c #475784",
"OX c #575B83",
"+X c #4B5F97",
"@X c #546696",
"#X c #476295",
"$X c #566AA5",
"%X c #5C71A4",
"&X c #5878B9",
"*X c #576DB2",
"=X c #6C79A9",
"-X c #6975AF",
";X c #777B82",
":X c #5A7DC5",
">X c #5B7CCB",
",X c #557DC9",
"<X c #587DD5",
"1X c #617CC6",
"2X c #7C848F",
"3X c #7587B6",
"4X c #5582CD",
"5X c #5C82CA",
"6X c #5583C6",
"7X c #5482D1",
"8X c #5783D4",
"9X c #4B83D4",
"0X c #5D81DA",
"qX c #8F8D99",
"wX c #8F9CA5",
"eX c #99A7B2",
"rX c #A1AEB9",
"tX c #AD938A",
"yX c #CE9F87",
"uX c #A7BCC7",
"iX c #B4B9C2",
"pX c #B3C8D3",
"aX c #BDD8E4",
"sX c #BDE3EA",
"dX c #C2CEDA",
"fX c #C7DBE7",
"gX c #C5E2EC",
"hX c #C9E4EE",
"jX c #C4E6F4",
"kX c #CAE6F3",
"lX c #CBEAF6",
"zX c #CBE9F8",
"xX c #D2E9F5",
"cX c None",
/* pixels */
"cXcXcXcXcXcXcXcXcXcXcXcXcXcXcXcXcXcXcXcXcXcXcXcXcXcXcXcXcXcXcXcXcX1 1 1 1 1 3 8 1 w cXcXcXcXcXcXcXcXcXcXcXcXcXcXcXcXcXcX",
"cXcXcXcXcXcXcXcXcXcXcXcXcXcXcXcXcXcXcXcXcXcXcXcXcXcXcXcXcXcXcXcXcXt i t t 8 3 3 1 w / cXcXcXcXcXcXcXcXcXcXcXcXcXcXcXcXcX",
"cXcXcXcXcXcXcXcXcXcXcXcXcXcXcXcXcXcXcXcXcXcXcXcXcXcXcXcXcXcX1 < I uXsXaXaXcXcXcXcXcXcX2 < < cXcXcXcXcXcXcXcXcXcXcXcXcXcX",
"cXcXcXcXcXcXcXcXcXcXcXcXcXcXcXcXcXcXcXcXcXcXcXcXcXcXcXcXcXcX@   R pXzXkXjXjXkXcXcXcXcX- > 3 cXcXcXcXcXcXcXcXcXcXcXcXcXcX",
"cXcXcXcXcXcXcXcXcXcXcXcXcXcXcXcXcXcXcXcXcXcXcXcXcXcXcXcXcX&.5.6.2XaXkXhXkXkXfXrX2X4._ t 2 cXcXcXcXcXcXcXcXcXcXcXcXcXcXcX",
"cXcXcXcXcXcXcXcXcXcXcXcXcXcXcXcXcXcXcXcXcXcXcXcXcXcXcX@ @ 1.fXjXjXkXkXjXjXkXhX5.X X ; cXcXcXcXcXcXcXcXcXcXcXcXcXcXcXcXcX",
"cXcXcXcXcXcXcXcXcXcXcXcXcXcXcXcXcXcXcXcXcXcXcXcXcXcXe > , 4.fXkXjXgXgXzXsXgXfX5.8 @ 8 cXcXcXcXcXcXcXcXcXcXcXcXcXcXcXcXcX",
"cXcXcXcXcXcXcXcXcXcXcXcXcXcXcXcXcXcXcXcXcXcXcXcX8 p ;XwXwXuXhXhXkXsXjXfX;X4.;.] cXcXcXcXcXcXcXcXcXcXcXcXcXcXcXcXcXcXcXcX",
"cXcXcXcXcXcXcXcXcXcXcXcXcXcXcXcXcXcXcXcXcXcXcX@   < qXxXkXlXlXgXkXlXkXdX] o @ cXcXcXcXcXcXcXcXcXcXcXcXcXcXcXcXcXcXcXcXcX",
"cXcXcXcXcXcXcXcXcXcXcXcXcXcXcXcXcXcXcXcXcXcXcXa 9 I qXfXkXkXzXjXjXaXaXrXX.1 1 cXcXcXcXcXcXcXcXcXcXcXcXcXcXcXcXcXcXcXcXcX",
"cXcXcXcXcXcXcXcXcXcXcXcXcXcXcXcXcXcXcXcX8 2 I wXpXiXfXkXlXzXjXlXpX` I / &.cXcXcXcXcXcXcXcXcXcXcXcXcXcXcXcXcXcXcXcXcXcXcX",
"cXcXcXcXcXcXcXcXcXcXcXcXcXcXcXcXcXcXcXcX, > w rXxXkXkXzXzXzXzXlXuXu o < cXcXcXcXcXcXcXcXcXcXcXcXcXcXcXcXcXcXcXcXcXcXcXcX",
"cXcXcXcXcXcXcXcXcXcXcXcXcXcXcXcXcXcXcXcXO O t rXkXkXjXzXkXjXkXzXuXP @ 8 R cXcXcXcXcXcXcXcXcXcXcXcXcXcXcXcXcXcXcXcXcXcXcX",
"cXcXcXcXcXcXcXcXcXcXcXcXcXcXcXcXcXcXcXcXO X t rXkXlXgXfXgXfXgXfXrXu $ , 1 1 < $ $ < t cXcXcXcXcXcXcXcXcXcXcXcXcXcXcXcXcX",
"cXcXcXcXcXcXcXcXcXcXcXcXcXcXcXcXcXcXcXcX@ X 4 eXxXhXeX6.1.1.4.4.&.n b n n x x n b x x i 8 t cXcXcXcXcXcXcXcXcXcXcXcXcXcX",
"cXcXcXcXcXcXcXcXcXcXcXcXcXcXcXcXcXcXcXx l l m $.qXqXB.f.a.t.d.f.f.{ [ [ ( m N ^ E N v 0 0 t cXcXcXcXcXcXcXcXcXcXcXcXcXcX",
"cXcXcXcXcXcXcXcXcXcXcXcXcXcXcXcXcX0 % k 8.w. .[ A [ V.(.}.).`.Q.E.d.y.| [ M B ( B B B B ( m $ @ 2 cXcXcXcXcXcXcXcXcXcXcX",
"cXcXcXcXcXcXcXcXcXcXcXcXcXcX8 1 m [ | 7.e.e.w.q.q.8.J.|.'.`. X|.!.d.e.w.r.r.r.i.y.e.w.| r.[ & + O $ $ # 1 + 1 ^ cXcXcXcX",
"cXcXcXcXcXcXcXcXcXcXcXcXcXcX> @ l  .s.8.y.y.a.e.e.e.d.b.b.J.'.'.Q.XXR.b.d.e.e.u.e.e.e.e.q.q.H Z F G G G Z Z Z E v 0 cXcX",
"cXcXcXcXcXcXcXcXcXcXcXcXcX1 @ O k r.e.8.e.e.t.e.r.w.d.m.m.J.^.'.|. X X^.g.H +.{ { H { J H | r.t.e.e.e.w.w.e.f.G + o < cX",
"cXcXcXcXcXcXcXcXcXcXcXcXcXcX< # l  .i.q.| | q.q.| | n.Q.Q.`.'.`.|..X].E.q.c W W c y U y D V [ i.w.8.7.w.q.|  .G & + 1 cX",
"cXcXcXcXcXcXcXcXcXcXcXcXcXcXcXcX^ q 5 h = = & q q f g.'.}.}.`.`.}.}././.R.R.V.O.c r u u r y W n n n n n j 5 0 c cXcXcXcX",
"cXcXcXcXcXcXcXcXcXcXcXcXcXcXcXcXcXcXcXcXcXcXcX< > + t.].}.`.'.`.|.|. X_._. X/.r.r e y u y y y c c U U y 3 > @ < cXcXcXcX",
"cXcXcXcXcXcXcXcXcXcXcXcXcXcXcXcXcXcXcXcXcXcXcX< @ + a.'.|.'.|.'..X|. X_._._.yXg.G A W U P P r 0 r 7 y 4 e e 4 cXcXcXcXcX",
"cXcXcXcXcXcXcXcXcXcXcXcXcXcXcXcXcXcXcXcXcXcXcX3 1 % d.'.'./.|.|.|.|.'.|.)._..X/.~.(.h.M D U U r r , @ 1 p cXcXcXcXcXcXcX",
"cXcXcXcXcXcXcX3 3 < 2 < w cXcXcXcXcXcXcXcX8 i c u l g.|.}.`..X|.|.'.'.|.|.|.).}.|. XE.n.V.M.W 7 r , @ > cXcXcXcXcXcXcXcX",
"cXcXcXcXcXcXx Z C C C C M N cXcXcXcXcXcX< o $ b T N b..X|.|.|._.).|.|.yXyX].(.[._.).).|..XE.d.| { q O > cXcXcXcXcXcXcXcX",
"cXcXcXcX> . h j.D.z.k.v.c.K * * x cXcXcXw - 2 b E F g.~.E.~.{.{.[./.].yXcXcXcXcX(.)./.|.'.].}.}.E.F O @ cXcXcXcXcXcXcXcX",
"cXcXcXcX< @ j j.G.z.z.x.v.j.p.c.q.d , L cXcXcXQ R N ! [ +.OX=X3X3X3XcXcXcXcXcXcXcXcXcX_.).[.].T.!.n . < cXcXcXcXcXcXcXcX",
"cXcXcXcXcXcXm A A K j.F.H.A.Z.G.p.9.J +.=X5X&X$X@X,.` m R *.&X5X8XcXcXcXcXcXcXcXcXcXcXcXcXcXcXtXB.w . @ cXcXcXcXcXcXcXcX",
"cXcXcXcXcXcXcX< # j { y.u.j.k.Z.D.A.k.C.3X5X&X<X0X>X=.T R ] @X=X*X,X4X4X8X5X4XcXcXcXcXcXcXcXcX*.*.I : 1 cXcXcXcXcXcXcXcX",
"cXcXcXcXcXcXcXcXcXcXv & f K c.c.c.z.0.C.-X6X6X>X8X&XOX_ ^ ) N N ` $X:X,X9X<X,X5X1XcXcXcXcXcXL < e cXcXcXcXcXcXcXcXcXcXcX",
"cXcXcXcXcXcXcXcXcXcXcXcXcXN l k k q f A C.V.L.=X5X5X,X*X%X:.Q W E ` -.OX$X5X8X7X,X,XoXL 6 P cXcXcXcXcXcXcXcXcXcXcXcXcXcX",
"cXcXcXcXcXcXcXcXcXcXcXcXcXcXcXcX3 s t ! [ S [ %X1X5X9X9X6X%XOXOX-.E V Q &.=.@X$X,X5X*.:   $ cXcXcXcXcXcXcXcXcXcXcXcXcXcX",
"cXcXcXcXcXcXcXcXcXcXcXcXcXcXcXcXcXcXcXcX+ X s #X5X>X8X4X4X>X5X5X*X` N m m T _ *.@X@X%.L 6 9 cXcXcXcXcXcXcXcXcXcXcXcXcXcX",
"cXcXcXcXcXcXcXcXcXcXcXcXcXcXcXcXcXcXcXcX# - : @X1X<X>X>X:X>X>X4X*X` E N N N n y 6 2 w cXcXcXcXcXcXcXcXcXcXcXcXcXcXcXcXcX",
"cXcXcXcXcXcXcXcXcXcXcXcXcXcXcXcXcXe e I *.oX+X:X5X&X@X=.&.&.&.-.%.T n N N N v q + o < cXcXcXcXcXcXcXcXcXcXcXcXcXcXcXcXcX",
"cXcXcXcXcXcXcXcXcXcXcXcXcXcXcXcXcX> > 6 *.@X$X$X%X@X-.Q m ( } } o.} } } o.o.} ( N b a cXcXcXcXcXcXcXcXcXcXcXcXcXcXcXcXcX",
"cXcXcXcXcXcXcXcXcXcXcXcXcXcXcXcXcX> O 8 p ) N ( ( ( ( ( ( $.B.P.K.K.K.K.L.K.K.K.K.K...# @ 2 cXcXcXcXcXcXcXcXcXcXcXcXcXcX",
"cXcXcXcXcXcXcXcXcXcXcXcXcXcXcXcXcX@ O q ) ' o.3.N.N.N.P.B.B.K.P.U.K.K.K.L.L.K.K.K.K...# O 1 cXcXcXcXcXcXcXcXcXcXcXcXcXcX",
"cXcXcXcXcXcXcXcXcXcXcXcXcXcXcXp R R T ^ ' @.@.2.3.3.3.3.M.N.K.K.K.K.K.K.K.K.K.K.K.L...# @ 3 cXcXcXcXcXcXcXcXcXcXcXcXcXcX",
"cXcXcXcXcXcXcXcXcXcXcXcXcXi > . t X.<.' @.#.#.' @.>.&.#.X.#.3.$.N.K.K.K.K.K.K.K.K.L...# O 1 cXcXcXcXcXcXcXcXcXcXcXcXcXcX",
"cXcXcXcXcXcXcXcXcXcXcXcXcX0 X O a X.>.@.>.>.>.<.>.>.@.@.X.N 0 + l N.K.K.K.K.K.K.L.L...# O 8 cXcXcXcXcXcXcXcXcXcXcXcXcXcX",
"cXcXcXcXcXcXcXcXcXcXcXcXcX9 O X t X.<.' @.>.<.<.<.' / 9 9 8 @ . q N.K.U.K.K.K.K.K.L...$ O 1 cXcXcXcXcXcXcXcXcXcXcXcXcXcX",
"cXcXcXcXcXcXcXcXcXcXcXcXcXa p b / ;.' ] >.>.' / / ^ n 9 . . cXcXa } } } N.K.U.K.K.L.#.O X 8 cXcXcXcXcXcXcXcXcXcXcXcXcXcX",
"cXcXcXcXcXcXcXcXcXcX8 - < ^ $.$...2.$...2.$.X.0 X < cXcXcXcXcXcXcX@ O = f.U.U.U.U.U.$.f j l cXcXcXcXcXcXcXcXcXcXcXcXcXcX",
"cXcXcXcXcXcXcXcXcXcX< O % H c.j.l.n.k.n.c.V.g.k $ 8 cXcXcXcXcXcXcX# O f b.{.^.`./.(.^.!.~.V.l , 2 cXcXcXcXcXcXcXcXcXcXcX",
"cXcXcXcXcXcXcXcXcXcX< O % J l.S.H.k.v.c.S C B B cXcXcXcXcXcXcXcXcXO O d b.'. X X X}.}.}./.I.f O - cXcXcXcXcXcXcXcXcXcXcX",
"cXcXcXcXcXcXcXcXcXcXm l z 8.k.Z.D.D.n.u.d +   cXcXcXcXcXcXcXcXcXcXcXO f g.b.b.R.'.`.}.|._.I.f @ - cXcXcXcXcXcXcXcXcXcXcX",
"cXcXcXcXcXcXcX@ @ % u.v.z.z.D.F.D.k.c.t.h $ < cXcXcXcXcXcXcXcXcXcXcXcXcX1 < % a.'.}.}.}._.I.f O - cXcXcXcXcXcXcXcXcXcXcX",
"cXcXcXcXcXcXcX@ . % u.G.z.x.k.F.y.g d k cXcXcXcXcXcXcXcXcXcXcXcXcXcXcXcX> @ # a.'.}.}.}.`.I.f X - cXcXcXcXcXcXcXcXcXcXcX",
"cXcXcXcXcXcXcX@ . & u.D.z.x.S.n.7.& , > cXcXcXcXcXcXcXcXcXcXcXcXcXcXcXcX> @ # a.'.}.}.}.|.I.f X - cXcXcXcXcXcXcXcXcXcXcX",
"cXcXcXcXcXcXcXh h k u.G.Z.z.Z.n.7.& > ; cXcXcXcXcXcXcXcXcXcXcXcXcXcXcXcX< > & t.`.}.`.).}.Y.G j m cXcXcXcXcXcXcXcXcXcXcX",
"cXcXcXcX1 @ j j.m.j.G.A.0.z.k.b.7.& - 6 cXcXcXcXcXcXcXcXcXcXcXcXcXcXcXcXcX< & i.~.[.'.T.}.^.~.^.I.F $ < cXcXcXcXcXcXcXcX",
"cXcXcXcX. O h j.G.v.Z.Z.k.7.z z A cXcXcXcXcXcXcXcXcXcXcXcXcXcXcXcXcXcXcXcXcXcX[ G M a.Q.}..X[.}.E.M O < cXcXcXcXcXcXcXcX",
"cXcXcXcX< @ f j.Z.Z.Z.S.x.C O . 1 cXcXcXcXcXcXcXcXcXcXcXcXcXcXcXcXcXcXcXcXcXcXcXO o H Q.}..X|.}.^.F X > cXcXcXcXcXcXcXcX",
"cXcXcXcX3 < x u.j.v.l.j.d.H + @ cXcXcXcXcXcXcXcXcXcXcXcXcXcXcXcXcXcXcXcXcXcXcXcX@ + A Y.E.W.W.E.Y.z @ $ cXcXcXcXcXcXcXcX",
"cX3 1 4 4 e y n V c j & q F cXcXcXcXcXcXcXcXcXcXcXcXcXcXcXcXcXcXcXcXcXcXcXcXcXcXO O 0 E W W W V E 5 @ > cXcXcXcXcXcXcXcX",
"1 @ @ 4 u P y y y 7 4 o X cXcXcXcXcXcXcXcXcXcXcXcXcXcXcXcXcXcXcXcXcXcXcXcXcXcXcX@ o 5 r 7 U P y r , o @ cXcXcXcXcXcXcXcX",
"cX, , 4 u P y y 7 U 3 > < cXcXcXcXcXcXcXcXcXcXcXcXcXcXcXcXcXcXcXcXcXcXcXcXcXcXcX$ , 4 r r r r r r 4 > cXcXcXcXcXcXcXcXcX"
};
