/* XPM */
static char *result[] = {
/* columns rows colors chars-per-pixel */
"60 60 233 2 ",
"   c #1A0E1A",
".  c #1D131B",
"X  c #1A131A",
"o  c #230E19",
"O  c #220F13",
"+  c #231215",
"@  c #2A1414",
"#  c #23141C",
"$  c #2B151B",
"%  c #24191D",
"&  c #2B1A1D",
"*  c #271A12",
"=  c #321D1D",
"-  c #371A19",
";  c #25100E",
":  c #34211F",
">  c #251621",
",  c #2A1621",
"<  c #241B24",
"1  c #2B1A23",
"2  c #291D2B",
"3  c #321B29",
"4  c #341E34",
"5  c #291D34",
"6  c #2B222C",
"7  c #27222B",
"8  c #32222C",
"9  c #382424",
"0  c #2C2431",
"q  c #25253C",
"w  c #342431",
"e  c #3C2535",
"r  c #3B2D35",
"t  c #3D253B",
"y  c #3C293B",
"u  c #342937",
"i  c #393239",
"p  c #3E312E",
"a  c #1A1522",
"s  c #49231D",
"d  c #47291D",
"f  c #431F2D",
"g  c #412326",
"h  c #472729",
"j  c #58352B",
"k  c #422C34",
"l  c #42253B",
"z  c #442A36",
"x  c #4B3B3C",
"c  c #473337",
"v  c #553B3C",
"b  c #5B3E3D",
"n  c #563A35",
"m  c #54322B",
"M  c #633A2B",
"N  c #623E38",
"B  c #481F19",
"V  c #56423D",
"C  c #65423B",
"Z  c #6B4539",
"A  c #684538",
"S  c #784435",
"D  c #744B3D",
"F  c #714738",
"G  c #7C503B",
"H  c #392744",
"J  c #3A3B47",
"K  c #433A43",
"L  c #463748",
"P  c #533B42",
"I  c #573C47",
"U  c #533A56",
"Y  c #3D4473",
"T  c #4A464A",
"R  c #5B4542",
"E  c #52464A",
"W  c #524D53",
"Q  c #554756",
"!  c #5D5D5E",
"~  c #595257",
"^  c #4C4B56",
"/  c #6B4542",
"(  c #674746",
")  c #754A44",
"_  c #7C5445",
"`  c #795649",
"'  c #665957",
"]  c #795C52",
"[  c #6A4C56",
"{  c #57615F",
"}  c #69635B",
"|  c #766257",
" . c #4B4D66",
".. c #564562",
"X. c #595A66",
"o. c #555B78",
"O. c #4A5578",
"+. c #655F64",
"@. c #625F71",
"#. c #5F6467",
"$. c #616061",
"%. c #666469",
"&. c #6D6776",
"*. c #87563D",
"=. c #884E3C",
"-. c #A55C3E",
";. c #845543",
":. c #865A44",
">. c #8A5A45",
",. c #875A4A",
"<. c #8A5B4A",
"1. c #8A5744",
"2. c #825952",
"3. c #8D5446",
"4. c #A15E42",
"5. c #99654B",
"6. c #8A6857",
"7. c #956757",
"8. c #89614C",
"9. c #A8674B",
"0. c #BF714E",
"q. c #A66751",
"w. c #A26C53",
"e. c #AE6D51",
"r. c #A77458",
"t. c #B47354",
"y. c #B96D4F",
"u. c #846D62",
"i. c #876968",
"p. c #887466",
"a. c #927371",
"s. c #B27D62",
"d. c #AF7B62",
"f. c #C56D48",
"g. c #C1714C",
"h. c #C37354",
"j. c #AC805F",
"k. c #9B856D",
"l. c #99846B",
"z. c #968573",
"x. c #9C8673",
"c. c #9E8873",
"v. c #A6866C",
"b. c #B88A66",
"n. c #BD9373",
"m. c #AF8C71",
"M. c #BDA56E",
"N. c #C78C6A",
"B. c #C7946A",
"V. c #DA9C6C",
"C. c #D59D6B",
"Z. c #C99775",
"A. c #D49B74",
"S. c #D89D77",
"D. c #CB8C6D",
"F. c #E39E6C",
"G. c #E49F73",
"H. c #E79D75",
"J. c #DEA367",
"K. c #DAA16F",
"L. c #C6A177",
"P. c #D3A174",
"I. c #DEA373",
"U. c #DEA17B",
"Y. c #D3A179",
"T. c #E3A36C",
"R. c #E6A16B",
"E. c #E3A274",
"W. c #E5A577",
"Q. c #3E5285",
"!. c #4C5588",
"~. c #585E88",
"^. c #525E90",
"/. c #495696",
"(. c #55649A",
"). c #4E6891",
"_. c #60649D",
"`. c #77788B",
"'. c #586CA9",
"]. c #5879BA",
"[. c #5172AF",
"{. c #6676B3",
"}. c #537ECC",
"|. c #5B7ECB",
" X c #577DC4",
".X c #587DD4",
"XX c #4F7DC8",
"oX c #6A7DCA",
"OX c #657ED7",
"+X c #957688",
"@X c #5A80BD",
"#X c #7585BB",
"$X c #6B83BC",
"%X c #7D8396",
"&X c #5382CC",
"*X c #5B81CA",
"=X c #5581C4",
"-X c #4E84D3",
";X c #5484D2",
":X c #5983D6",
">X c #4D83C5",
",X c #6083D3",
"<X c #6886CA",
"1X c #858E96",
"2X c #95949E",
"3X c #AD988D",
"4X c #949CA8",
"5X c #8D8CA8",
"6X c #9DADB7",
"7X c #A2AEB9",
"8X c #A6B2BC",
"9X c #C79C86",
"0X c #DEA583",
"qX c #B4BFCD",
"wX c #A8B8C7",
"eX c #B2C3C9",
"rX c #BACAD6",
"tX c #B6CED9",
"yX c #BED8E3",
"uX c #CADDED",
"iX c #C5DAE7",
"pX c #D0DFF0",
"aX c #C6E3EE",
"sX c #CBE3EE",
"dX c #C6E6F3",
"fX c #CAE6F4",
"gX c #CBE9F5",
"hX c #C9E7F9",
"jX c #CBEAF9",
"kX c #C6E9F6",
"lX c #D2E8F5",
"zX c #D1F0F7",
"xX c None",
/* pixels */
"xXxXxXxXxXxXxXxXxXxXxXxXxXxXxXxXxXxXxXxXxXxXxXxXxXxXxXxXxXxX> < > , > 1 & 1 > > # # $ & , 1 xXxXxXxXxXxXxXxXxXxXxXxXxXxX",
"xXxXxXxXxXxXxXxXxXxXxXxXxXxXxXxXxXxXxXxXxXxXxXxXxXxXxXxXxX= $ $ $ & & @ $ - $ % > $ > > 1 > 1 xXxXxXxXxXxXxXxXxXxXxXxXxX",
"xXxXxXxXxXxXxXxXxXxXxXxXxXxXxXxXxXxXxXxXxXxXxXxXxXxXxX0 7 C F Z Z Z Z F Z C c k c k k k k k r 2 xXxXxXxXxXxXxXxXxXxXxXxX",
"xXxXxXxXxXxXxXxXxXxXxXxXxXxXxXxXxXxXxXxXxXxXxXxXxXxXxX< * D >.>.>.>.>.>.<._ A b I N I R P v c % 6 xXxXxXxXxXxXxXxXxXxXxX",
"xXxXxXxXxXxXxXxXxXxXxXxXxXxXxXxXxXxXxXxXxXxXxXxXxXxXxX1 & S >.1.>.>.>.>.>.:._ _ _ _ _ ` ( b v c r 6 7 xXxXxXxXxXxXxXxXxX",
"xXxXxXxXxXxXxXxXxXxXxXxXxXxXxXxXxXxXxXxXxXxXxXxXxXxXxX% & D >.3.>.>.3.>.>.>.*.<.<.>.<.<.) b v R v & a xXxXxXxXxXxXxXxXxX",
"xXxXxXxXxXxXxXxXxXxXxXxXxXxXxXxXxXxXxXxXxXxXxXxXxXxXxX> % D 5.*.*.>.:.>.>.:.:.<.,.,.<.>.>.:.] ,./ = # xXxXxXxXxXxXxXxXxX",
"xXxXxXxXxXxXxXxXxXxXxXxXxXxXxXxXxXxXxXxXxXxXxXxXxXxXxX0 1 N G ;.*.:.:.:.>.>.<.1.<.:.>.:.>.*.*.>.G s g xXxXxXxXxXxXxXxXxX",
"xXxXxXxXxXxXxXxXxXxXxXxXxXxXxXxXxXlXlXfXxXxXxXxXxXxXxXxXxX* - A <.,.<.<.1.;.>.*.1.:.<.,.,.3.1.<.>._ D k + xXxXxXxXxXxXxX",
"xXxXxXxXxXxXxXxXxXxXxXxXxXxXxXxXsXfXhXfXxXxXxXxXxXxXxXxXxXxX6 n N Z Z *.r.w.r.w.w.w.;./ [ ) [ ) D 8.G j h E xXxXxXxXxXxX",
"xXxXxXxXxXxXxXxXxXxXxXxXxXfXfXfXgXjXfXlXxXxXxXxXxXxXxXxXxXxXxXr $ @ @ A A.S.S.K.I.A.;.f l l l l n ` 8.:.` c @ xXxXxXxXxX",
"xXxXxXxXxXxXxXxXxXxXxXfXfXfXfXfXfXfXyXxXxXxXxXxXxXxXxXxXxXxXxXxXxX2 O N K.G.E.J.H.G.r.2.R t 4 H z R ( C Z n m c xXxXxXxX",
"xXxXxXxXxXxXxXxXxXxXlXfXfXfXfXfXfXaXxXxXxXxXxXxXxXxXxXxXxXxXxXxXxXxX+ N I.H.E.J.G.W.S.Y.7.l H l e l e e z Z 2.C % 2 xXxX",
"xXxXxXxXxXxXxXxXxXfXjXfXfXfXfXfXfXfXxXxXxXxXxXxXxXxXxXxXxXxXxXxXxXxX# N K.E.E.J.G.I.T.W.5.f t l t t H t l / <.M . < xXxX",
"xXxXxXxXxXxXxXpXlXfXdXfXfXfXfXfXfXxXxXxXxXxXxXxXxXxXxXxXxXxXxXxXxXxX$ N C.H.U.J.E.I.V.G.7.l u e t H e l z / <.M + 5 xXxX",
"xXxXxXxXxXxXaXfXfXfXfXhXfXfXfXfXxXxXxXxXxXxXxXxXxXxXxXxXxXxXxXxXxXxX$ N C.E.E.J.G.E.T.S.i.t u t t t t e e z h k xXxXxXxX",
"xXxXxXxXxXfXfXfXfXfXfXhXfXfXfXlXxXxXxXxXxXxXxXxXxXxXxXxXxXxXxXxXxXc > C C.H.E.J.G.0XV.E.7.l H t t t t t e 1 , e xXxXxXxX",
"xXxXxXxXxXfXfXgXfXfXfXfXfXfXfXxXxXxXxXxXxXxXxXxXxXxXxXxXxXxXxXxXu r e ` V.E.E.J.G.W.F.E.7.g e t t t t t e e 3 w u xXxXxX",
"xXxXxXxXxXsXfXfXfXfXfXhXfXfXfXxXxXxXxXxXxXxXxXxXxXxXxXxXxXxXxX< . 9 x 2.I.H.I.J.H.R.S.9Xi.L H t t t t t t y e 3 . < xXxX",
"xXxXxXxXxXsXfXfXfXfXfXfXhXfXlXxXxXxXxXxXxXxXxXxXxXxXxXxXxXxXxX2 $ w x 2.I.G.I.J.E.I.3X#X[.[.!.H e l t l e H e w . < xXxX",
"xXxXxXxXrXuXfXfXfXfXfXfXdXgXgXxXxXxXxXxXxXxXxXxXxXxXxXxXxXxXxXJ q i I 2.D.D.9XL.Y.3X5X X-X;X[.L L 5 e 4 4 e e w 7 xXxXxX",
"xXxXxXuXuXfXfXfXfXfXfXfXsXgXgXiXxXxXxXxXxXxXxXxXxXxXxXxXxX$ 7 ^.{.o.v x ( ' {.<XoXoX|.;X-X&X>X[./.H > > > > > J xXxXxXxX",
"xXxXxXfXfXfXfXhXfXfXfXfXgXdXfXaXxXxXxXxXxXxXxXxXxXxXxXxXxX@ % /.OX).O...P ^ '.;X X X*X|.*X|.&X;X^.2 ; 7 2 % . xXxXxXxXxX",
"xXxXrXsXfXjXfXfXfXfXfXfXgXfXdXfXfXxXxXxXxXxXxXxXxXxXxXxXxX> . !.*X]. X^.U ..[.;X:X*X=X&X}.}..X;X(.5 & xXxXxXxXxXxXxXxXxX",
"xXX.4XfXfXfXfXfXfXfXdXfXfXjXdXdXfXsXxXxXxXxXxXxXxXxXxXxXxX, % !.,XXX,X(.E E ~.[.].|.&X&X<X5X5X5X`.0 % xXxXxXxXxXxXxXxXxX",
"xX> @.uXjXfXfXfXfXfXhXfXfXfXdXfXfXsXxXxXxXxXxXxXxXxXxXxXxX% X !..XXX*X_.L P I ..'.oX.X*X2XP.K.W.b.g + xXxXxXxXxXxXxXxXxX",
"xX+ %.iXhXgXfXfXfXfXfXfXfXfXfXfXfXsXiXxXxXxXxXxXxXxXxXxXxXxXK O.Q.[.|.].~.o.v n ~.).].:X2XI.E.E.b.g # xXxXxXxXxXxXxXxXxX",
"xX+ %.iXhXfXfXfXfXfXfXfXfXfXfXfXfXlXdXgXxXxXxXxXxXxXxXxXxXxXxXc # Y |..X*X'.T V U U ~.@X2XI.F.T.b.g # xXxXxXxXxXxXxXxXxX",
"xX+ %.uXhXfXfXfXfXfXfXfXfXfXfXfXfXhXkXaX1Xi xXxXxXxXxXxXxXxXx F S &.|.XX:X].).o.U v ..!.a.R.E.W.N.g % xXxXxXxXxXxXxXxXxX",
"xX+ %.iXdXfXdXfXfXfXfXfXfXfXfXfXfXhXkXiX@.# xXxXxXxXxXxXxX% @ =.h.+XXX}.&X X:X XE b I I 5.F.U.K.b.3 % xXxXxXxXxXxXxXxXxX",
"xXxX~ o.`.iXjXjXlXsXhXdXfXfXfXdXfXlXhXdXwX4X@., , o xXxXxX* @ =.h.+X|..X=X=X:X.X).^.a.s.D.H.b.Z A xXxXxXxXxXxXxXxXxXxXxX",
"xXxXxX  L qXiXiXiXuXhXdXfXdXkXgXdXfXfXdXjXlX%X0 2 0 i xXxX@ 3 D q.a.*X:X.X:XOXoXOX5X3XW.E.E.r.& . xXxXxXxXxXxXxXxXxXxXxX",
"xXxXxXxXxXW W W ~ 7XjXkXkXgXzXjXdXaXfXfXdXlXrX7X6X8X2XJ > $ , s h  .&X&X:X<X3XM.L.9XA.I.U.T.t.& . xXxXxXxXxXxXxXxXxXxXxX",
"xXxXxXxXxXX     q 1XtXtXtXrXrXrXlXsXfXfXdXsXjXjXgXfXeXi + # # - 9  .$X$X{.2XA.R.W.U.I.I.P.P.j.: p xXxXxXxXxXxXxXxXxXxXxX",
"xXxXxXxXxXxXxXxXxX^ T J i K K @.rXlXgXfXgXgXaXdXaXaXeXT c c n 6.b.n.9XZ.L.L.E.R.T.E.H.W.B.m.k.u.| p 6 xXxXxXxXxXxXxXxXxX",
"xXxXxXxXxXxXxXxXxXxXa   .     ^ wXrXeXwXeXrXtXkXgXzXeX~ P I b d.W.T.T.E.E.I.A.L.P.U.S.A.M.l.l.c.u.:   xXxXxXxXxXxXxXxXxX",
"xXxXxXxXxXxXxXxXxXxXxXxXxXxXxXxXJ i i w i i 1XsXkXzXrX~ x b C d.W.T.J.R.H.S.b.l.v.v.v.v.l.x.l.x.u.= % xXxXxXxXxXxXxXxXxX",
"xXxXxXxXxXxXxXxXxXxXxXxXxXxXxXxXxXX X ; . & &.7X6X6X5XE k c n 7.n.n.n.n.D.m.l.p.xXz.z.z.x.x.x.c.u.= . xXxXxXxXxXxXxXxXxX",
"xXxXxXxXxXxXxXxXxXxXxXxXxXxXxXxXxXxXxXxXxXxXxX6 6 0 8 # - % > E } } } } %.%.' } a.c.c.k.l.c.c.c.u.= # xXxXxXxXxXxXxXxXxX",
"xXxXxXxXxXxXxXxXxXxXxXxXxXxXxXxXxXxXxXxXxXxXxX  % 8 w . % r r W #.! ! { +.' T E ' ] p.x.x.l.l.c.u.= . xXxXxXxXxXxXxXxXxX",
"xXxXxXxXxXxXxXxXxXxXxXxXxXxXxXxXxXxXxXxXxXxXxXxXxXxXxX< & E ! } %.$.! ! +.~ 0 . $ & ' z.x.z.z.x.p.: . xXxXxXxXxXxXxXxXxX",
"xXxXxXxXxXxXxXxXxXxXxXxXxXxXxXxXxXxXxXxXxXxXxXxXxXxXxX. 7 W X.$.$.$.$.! x x T c , & ] c.c.l.z.x.6.: % xXxXxXxXxXxXxXxXxX",
"xXxXxXxXxXxXxXxXxXxXxXxXxXxXxXxXxXxXxXxXxXxXxXxXxXxXxX% & W $.$.$.$.$.T % 1 xXxXw % ' x.k.k.z.c.p.3 # xXxXxXxXxXxXxXxXxX",
"xXxXxXxXxXxXxXxXxXxXxXxXxXxXxXxXxXxXxXxXxXxXxXxXxXxXxX% & W $.$.$.! +.T , < xXxXxXxXE R | k.l.c.u.9 . xXxXxXxXxXxXxXxXxX",
"xXxXxXxXxXxXxXxXxXxXxXxXxXxXxXxXxXxXxXxXxXxXxXxXxXxXxX% , W } } } ! ! E 1 1 xXxXxXxXu + R c.x.x.p.9 & xXxXxXxXxXxXxXxXxX",
"xXxXxXxXxXxXxXxXxXxXxXxXxXxXxXxXxXxXxXxXxXxXxXxXxXxXxX. = :.7.w.7.) p i xXxXxXxXxXxX% ; D Y.D.B.B.r.w.n 6 xXxXxXxXxXxXxX",
"xXxXxXxXxXxXxXxXxXxXxXxXxXxXxXxXxXxXxXxXxXxXxXxXxXxXxXX = 4.g.g.g.S + < xXxXxXxXxXxXxX& ` Z.S.E.W.H.A.m a xXxXxXxXxXxXxX",
"xXxXxXxXxXxXxXxXxXxXxXxXxXxXxXxXxXxXxXxXxXxXxXxXxXxXxXX & 4.0.g.0.S # < xXxXxXxXxXxXxXxXR j *.V.U.W.Z.m X xXxXxXxXxXxXxX",
"xXxXxXxXxXxXxXxXxXxXxXxXxXxXxXxXxXxXxXxXxXxXxXxXxXxXxXh B -.0.0.0.S $ < xXxXxXxXxXxXxXxXxX+ M V.I.E.Z.F g R xXxXxXxXxXxX",
"xXxXxXxXxXxXxXxXxXxXxXxXxXxXxXxXxXxXxXxXxXxXxXxXxX1 m <.9.y.f.f.0.S + 2 xXxXxXxXxXxXxXxXxX% n C.I.E.R.N.m._ = xXxXxXxXxX",
"xXxXxXxXxXxXxXxXxXxXxXxXxXxXxXxXxXxXxXxXxXxXxXxXxXo s q.g.f.f.9.5.Z 1 xXxXxXxXxXxXxXxXxXxX< R b.N.V.F.T.P.D ; 2 xXxXxXxX",
"xXxXxXxXxXxXxXxXxXxXxXxXxXxXxXxXxXxXxXxXxXxXxXxXxX+ s q.f.g.y.M - k xXxXxXxXxXxXxXxXxXxXxXxXxX9 j B.E.R.A.D O 3 xXxXxXxX",
"xXxXxXxXxXxXxXxXxXxXxXxXxXxXxXxXxXxXxXxXxXxXxXxXxX$ s q.h.f.y.M @ xXxXxXxXxXxXxXxXxXxXxXxXxXxX  d b.T.T.U.8.M ( xXxXxXxX",
"xXxXxXxXxXxXxXxXxXxXxXxXxXxXxXxXxXxXxXxXxXxXxXxXxX# s q.y.f.y.M o xXxXxXxXxXxXxXxXxXxXxXxXxXxX. d B.W.T.T.K.Y.8.$ 0 xXxX",
"xXxXxXxXxXxXxXxXxXxXxXxXxXxXxXxXxXxXxXxXxXxXxXxXxX$ B q.f.f.y.m # xXxXxXxXxXxXxXxXxXxXxXxXxXxXxXV 7.w.B.E.E.W.r.D ( xXxX",
"xXxXxXxXxXxXxXxXxXxXxXxXxXxXxXxXxXxXxXxXxXxXxXxXxXo s q.h.h.y.M $ xXxXxXxXxXxXxXxXxXxXxXxXxXxXxXxX9 d j.U.E.T.E.0Xr.3 < ",
"xXxXxXxXxXxXxXxXxXxXxXxXxXxXxXxXxXxXxXxXxXxXxXxXxX+ - ) =.=.) f + xXxXxXxXxXxXxXxXxXxXxXxXxXxXxXxXxXV ` :.8.7.7.7.` 1 % ",
"xXxXxXxXxXxXxXxXxXxXxXxXxXxXxXxXxXxXxXxXxXxXxXxXxX% $ l L 4 l 3 o xXxXxXxXxXxXxXxXxXxXxXxXxXxXxXxXxXxX: @ 3 l e r 6 . > ",
"xXxXxXxXxXxXxXxXxXxXxXxXxXxXxXxXxXxXxXxXxXxXxXxXxX> , t H H H 3 # xXxXxXxXxXxXxXxXxXxXxXxXxXxXxXxXxXxX% # 4 t l e 3 % < ",
"xXxXxXxXxXxXxXxXxXxXxXxXxXxXxXxXxXxXxXxXxXxXxXxXxXo $ t H H l 1 $ xXxXxXxXxXxXxXxXxXxXxXxXxXxXxXxXxXxX1 # 8 t l l 4 # % "
};
