/* XPM */
static char *result[] = {
/* columns rows colors chars-per-pixel */
"60 60 235 2 ",
"   c #1D0E17",
".  c #1D131C",
"X  c #1C141A",
"o  c #1B0F0F",
"O  c #280E0E",
"+  c #240E14",
"@  c #230E1B",
"#  c #2A0F18",
"$  c #241214",
"%  c #2B1315",
"&  c #23141C",
"*  c #2B141B",
"=  c #241A1B",
"-  c #2D191B",
";  c #271917",
":  c #33161B",
">  c #341C1B",
",  c #381918",
"<  c #2F120E",
"1  c #3A221B",
"2  c #1C1523",
"3  c #1E1B24",
"4  c #1F1B30",
"5  c #221622",
"6  c #241B24",
"7  c #2A1C24",
"8  c #261C2B",
"9  c #2B1927",
"0  c #371D26",
"q  c #281D31",
"w  c #391E35",
"e  c #2C222D",
"r  c #282228",
"t  c #33232C",
"y  c #3A232A",
"u  c #372424",
"i  c #2D2632",
"p  c #3C2335",
"a  c #3C243A",
"s  c #3D2A3C",
"d  c #372836",
"f  c #3C323A",
"g  c #431B16",
"h  c #462419",
"j  c #542C1E",
"k  c #432B2C",
"l  c #472527",
"z  c #49342B",
"x  c #58362B",
"c  c #432B33",
"v  c #42253C",
"b  c #452738",
"n  c #453334",
"m  c #4B3435",
"M  c #4A393B",
"N  c #553A34",
"B  c #543A3D",
"V  c #583838",
"C  c #572B30",
"Z  c #663E2B",
"A  c #653D30",
"S  c #6E3225",
"D  c #5B443B",
"F  c #4C453C",
"G  c #69453A",
"H  c #724A3B",
"J  c #784A3A",
"K  c #764B37",
"L  c #361E41",
"P  c #3C2A44",
"I  c #3B2745",
"U  c #3C3844",
"Y  c #392952",
"T  c #2E304B",
"R  c #343A6A",
"E  c #412943",
"W  c #483A45",
"Q  c #553D42",
"!  c #5A3C43",
"~  c #533949",
"^  c #493B52",
"/  c #5B3D50",
"(  c #3E4164",
")  c #3C404B",
"_  c #4B4449",
"`  c #534244",
"'  c #564747",
"]  c #4B4656",
"[  c #574756",
"{  c #55555C",
"}  c #6E4B44",
"|  c #674645",
" . c #6A544C",
".. c #7C5444",
"X. c #7F5842",
"o. c #795749",
"O. c #6A5754",
"+. c #745951",
"@. c #734E46",
"#. c #786659",
"$. c #574868",
"%. c #595966",
"&. c #4B4C74",
"*. c #555776",
"=. c #4B5173",
"-. c #6D5C6A",
";. c #5C646D",
":. c #67656B",
">. c #6B6978",
",. c #737179",
"<. c #71676A",
"1. c #88593E",
"2. c #855543",
"3. c #8B5545",
"4. c #865B46",
"5. c #8B5A45",
"6. c #8B5B4A",
"7. c #85574A",
"8. c #955A4A",
"9. c #855955",
"0. c #8C644A",
"q. c #99694E",
"w. c #986C56",
"e. c #9A725B",
"r. c #8D674E",
"t. c #A7624B",
"y. c #BA684D",
"u. c #BD6D56",
"i. c #A77558",
"p. c #B87658",
"a. c #BD724F",
"s. c #8A7468",
"d. c #94796A",
"f. c #95776D",
"g. c #A97D64",
"h. c #BB736D",
"j. c #C56B48",
"k. c #C6734A",
"l. c #C37557",
"z. c #9A846C",
"x. c #96856C",
"c. c #9B8573",
"v. c #988674",
"b. c #AA8767",
"n. c #B88765",
"m. c #A48A77",
"M. c #B98B76",
"N. c #B29270",
"B. c #BB8359",
"V. c #E19F5F",
"C. c #C48968",
"Z. c #CA986B",
"A. c #DC9D6B",
"S. c #D99A67",
"D. c #CA9974",
"F. c #DC9D73",
"G. c #D69C77",
"H. c #C48B73",
"J. c #E39E6C",
"K. c #EB9E68",
"L. c #E39E73",
"P. c #E69D79",
"I. c #DBA36A",
"U. c #DDA374",
"Y. c #DCA37A",
"T. c #D8A577",
"R. c #E3A26D",
"E. c #EAA36D",
"W. c #EAA264",
"Q. c #E3A372",
"!. c #E4A47A",
"~. c #E8A574",
"^. c #4F5B88",
"/. c #4C6297",
"(. c #576594",
"). c #4A6487",
"_. c #747386",
"`. c #586BA4",
"'. c #586EB4",
"]. c #5877B7",
"[. c #5271AC",
"{. c #6A77A8",
"}. c #577EC9",
"|. c #577DD4",
" X c #5179C1",
".X c #6379C5",
"XX c #8A798E",
"oX c #7C878B",
"OX c #5782BF",
"+X c #7485B5",
"@X c #4D83CA",
"#X c #5482CD",
"$X c #5782C7",
"%X c #4E83D8",
"&X c #5584D3",
"*X c #6583C5",
"=X c #4B89EC",
"-X c #919096",
";X c #B4978B",
":X c #AB9291",
">X c #B3A69E",
",X c #8A88AA",
"<X c #9397A5",
"1X c #9AA5AC",
"2X c #9DADB5",
"3X c #A8AFBB",
"4X c #CA9C87",
"5X c #D49E85",
"6X c #CA9E91",
"7X c #C8A288",
"8X c #D7A281",
"9X c #C6A698",
"0X c #C7B7AA",
"qX c #E9A080",
"wX c #C6C0B8",
"eX c #A8B8C2",
"rX c #B8C2CC",
"tX c #B9C5D4",
"yX c #BAD1D9",
"uX c #ADC5CF",
"iX c #BED8E2",
"pX c #BFE3F2",
"aX c #C8CED1",
"sX c #C5DAE5",
"dX c #D4DBE6",
"fX c #CAE3ED",
"gX c #C8E5ED",
"hX c #C6E4F2",
"jX c #CBE6F4",
"kX c #CCE9F5",
"lX c #CDEAF9",
"zX c #C9E7F7",
"xX c #D2E8F6",
"cX c #D2E3ED",
"vX c None",
/* pixels */
"vXvXvXvXvXvXvXvXvXvXvXvXvXvXvXvXvXvXvXvXvXvXvXvXvX& 7 $ ; - = 7 - ; = . vXvXvXvXvXvXvXvXvXvXvXvXvXvXvXvXvXvXvXvXvXvXvXvX",
"vXvXvXvXvXvXvXvXvXvXvXvXvXvXvXvXvXvXvXvXvXvXvXvX7 . ; ; - * & * $ $ * 5 6 vXvXvXvXvXvXvXvXvXvXvXvXvXvXvXvXvXvXvXvXvXvXvX",
"vXvXvXvXvXvXvXvXvXvXvXvXvXvX5 5 5 5 5 5 5 6 d E n c c c c p s c k k c d t f e 2 vXvXvXvXvXvXvXvXvXvXvXvXvXvXvXvXvXvXvXvX",
"vXvXvXvXvXvXvXvXvXvXvXvXvXvX: : - : - - - - > k Q B G ! B ` Q ! ! Q ` Q d y ; ; vXvXvXvXvXvXvXvXvXvXvXvXvXvXvXvXvXvXvXvX",
"vXvXvXvXvXvXvXvXvXvXvXq q V H K H H H H H H H ....J 2.o.o.o.D B Q B B Q B n n m d i d vXvXvXvXvXvXvXvXvXvXvXvXvXvXvXvXvX",
"vXvXvXvXvXvXvXvXvXvXM 0 , x 5.5.6.5.5.5.5.5.5.5.5.1.0.5.6.7.} V ! ! ! ! ! ! ! ` 0 & 8 d vXvXvXvXvXvXvXvXvXvXvXvXvXvXvXvX",
"vXvXvXvXvXvXvXr 7 k | @...1.5.5.5.5.0.5.5.2.5.5.1.1.1.1.5.4.2...2.X.X.2.o.2.X.J k & @ $ t 7 i vXvXvXvXvXvXvXvXvXvXvXvXvX",
"vXvXvXvXvXvXvX6 $ , | 6.5.2.5.1.2.2.5.5.5.1.5.3.1.5.0.1.2.4.4.3.3.5.5.5.5.5.8.3.x l l > 1 u n vXvXvXvXvXvXvXvXvXvXvXvXvX",
"vXvXvXvXvXvXvX& $ , H 5.1.1.5.5.5.5.5.5.3.7.3.3.3.6.3.1.2.6.6.6.6.3.6.5.5.6.3.3.7.7.....o.o.} l $ = vXvXvXvXvXvXvXvXvXvX",
"vXvXvXvXvXvXvX6 @ > G 6.5.1.8.0.5.2.5.5.w.i.i.i.i.i.i.i.i.e.2.} } } } } } } } @.2.3.3.8.5.0.J x l m ` vXvXvXvXvXvXvXvXvX",
"vXvXvXvXvXvXvX6 $ > } 9.5.4.5.6.0.2.9.0.H.F.U.U.A.L.L.G.5XH.1.l c s a a v b v v | 3.8.6.6.5.7...2.+.m % & vXvXvXvXvXvXvX",
"vXvXvXvXvXvXvXvXvXk D N N N x x A x A A n.L.L.U.J.J.E.J.!.5Xi.3.9.| a a w b b v ! | | | | G H 2.4.7.x % $ 6 vXvXvXvXvXvX",
"vXvXvXvXvXvXvXvXvXvXr ; $ $ ; ; : O % 1 e.U.!.F.F.J.J.J.R.U.I.Y.G.e.b v w v a s a a a p w l V } +.+.V - @ vXvXvXvXvXvXvX",
"vXvXvXvXvXvXvXvXvXvXvXvXvXvXvXvXvX= ; , e.Y.~.Q.L.L.J.Q.Q.J.U.E.L.w.b v v v a P I I P P v p b k m V ` vXvXvXvXvXvXvXvXvX",
"vXvXvXvXvXvXvXvXvXvXvXvXvXvXvXvXvXe $ 1 i.!.~.J.J.!.L.L.!.L.J.R.Q.e.p a E a a a a v v v E v 0 : % = vXvXvXvXvXvXvXvXvXvX",
"vXvXvXvXvXvXvXvXvXvXvXvXvXvXvXvXvX3 o 1 b.Q.U.F.L.E.K.L.!.U.Q.J.F.e.c w E a a a p b v a w I w 9 * = vXvXvXvXvXvXvXvXvXvX",
"vXvXvXvXvXvXvXvXvXvXvXvXvXvXvXvXvXd X u i.A.A.F.Q.L.L.L.A.R.E.J.F.f.E Y Y I I E s v a p E s t & & . vXvXvXvXvXvXvXvXvXvX",
"vXvXvXvXvXvXvXvXvXvXvXvXvXvX8 e s n f D n.Q.K.J.!.!.T.F.R.L.J.E.Y.;X_./.vXvXvXvX^ a p p c y t & X 2 vXvXvXvXvXvXvXvXvXvX",
"vXvXvXvXvXvXvXvXvXvXvXvXvXvX  + 0 M F D n.E.K.K.Y.T.T.E.E.P.4X4X4X:XvXvXvXvXvXvXR Y Y E p 0 0 t 7 i vXvXvXvXvXvXvXvXvXvX",
"vXvXvXvXvXvXvXvXvXvXvXvXvXvX$ + y W Q G g.L.K.P.Y.T.I.W.E.5X<XvXvXvXvXvXvXvXvXvXvXvXvX] 4 6 i vXvXvXvXvXvXvXvXvXvXvXvXvX",
"vXvXvXvXvXvXvXvXvXvXvXvXvXvX@ $ q &.=.O.s.n.C.B.n.n.H.H.D.;XvXvXvXvXvXvXvXvXvXvXvXvXvX] 3 2 8 vXvXvXvXvXvXvXvXvXvXvXvXvX",
"vXvXvXvXvXvXvXvXvXvXvXvXvXvX$ $ i (.].(.{ ! / ~ F ' $.{.{.vXvXvXvXvXvXvXvX6XG.G.G.8X8Xr.< = 6 vXvXvXvXvXvXvXvXvXvXvXvXvX",
"vXvXvXvXvXvXvXvXvXvXvXvXvXvX;   T [.|.].(.&.&.[ x x &. X%XvXvXvXvXvXvXvXvX8XK.W.E.E.~.q., < 6 vXvXvXvXvXvXvXvXvXvXvXvXvX",
"vXvXvXvXvXvXvXvXvXvXvXvXvXvX# ; T '.|.|.OXvX.X^.F N $.'.%X@XvXvXvXvXvXvXvX9XF.!.U.U.8Xw., $ 6 vXvXvXvXvXvXvXvXvXvXvXvXvX",
"vXvXvXvXvXvXvXvXvXvXvXvXvXvX# $ T '.&X&X$XvXvX^.W M ~ %.*.).[.}.#XvXvXvX,X9XL.L.L.Q.Y.w., 5 6 vXvXvXvXvXvXvXvXvXvXvXvXvX",
"vXvXvXvXvXvXvXvXvXvXvXvXvXvXO 2 R `.}.$X$X#XvX=.M F _ W ! / /.].]. X%XvX,X5XE.Q.U.E.U.w.: & = vXvXvXvXvXvXvXvXvXvXvXvXvX",
"vXvXvXvXvXvXvXvXvXvXvXvXvXvXvX%.=.^ R R /.}.|.[.^.*.*._ x N =.*.=./.#X|.,X5XL.I.F.R.U.w.0 @ = vXvXvXvXvXvXvXvXvXvXvXvXvX",
"vXvXvXvXvXvXvXvXvXvXvXvXvXvXvXvX<.7   4 ^.@X@X@XvXvX(.{ F ` ~ W Q { {..X,X4XJ.R.U.Q.U.q.0 @ = vXvXvXvXvXvXvXvXvXvXvXvXvX",
"vXvXvXvXvXvXvXvXvXvXvXvXvXvXvXvX<.- o q (.}. X$X&X#XvX`.[.(.[ ~ A 9.;X>X;XY.J.L.Q.E.U.q., # = vXvXvXvXvXvXvXvXvXvXvXvXvX",
"vXvXvXvXvXvXvXvXvXvXvXvXvXvXvXvX:.f 7 d (..X|.|.&X XOX&X=XOX%.^ [ w.S.U.R.W.K.F.D.Z.Z.r.0 5 6 vXvXvXvXvXvXvXvXvXvXvXvXvX",
"vXvXvXvXvXvXvXvXvXvXvXvXvXvX0 0 m 8.t.8._.&X&X#X#X#X&X}.&X#X'.'.].-XD.E.E.J.L.G.o.l k n vXvXvXvXvXvXvXvXvXvXvXvXvXvXvXvX",
"vXvXvXvXvXvXvXvXvXvXvXvXvXvX$ % j y.j.u.XX%X%X$X$X$X$X'.`.[.+X+X,X;XD.E.Q.!.A.S.H = . 6 vXvXvXvXvXvXvXvXvXvXvXvXvXvXvXvX",
"vXvXvXvXvXvXvXvXvXvXvXvXvXvX= % j y.u.h.XX}.vXvXvXvX`.=.] ' m.7X7XT.U.U.T.T.R.I.H X $ r vXvXvXvXvXvXvXvXvXvXvXvXvXvXvXvX",
"vXvXvXvXvXvXvXvXvXvXvXvXvXvX2 u V 3...9.-.^.(././.(.*./ x Z p.~.Q.R.L.U.T.Z.Z.D.o.z F ' vXvXvXvXvXvXvXvXvXvXvXvXvXvXvXvX",
"vXvXvXvXvXvXvXvXvXvXvXvXvXvXvXvXvXl o , m W Q ~ W ^ ^ W B A b.Y.!.L.P.!.Z.N.z.v.v.v.x.O.1 = 6 vXvXvXvXvXvXvXvXvXvXvXvXvX",
"vXvXvXvXvXvXvXvXvXvXvXvXvXvXvXvXvX; $ ; M _ _ <.XXXX:.W V A g.Y.J.E.L.Q.D.b.z.v.v.v.c.O.- & . vXvXvXvXvXvXvXvXvXvXvXvXvX",
"vXvXvXvXvXvXvXvXvXvXvXvXvXvXvXvXvXr ; r _ ;.;.<XdXcXeX{ f G b.8XA.L.~.R.Z.n.z.z.z.c.c.+.- = . vXvXvXvXvXvXvXvXvXvXvXvXvX",
"vXvXvXvXvXvXvXvXvXvXvXvXvXvXvXf _ U f ] oX1X2XuXgXgXyX1X-X-Xf.e.r.i.N.N.b.b.v.v.c.c.c.+.- $ . vXvXvXvXvXvXvXvXvXvXvXvXvX",
"vXvXvXvXvXvXvXvXvXvXvXvXvXvX5 & r %.;.oXeXfXxXxXkXgXzXlXxXaX,.F M +.z.v.x.v.v.v.v.c.c.+.- = 2 vXvXvXvXvXvXvXvXvXvXvXvXvX",
"vXvXvXvXvXvXvXvXvXvXvXvXvXvX5 . _ 1X3XeXyXkXjXjXkXkXpXzXxXsX:.t 7 ' v.v.x.m.v.x.z.c.c.+.- & . vXvXvXvXvXvXvXvXvXvXvXvXvX",
"vXvXvXvXvXvXvXvXvXvXvXvXvXf e i %.aXcXjXlXzXhXgXkXzXzXiXyXuX;.r 7 ` s.s.d.c.z.x.z.z.x. .- 5 6 vXvXvXvXvXvXvXvXvXvXvXvXvX",
"vXvXvXvXvXvXvXvXvXvXvX8 6 ,.eX2XeXcXjXsXlXzXhXkXlXlXtX%.) { :.<.vX[ M k N s.c.z.z.c.:XO.+ @ 6 vXvXvXvXvXvXvXvXvXvXvXvXvX",
"vXvXvXvXvXvXvXvXvXvXW U U -XjXfXfXlXsXhXjXjXjXsXtXtX3Xf X 6 vXvXvXvX& $ 1 s.v.v.c.v.v.+.u t f vXvXvXvXvXvXvXvXvXvXvXvXvX",
"vXvXvXvXvXvXvX9 5 W <XaXtXyXhXlXlXlXjXjXlXlXcX,XU d ] vXvXvXvXvXvXvXX ; 1 s.v.v.x.f.c.f.s.s.#.n = 3 vXvXvXvXvXvXvXvXvXvX",
"vXvXvXvXvXvXvX[ ] { eXjXzXzXjXlXlXzXzXhXeXeX3X,.3 6 vXvXvXvXvXvXvXvXr ; 1  .#.r.d.N.b.N.N.m.s.u   X vXvXvXvXvXvXvXvXvXvX",
"vXvXvXvX& 5 %.eXsXsXxXhXhXhXgXxXlXzXjXyX%.i i vXvXvXvXvXvXvXvXvXvXvXvXvXvX7 = 7 e.G.G.F.S.T.n.z @ 2 vXvXvXvXvXvXvXvXvXvX",
"vXvXvX:.;.%.oXaXfXgXlXjXhXlXlXxXcXwX0X>X' 3 2 vXvXvXvXvXvXvXvXvXvXvXvXvXvX6 X > t.Q.!.qXL.Y.Z.1.G G  .vXvXvXvXvXvXvXvXvX",
"i . r -XsXiXiXkXhXgXhXjXxXxXfXsX0X;Xp.g.j + & vXvXvXvXvXvXvXvXvXvXvXvXvXvXr = = w.I.Y.P.!.R.I.I.T.D.J - = e vXvXvXvXvXvX",
"9 # X oXgXkXkXkXjXxXhXjXhXaX0X9X7Xp.j.y.S % 5 vXvXvXvXvXvXvXvXvXvXvXvXvXvXvXvXf o.0.0.i.F.E.I.V.~.T.J < 5 9 vXvXvXvXvXvX",
"@ @ 6 -XgXgXzXzXhXhXhXxXcX6Xj.a.p.a.u.t.x $ 3 vXvXvXvXvXvXvXvXvXvXvXvXvXvXvXvXvX9 5 % G D.!.R.I.T.T.J , 9 9 vXvXvXvXvXvX",
"r X = _ :.>.>.>.,.-.:X>X6XC.j.y.t.K S x vXvXvXvXvXvXvXvXvXvXvXvXvXvXvXvXvXvXvXvXq $ O G Z.Q.Q.S.G.U.p.q.0.o.~ 9 vXvXvXvX",
"8 2 X X   * * + < g 8.u.j.k.a.p.5.g < ; vXvXvXvXvXvXvXvXvXvXvXvXvXvXvXvXvXvXvXvXvX$ < H n.T.A.A.E.E.L.!.Q.i.0 & ; vXvXvX",
"vXvXvXvXvXvXvX3 ; , 2.y.j.j.l.u.3.g # 9 vXvXvXvXvXvXvXvXvXvXvXvXvXvXvXvXvXvXvXvXvXvXvX .D G K B.U.R.L.G.U.b., o = vXvXvX",
"vXvXvXvXvXvXvX8 5 g 8.l.j.j.j.l.8., + 8 vXvXvXvXvXvXvXvXvXvXvXvXvXvXvXvXvXvXvXvXvXvXvXvX. $ h n.Y.U.U.!.Q.i.l , n vXvXvX",
"vXvXvXvXvXvXvX. + h 8.l.k.k.l.l.8., ; 2 vXvXvXvXvXvXvXvXvXvXvXvXvXvXvXvXvXvXvXvXvXvXvXvX. $ j n.~.~.K.W.W.S.C.H.g.V 7 e ",
"vXvXvXvXvXvXvX. * g J 8.t.y.t.8.J g % . vXvXvXvXvXvXvXvXvXvXvXvXvXvXvXvXvXvXvXvXvXvXvXvXi u N e.n.C.C.C.C.C.M.4Xg.x ; 5 ",
"vXvXvXvXvXvXvX. @ * b V C C ~ C b # # . vXvXvXvXvXvXvXvXvXvXvXvXvXvXvXvXvXvXvXvXvXvXvXvXvXvXvXz 1 1 c V V m m Q n 6 & & ",
"vXvXvXvXvXvXvX& & @ w E L L L E v @ & & vXvXvXvXvXvXvXvXvXvXvXvXvXvXvXvXvXvXvXvXvXvXvXvXvXvXvX= $ & w a w a v w t q & & ",
"vXvXvXvXvXvXvX& * # p E P T I P p # * 5 vXvXvXvXvXvXvXvXvXvXvXvXvXvXvXvXvXvXvXvXvXvXvXvXvXvXvX7 & * 9 s v v v a p 9 & & ",
"vXvXvXvXvXvXvXvX+ + y vXvXvXvXc y + ; vXvXvXvXvXvXvXvXvXvXvXvXvXvXvXvXvXvXvXvXvXvXvXvXvXvXvXvXvX* = i c E E a I s 9 6 6 "
};
