/* XPM */
static char *result[] = {
/* columns rows colors chars-per-pixel */
"60 60 225 2 ",
"   c #1E1214",
".  c #1D121C",
"X  c #1E1A1A",
"o  c #1D0D1F",
"O  c #240E1A",
"+  c #250D15",
"@  c #241315",
"#  c #2A1215",
"$  c #23131B",
"%  c #2B141B",
"&  c #2E191C",
"*  c #23191B",
"=  c #331B1D",
"-  c #341818",
";  c #26110F",
":  c #3D211B",
">  c #1D1523",
",  c #1D1B27",
"<  c #231522",
"1  c #2B1523",
"2  c #231A24",
"3  c #2A1B23",
"4  c #251E2A",
"5  c #2B1E2A",
"6  c #331C2B",
"7  c #321D23",
"8  c #3B1C39",
"9  c #2B212C",
"0  c #2B2528",
"q  c #34242C",
"w  c #392529",
"e  c #38292A",
"r  c #292536",
"t  c #3D2435",
"y  c #3C2C34",
"u  c #3D253B",
"i  c #372936",
"p  c #3C343C",
"a  c #383139",
"s  c #45231D",
"d  c #4B251F",
"f  c #441E2A",
"g  c #44272A",
"h  c #542E2B",
"j  c #54332D",
"k  c #57362A",
"l  c #432E34",
"z  c #43263C",
"x  c #433234",
"c  c #4B3839",
"v  c #543935",
"b  c #53393D",
"n  c #5B3938",
"m  c #443329",
"M  c #663C38",
"N  c #6A3929",
"B  c #58433D",
"V  c #63433C",
"C  c #6C453B",
"Z  c #6A463A",
"A  c #744336",
"S  c #74473A",
"D  c #2A2843",
"F  c #382845",
"G  c #3B3444",
"H  c #383647",
"J  c #38345A",
"K  c #333C63",
"L  c #493B44",
"P  c #533C42",
"I  c #563846",
"U  c #45314C",
"Y  c #663F46",
"T  c #3E4049",
"R  c #394572",
"E  c #494149",
"W  c #5C4641",
"Q  c #584949",
"!  c #4A4656",
"~  c #514A54",
"^  c #52495B",
"/  c #54535B",
"(  c #5A5659",
")  c #624443",
"_  c #6C4A44",
"`  c #6A4748",
"'  c #774B46",
"]  c #6C554A",
"[  c #7A5445",
"{  c #734A50",
"}  c #6B5B57",
"|  c #6C625C",
" . c #7A655D",
".. c #484269",
"X. c #595665",
"o. c #52557B",
"O. c #555979",
"+. c #4E4D71",
"@. c #65596D",
"#. c #5E6068",
"$. c #67666E",
"%. c #676974",
"&. c #7A7378",
"*. c #7D6E68",
"=. c #89573D",
"-. c #87603F",
";. c #845644",
":. c #855A45",
">. c #8B5A44",
",. c #855A4A",
"<. c #8A5B4B",
"1. c #895748",
"2. c #945A46",
"3. c #895E53",
"4. c #89614C",
"5. c #846957",
"6. c #986854",
"7. c #9A755C",
"8. c #986D51",
"9. c #A9664D",
"0. c #BE6E47",
"q. c #BE7047",
"w. c #A46952",
"e. c #A26955",
"r. c #A57659",
"t. c #B67857",
"y. c #B46C51",
"u. c #896B61",
"i. c #977D69",
"p. c #937873",
"a. c #8B7568",
"s. c #B27B66",
"d. c #C2734C",
"f. c #C26D54",
"g. c #C37353",
"h. c #94836D",
"j. c #98856C",
"k. c #958372",
"l. c #9A8572",
"z. c #998871",
"x. c #9A8779",
"c. c #8F8071",
"v. c #A3876C",
"b. c #BC8B63",
"n. c #B48868",
"m. c #A58978",
"M. c #BB9271",
"N. c #B88B5E",
"B. c #C48C67",
"V. c #CB936B",
"C. c #CA986E",
"Z. c #DB9D6C",
"A. c #D7986C",
"S. c #C89977",
"D. c #DD9D74",
"F. c #D49B76",
"G. c #C58E74",
"H. c #E39E6C",
"J. c #EA9D66",
"K. c #E49C75",
"L. c #DEA36D",
"P. c #D8A16A",
"I. c #C7A17D",
"U. c #DCA273",
"Y. c #DCA37A",
"T. c #DAA57B",
"R. c #E3A26D",
"E. c #E3A367",
"W. c #E2A273",
"Q. c #E7A277",
"!. c #3D558F",
"~. c #546389",
"^. c #54669A",
"/. c #726E87",
"(. c #526AA6",
"). c #5879B9",
"_. c #4F6BA8",
"`. c #6479B9",
"'. c #465B8C",
"]. c #5B7DC3",
"[. c #5A7ECB",
"{. c #537BC7",
"}. c #4C7ED8",
"|. c #617EC2",
" X c #827789",
".X c #6D82B9",
"XX c #7889B6",
"oX c #7883AC",
"OX c #4F82CD",
"+X c #5582CB",
"@X c #5982C9",
"#X c #5A83D3",
"$X c #5583D4",
"%X c #4D82D9",
"&X c #6784C9",
"*X c #8E8D98",
"=X c #B89886",
"-X c #A59696",
";X c #AB9693",
":X c #949BA7",
">X c #8B94A7",
",X c #97A1AB",
"<X c #9AA6B2",
"1X c #99A8B3",
"2X c #9DB8BF",
"3X c #AAB4BD",
"4X c #C99D87",
"5X c #D2A080",
"6X c #A5B7C4",
"7X c #BDD7DE",
"8X c #B3C6D3",
"9X c #BDDCE4",
"0X c #BAE0E7",
"qX c #C4D7DF",
"wX c #C7DCE6",
"eX c #C6E3EE",
"rX c #CCE6F5",
"tX c #C5EAF3",
"yX c #CCEAF5",
"uX c #CEE6F9",
"iX c #CBEBF9",
"pX c #C6E6F4",
"aX c #D3E6F7",
"sX c #D0E4ED",
"dX c None",
/* pixels */
"dXdXdXdXdXdXdXdXdXdXdXdXdXdXdXdXdXdXdXdXdXdXdXdXdXdXdXdXdXdXdXdXdXdXdXdXdXdXdXdXdXdXdXdXdXdXdXdXdXdXdXdXdXdXdXdXdXdXdXdX",
"dXdXdXdXdXdXdXdXdXdXdXdXdXdXdXdXdXdXdXdXdXdXdXdXdXdXdXdXdXdXdXdXG 2 $ $ % $ $ $ < dXdXdXdXdXdXdXdXdXdXdXdXdXdXdXdXdXdXdX",
"dXdXdXdXdXdXdXdXdXdXdXdXdXdXdXdXdXdXdXdXdXdXdXdXdXdXdXdXdXdXdXL x 9 w e w q q q e x dXdXdXdXdXdXdXdXdXdXdXdXdXdXdXdXdXdX",
"dXdXdXdXdXdXdXdXdXdXdXdXdXdXdXdXdXdXdXdXdXdXdXx $ # @ @ # @ @ % y b b b b P b P b e * 2 dXdXdXdXdXdXdXdXdXdXdXdXdXdXdXdX",
"dXdXdXdXdXdXdXdXdXdXdXdXdXdXdXdXdXdXdXdXdXdXL P h h j h j j j j n _ _ ` ) n b P c c y q dXdXdXdXdXdXdXdXdXdXdXdXdXdXdXdX",
"dXdXdXdXdXdXdXdXdXdXdXdXdXdXdXdXdXdXdXdXdX> 7 _ <.;.;.<.3.<.3.,.<.<.3.<.[ B v c P P Q l % $ dXdXdXdXdXdXdXdXdXdXdXdXdXdX",
"dXdXdXdXdXdXdXdXdXdXdXdXdXdXdXdXdXdXdXdXdX. & Z >.=.>.>.>.>.>.>.>.>.=.>.;.C Z _ ` C _ V k k p dXdXdXdXdXdXdXdXdXdXdXdXdX",
"dXdXdXdXdXdXdXdXdXdXdXdXdXdXdXdXdXdXdXdXdX< & Z >.2.>.1.>.>.>.>.>.>.>.>.>.<.;.;.1.<.>.:.,.[ w @ # @ q dXdXdXdXdXdXdXdXdX",
"dXdXdXdXdXdXdXdXdXdXdXdXdXdXdXdXdXdXdXdXdX> = C 1.>.>.>.>.>.,.>.:.,.4.>.:.<.1.2.>.2.>.1.:.:.B j j j c dXdXdXdXdXdXdXdXdX",
"dXdXdXdXdXdXdXdXdXdXdXdXdXdXdXdXdXdXdXdXdXX w ] <.>.=.>.,.;.4.>.=.:.>.=.>.<.3.<.<.<.1.1.<.>.1.:.>.,.V = 2 dXdXdXdXdXdXdX",
"dXdXdXdXdXdXdXdXdXdXdXdXdXdXdXdXdXdXdXdXdXdXc v k S >.>.1.2.r.n.t.t.t.N.r._ Y ) V Y M _ 1.>.:.>.=.>.Z - $ dXdXdXdXdXdXdX",
"dXdXdXdXdXdXdXdXdXdXdXdXdXdXdXdXdXdXdXdXdXdXdX3 # k >.>.>.6.V.U.L.W.R.W.n.M 8 u t u z n [ -.:.>.4.>.V & . dXdXdXdXdXdXdX",
"dXdXdXdXdXdXdXdXdXdXdXdXdXdXdXdXdXdXdXdXdXdXdXdXdXm v k j A B.W.H.R.H.W.C.w.5.I u F t z W V ) ) V v c dXdXdXdXdXdXdXdXdX",
"dXdXdXdXdXdXdXdXdXdXdXdXdXdXdXdXdXdXdXdXdXdXdXdXdXdX, @ + f b.L.W.R.R.L.W.R.F.{ u u u z u u u u 6 $ 4 dXdXdXdXdXdXdXdXdX",
"dXdXdXdXdXdXdXdXdXdXdXdXdXdXdXdXdXdXdXdXdXdXdXdXdXdXdX  + f b.E.D.W.R.L.K.R.P.{ u u u u u u u u 6 < 4 dXdXdXdXdXdXdXdXdX",
"dXdXdXdXdXdXdXdXdXdXdXdXdXdXdXdXdXdXdXdXdXdXdXdXdXdXdXdXO g b.L.W.W.H.L.W.R.Z.{ t u u u u u u u 6 < 2 dXdXdXdXdXdXdXdXdX",
"dXdXdXdXdXdXdXdXdXdXdXdXdXdXdXdXdXdXdXdXdXdXdXdXdXdXdXdXO f b.R.D.R.R.L.K.R.Z.{ 8 u u u z t z u 6 < 4 dXdXdXdXdXdXdXdXdX",
"dXdXdXdXdXdXdXdXdXdXdXdXdXdXdXdXdXdXdXdXdXdXdXdXdXdXdXdXO f b.L.D.W.L.E.W.R.H.' z u u u F u u u 6 @ 4 dXdXdXdXdXdXdXdXdX",
"dXdXdXdXdXdXdXdXdXdXdXdXdXdXdXdXdXdXdXdXdXdXdXdXdXdXdXdX$ g b.L.D.R.W.K.W.T.D./.+.U F u u u 8 U 6 O 9 dXdXdXdXdXdXdXdXdX",
"dXdXdXdXdXdXdXdXdXdXdXdXdXdXdXdXdXdXdXdXdXdXdXdXdXdXdXdX. g N.E.H.R.K.5XK.Z.U.XX%X!.F w t i u t 1 $ 9 dXdXdXdXdXdXdXdXdX",
"dXdXdXdXdXdXdXdXdXdXdXdXdXdXdXdXdXdXdXdXdXdXdXdXdXdXdXq z I B.K.K.K.F.T.Z.=X-X.X].^.+...F 8 6 6 y dXdXdXdXdXdXdXdXdXdXdX",
"dXdXdXdXdXdXdXdXdXdXdXdXdXdXdXdXdXdXdXdXdXdXdXdXdXa < 3 L { B.L.K.H.W.Q.F..X}.@X$X%X[.(.J 8 # $ dXdXdXdXdXdXdXdXdXdXdXdX",
"dXdXdXdXdXdXdXdXdXdXdXdXdXdXdXdXdXdXdXdXdXdXdXdXdXi @ 9 o.@.u.5.5.6.p.>X>X&X.X*X;X=X;X*Xo...6 $ dXdXdXdXdXdXdXdXdXdXdXdX",
"dXdXdXdXdXdXdXdXdXdXdXdXdXdXdXdXdXdXdXdXdXdXdXdXdX0 . D {.dX^ E I I o.[.+X[.&X=XW.L.W.4X`.dXq $ dXdXdXdXdXdXdXdXdXdXdXdX",
"dXdXdXdXdXdXdXdXdXdXdXdXdXdXdXdXdXdXdXdXdXdXdXdXdXdXo D {.dX~.~.~ n o.[.[.{.dX4XW.U.W.F.dXdX5 O dXdXdXdXdXdXdXdXdXdXdXdX",
"dXdXdXdXdXdXdXdXdXdXdXdXdXdXdXdXdXdXdXdXdXdXdXdXdXdXo H {.#XOX).O.P O.`.).@XdXI.R.W.W.I.dXdX6 % dXdXdXdXdXdXdXdXdXdXdXdX",
"dXdXdXdXdXdXdXdXdXdXdXdXdXdXdXdXdXdXdXdXdXdXdXdXdXdX$ D ).$X%X{.O.c U ~.~.@XdXS.W.U.R.I.dXdX' ' ` x dXdXdXdXdXdXdXdXdXdX",
"dXdXdXdXdXdXdXdXdXdXdXdXdXdXdXdXdXdXdXdXdXdXdXdXdXdX$ H ).[.+X@XO.P I I ~ (.&XS.L.U.W.I.dX`.s.t.M # > dXdXdXdXdXdXdXdXdX",
"dXdXdXdXdXdXdXdXdXdXdXdXdXdXdXdXdXdXdXdXdXdXdXdXdXdXdXG J R _.[.(.~.X.I B ;X;XZ.L.=X-X/.H U 9.g.N # $ dXdXdXdXdXdXdXdXdX",
"dXdXdXdXdXdXdXdXdXdXdXdXdXdXdXdXdXdXdXdXdXdXdXdXdXdXdXdX. r (.[.{.@X^.^ { C.Q.R.W.-X|.!.. = 2.s.S # , dXdXdXdXdXdXdXdXdX",
"dXdXdXdXdXdXdXdXdXdXdXdXdXdXdXdXdXdXdXdXdXdXdXdXdXdXdXdX# D _.$X}.[.).^./.S.Y.R.W.-XdX!., # h M ) dXdXdXdXdXdXdXdXdXdXdX",
"dXdXdXdXdXdXdXdXdXdXdXdXdXdXdXdXdXdXdXdXdXdXdXdXdXdXdXdX@ D (.].[.#X+X[.oXT.W.H.H.-X|.'.0 % + $ dXdXdXdXdXdXdXdXdXdXdXdX",
"dXdXdXdXdXdXdXdXdXdXdXdXdXdXdXdXdXdXdXdXdXdXdXdXdXdXdXdXdX! ! K _.[.[.$XXX5XQ.W.W.l.O.^ m u < $ dXdXdXdXdXdXdXdXdXdXdXdX",
"dXdXdXdXdXdXdXdXdXdXdXdXdXdXdXdXdXdXdXdXdXdXdXdXdXdXdXdXdXdX* , R {.].dXdX5XW.Q.Y.7.Q I k P 0 $ dXdXdXdXdXdXdXdXdXdXdXdX",
"dXdXdXdXdXdXdXdXdXdXdXdXdXdXdXdXdXdXdXdXdXdXdXdXdXdXdXdXdXdX@ . U +.*.=X4XF.H.C.M.i.5. . . .w . dXdXdXdXdXdXdXdXdXdXdXdX",
"dXdXdXdXdXdXdXdXdXdXdXdXdXdXdXdXdXdXdXdXdXdXdXdXdXdXdXdXdXdX& # x P 3.D.W.E.J.n.j.v.m.x.z.h.y $ dXdXdXdXdXdXdXdXdXdXdXdX",
"dXdXdXdXdXdXdXdXdXdXdXdXdXdXdXdXdXdXdXdXdXdXdXdXdXdXdXdX0 p E E ( ( u.T.U.U.T.;Xl.l.l.j.j.h.y @ dXdXdXdXdXdXdXdXdXdXdXdX",
"dXdXdXdXdXdXdXdXdXdXdXdXdXdXdXdXdXdXdXdXdXdXdXdXdXdXdXdX# 0 / #.( | i.H.W.T.A.n.l.h.k.z.j.a.y & dXdXdXdXdXdXdXdXdXdXdXdX",
"dXdXdXdXdXdXdXdXdXdXdXdXdXdXdXdXdXdXdXdXdXdXdXdXdXdX4 2 # 5 ~ | 7.n.C.E.S.i.u.z.z.z.z.j.l.k. . .Q e dXdXdXdXdXdXdXdXdXdX",
"dXdXdXdXdXdXdXdXdXdXdXdXdXdXdXdXdXdXdXdXdXdXdXdXdXG < 3 % 9 /  .n.R.U.P.I.| | a.p.k.z.z.x.z.z.x.W * 2 dXdXdXdXdXdXdXdXdX",
"dXdXdXdXdXdXdXdXdXdXdXdXdXdXdXdXdXdXdXdXdXr 0 4 9 a l l l b i.n.C.Y.C.8.5.p y c B ] h.z.j.k.z.z.V * < dXdXdXdXdXdXdXdXdX",
"dXdXdXdXdXdXdXdXdXdXdXdXdXdXdXdXdXdXdXdXdX9 9 4 9 y b P P C V.R.R.T.n.} Q 9 2 # ; B k.z.l.k.l.l.B * < dXdXdXdXdXdXdXdXdX",
"dXdXdXdXdXdXdXdXdXdXdXdXdXdXdXdXdXq e r / *X,X,X:X$.P P b A V.R.R.Y.r.x H dXdX6 ; W x.k.h.i.l.l.V * < dXdXdXdXdXdXdXdXdX",
"dXdXdXdXdXdXdXdXdXdXdXdXdXdXdXdX9 < 5 < ~ wXtXiXaX*XL P b V M.U.Z.L.8.# , dXdX5 @ W c.c.z.l.l.m.B * > dXdXdXdXdXdXdXdXdX",
"dXdXdXdXdXdXdXdXdXdXdXdXO % = 3 $.:X:X1X6XeXpXiXaX>X( ( Q ( *.*.] V B dXdXdXdXdXdXx c B c.k.h.x.W @ @ dXdXdXdXdXdXdXdXdX",
"dXdXdXdXdXdXdXdXdXdXdX~ 5 3 3 r ,XyXtXtXrXyXpX0XwX*X| } | | | | y . > dXdXdXdXdXdXdX@ m l.v.v.z.Z - g dXdXdXdXdXdXdXdXdX",
"dXdXdXdXdXdXdXq 3 3 q $.:X,X1X<X7XeXtXuXpXpX9X/.(  .8.w.7.w.9.e.j O . dXdXdXdXdXdXdX@ d n.C.V.C.n.r.4.x G dXdXdXdXdXdXdX",
"dXdXdXdXdXdXdXa 2 4 0 %.sXaXyXaXrXtXeXwXwXwX8X! # A t.d.0.d.q.y.M & dXdXdXdXdXdXdXdX# k S.R.U.P.W.W.r.= , dXdXdXdXdXdXdX",
"dXdXdX* 0 q ! *X<X1X1X6XaXyXeXuXyXyX,X( ( / ^ q ; =.0.d.d.y.N h B dXdXdXdXdXdXdXdXdX@ j F.Q.R.L.R.H.r.& , dXdXdXdXdXdXdX",
"dXdXa 2 3 2 T 2XsXaXaXaXtXeXwXwXqXwX/.< + . 4 $ # S y.0.y.e.= . dXdXdXdXdXdXdXdXdXdX$ n G.D.W.W.J.R.r.= , dXdXdXdXdXdXdX",
"5 5 X.:X1X1X2X7XtXtXiXyXaX8X%.! / X.( dXdXdXdX5   S f.d.d.w.f # dXdXdXdXdXdXdXdXdXdXdXdXV C b.R.Q.Q.7.- < dXdXdXdXdXdXdX",
"2 > $.tXiXiXtXtX0X0X9X9XsX3XG . 2 > dXdXdXdXdX3   A f.q.d.9.d + dXdXdXdXdXdXdXdXdXdXdXdX$ 7 t.W.Q.D.r.w w dXdXdXdXdXdXdX",
"2 > $.pXiXuXuXuXuX X^ ~ ! / dXdXdXdXdXdXdXdXdX5   A d.0.f.w.s # dXdXdXdXdXdXdXdXdXdXdXdX$ - t.K.Q.R.A.t.u.) y dXdXdXdXdX",
"< X / 9X9XwX9X9X8Xp O 1 O 4 dXdXdXdXdXdXdXdXdX6   A g.q.d.9.s + dXdXdXdXdXdXdXdXdXdXdXdX* = n.F.K.E.E.Q.C.N : ` dXdXdXdX",
"dXdXH L ! ~ ^ L 9 dXdXdXdXdXdXdXdXdXdXdXdXdXdX3 @ A f.d.g.9.d + dXdXdXdXdXdXdXdXdXdXdXdXdXdXv M 7.U.R.H.K.s.v.] 0 dXdXdX",
"dXdXdX$ O $ o < $ dXdXdXdXdXdXdXdXdXdXdXdXdXdX. - M 9.y.y.2.g % dXdXdXdXdXdXdXdXdXdXdXdXdXdX1 & ,.C.Z.R.K.A.G._ % a dXdX",
"dXdXdXdXdXdXdXdXdXdXdXdXdXdXdXdXdXdXdXdXdXdXdX. # g Y M Y n - O dXdXdXdXdXdXdXdXdXdXdXdXdXdXdXdXW k =.A.F.>.Y I 8 q i H ",
"dXdXdXdXdXdXdXdXdXdXdXdXdXdXdXdXdXdXdXdXdXdXdX$ O 6 8 z 8 u O O dXdXdXdXdXdXdXdXdXdXdXdXdXdXdXdXdX1 M M.m.n z z 8 6   > ",
"dXdXdXdXdXdXdXdXdXdXdXdXdXdXdXdXdXdXdXdXdXdXdX< O 6 U F F u 1 $ dXdXdXdXdXdXdXdXdXdXdXdXdXdXdXdXdXdX` v v t U F u 6 @ . ",
"dXdXdXdXdXdXdXdXdXdXdXdXdXdXdXdXdXdXdXdXdXdXdX* O 6 8 F G u # # dXdXdXdXdXdXdXdXdXdXdXdXdXdXdXdXdXdXdX@ O 6 z u i i 1 $ "
};
