/* XPM */
static char *result[] = {
/* columns rows colors chars-per-pixel */
"60 60 237 2 ",
"   c #030203",
".  c #0A0404",
"X  c #05050B",
"o  c #0A050B",
"O  c #06090C",
"+  c #0B0A0D",
"@  c #0A0905",
"#  c #140C05",
"$  c #120C0B",
"%  c #1A0B0D",
"&  c #170708",
"*  c #1D130B",
"=  c #16130A",
"-  c #040513",
";  c #0B0713",
":  c #060912",
">  c #0C0A14",
",  c #060B1C",
"<  c #0B0C1B",
"1  c #130C13",
"2  c #1D0E13",
"3  c #140C19",
"4  c #1D1311",
"5  c #191517",
"6  c #0D111F",
"7  c #290F05",
"8  c #2C1003",
"9  c #22140E",
"0  c #2B160C",
"q  c #3C1C0C",
"w  c #35180B",
"e  c #2B0F17",
"r  c #241315",
"t  c #2B1414",
"y  c #241914",
"u  c #22151A",
"i  c #2D151B",
"p  c #241C1C",
"a  c #2C1D1A",
"s  c #2B1D17",
"d  c #321A1B",
"f  c #3A1918",
"g  c #3A200E",
"h  c #2D2519",
"j  c #3A291B",
"k  c #3C3615",
"l  c #332E09",
"z  c #050A21",
"x  c #0B0E22",
"c  c #080E29",
"v  c #0D1123",
"b  c #0B122B",
"n  c #0D182E",
"m  c #12162C",
"M  c #141A2B",
"N  c #181A2A",
"B  c #0D1533",
"V  c #0E1A3B",
"C  c #0D1836",
"Z  c #111732",
"A  c #131A34",
"S  c #131C3B",
"D  c #171C34",
"F  c #120F26",
"G  c #2C1B22",
"H  c #1A2235",
"J  c #1E202B",
"K  c #2B2427",
"L  c #3B2D26",
"P  c #362928",
"I  c #3C322C",
"U  c #3D3C3C",
"Y  c #481D15",
"T  c #5B1F1E",
"R  c #44250B",
"E  c #562B0C",
"W  c #4C350C",
"Q  c #4A370A",
"!  c #452413",
"~  c #4C2213",
"^  c #4A211A",
"/  c #5A2A18",
"(  c #453614",
")  c #543512",
"_  c #642B15",
"`  c #763B18",
"'  c #673415",
"]  c #442E2B",
"[  c #482C27",
"{  c #572A25",
"}  c #45312B",
"|  c #493627",
" . c #593327",
".. c #4A3331",
"X. c #4C3C35",
"o. c #443635",
"O. c #563A33",
"+. c #623A2D",
"@. c #6E3B2C",
"#. c #514710",
"$. c #6A4C16",
"%. c #784317",
"&. c #675714",
"*. c #765916",
"=. c #75580F",
"-. c #6F6216",
";. c #5A4639",
":. c #5F4E25",
">. c #69493C",
",. c #714E3B",
"<. c #0E1D45",
"1. c #0F1F49",
"2. c #121D44",
"3. c #141E47",
"4. c #142345",
"5. c #1C2A45",
"6. c #162549",
"7. c #1A2848",
"8. c #1F2E53",
"9. c #252E46",
"0. c #253248",
"q. c #233155",
"w. c #2C3955",
"e. c #2B3753",
"r. c #313F55",
"t. c #32414E",
"y. c #35445C",
"u. c #2F405A",
"i. c #3A4963",
"p. c #5F4942",
"a. c #634C47",
"s. c #6A5444",
"d. c #735445",
"f. c #7E5B49",
"g. c #695755",
"h. c #72524B",
"j. c #7C6753",
"k. c #7D6946",
"l. c #843C1A",
"z. c #943C1A",
"x. c #89441D",
"c. c #995A1B",
"v. c #93471B",
"b. c #A85816",
"n. c #937514",
"m. c #96791B",
"M. c #897019",
"N. c #AF671E",
"B. c #B47217",
"V. c #994929",
"C. c #AD5527",
"Z. c #B25C2F",
"A. c #986624",
"S. c #967A26",
"D. c #846623",
"F. c #B17328",
"G. c #E35E15",
"H. c #C76A1E",
"J. c #D2731B",
"K. c #CD7414",
"L. c #EC751F",
"P. c #C25C32",
"I. c #C77225",
"U. c #D37828",
"Y. c #CC6D33",
"T. c #E87928",
"R. c #835D4D",
"E. c #84664B",
"W. c #876757",
"Q. c #946855",
"!. c #8D715B",
"~. c #8D7054",
"^. c #94735B",
"/. c #957258",
"(. c #A27A5D",
"). c #8F7362",
"_. c #977566",
"`. c #926F61",
"'. c #A47D66",
"]. c #9F851D",
"[. c #AD901F",
"{. c #AE8C19",
"}. c #B6932A",
"|. c #B08D23",
" X c #ED9B1E",
".X c #DCB216",
"XX c #FEA91B",
"oX c #EAB91B",
"OX c #FBBF1D",
"+X c #F7B918",
"@X c #DE8324",
"#X c #C49A29",
"$X c #D49627",
"%X c #DD8430",
"&X c #E78425",
"*X c #F7862B",
"=X c #F5942B",
"-X c #F99929",
";X c #EF8431",
":X c #F98B31",
">X c #E79C32",
",X c #F09A2C",
"<X c #D5A532",
"1X c #CBA529",
"2X c #EDA32A",
"3X c #FEAB2E",
"4X c #F8A926",
"5X c #EBBA24",
"6X c #E6B924",
"7X c #F3BB23",
"8X c #F6B32B",
"9X c #F9B626",
"0X c #EDBA33",
"qX c #FBC51D",
"wX c #F4CA1C",
"eX c #FBC91D",
"rX c #FEC422",
"tX c #F5CA21",
"yX c #FBC922",
"uX c #FAC42C",
"iX c #F4C524",
"pX c #FAC732",
"aX c #9D806B",
"sX c #AD846A",
"dX c #A8836A",
"fX c #B3886A",
"gX c #A88978",
"hX c #B58D74",
"jX c #BA957C",
"kX c #B99577",
"lX c #B2906D",
"zX c #C29477",
"xX c #C1996F",
"cX c #B89987",
"vX c #AD8E88",
"bX c #B4A6A4",
"nX c None",
/* pixels */
"nXnXnXnXnXnXnXnXnXnXnXnXnXnXnXnXnXnXnXnXnXnXnXnXnXnXnXnXnXnXnXnXnXnXnXnXnXnXnXnXnXnXnXnXnXnXnXnXnXnXnXnXnXnXnXnXnXnXnXnX",
"nXnXnXnXnXnXnXnXnXnXnXnXnXnXnXnXnXnXnXnXnXnXnXnXnXnXnXnXnXnXnXnXnXnXnXnXnXnXnXnXnXnXnXnXnXnXnXnXnXnXnXnXnXnXnXnXnXnXnXnX",
"nXnXnXnXnXnXnXnXnXnXnXnXnXnXnXnXnXnXnXnXnXnXnXnXnXnXnX@ o o . . o . nXnXnXnXnXnXnXnXnXnXnXnXnXnXnXnXnXnXnXnXnXnXnXnXnXnX",
"nXnXnXnXnXnXnXnXnXnXnXnXnXnXnXnXnXnXnXnXnXnXnXnXnXnX  % r r r t t 4 1 : nXnXnXnXnXnXnXnXnXnXnXnXnXnXnXnXnXnXnXnXnXnXnXnX",
"nXnXnXnXnXnXnXnXnXnXnXnXnXnXnXnXnXnXnXnXnXnXnXnXnX. & t i d e f i i r 1 + nXnXnXnXnXnXnXnXnXnXnXnXnXnXnXnXnXnXnXnXnXnXnX",
"nXnXnXnXnXnXnXnXnXnXnXnXnXnXnXnXnXnXnXnXnXnXnXnXnX* >.P & 2 % e e i t 2   nXnXnXnXnXnXnXnXnXnXnXnXnXnXnXnXnXnXnXnXnXnXnX",
"nXnXnXnXnXnXnXnXnXnXnXnXnXnXnXnXnXnXnXnXnXnXnXnXnXa gXg.o.o.P d r i e r   nXnXnXnXnXnXnXnXnXnXnXnXnXnXnXnXnXnXnXnXnXnXnX",
"nXnXnXnXnXnXnXnXnXnXnXnXnXnXnXnXnXnXnXnXnXnXnXnXnXd jXcXbXbXvXd.i u t r   nXnXnXnXnXnXnXnXnXnXnXnXnXnXnXnXnXnXnXnXnXnXnX",
"nXnXnXnXnXnXnXnXnXnXnXnXnXnXnXnXnXnXnXnXnXnXnXnXnXa '.Q.>.d.sXhXj.y r 2   nXnXnXnXnXnXnXnXnXnXnXnXnXnXnXnXnXnXnXnXnXnXnX",
"nXnXnXnXnXnXnXnXnXnXnXnXnXnXnXnXnXnXnXnXnXnXnXnXnXh gX'./.dXlXzXlXW.h @   nXnXnXnXnXnXnXnXnXnXnXnXnXnXnXnXnXnXnXnXnXnXnX",
"nXnXnXnXnXnXnXnXnXnXnXnXnXnXnXnXnXnXnXnXnXnXnXnXnX4 a.d.~.zXkXjXzXzXI   nXnXnXnXnXnXnXnXnXnX  nXnXnXnXnXnXnXnXnXnXnXnXnX",
"nXnXnXnXnXnXnXnXnXnXnXnXnXnXnXnXnXnXnXnXnXnXnXnXnX% f Y +.Q.lXzX'.j.K - nXnXnXnXnXnXnXnXnX  $ P 5 nXnXnXnXnXnXnXnXnXnXnX",
"nXnXnXnXnXnXnXnXnXnXnXnXnXnXnXnXnXnXnXnXnXnXnXnXnXnX{ T / +.'.zX_.U h K nXnXnXnXnXnXnXnXnX+ P g.I y nXnXnXnXnXnXnXnXnXnX",
"nXnXnXnXnXnXnXnXnXnXnXnXnXnXnXnXnXnXnXnXnXnXnXnXnX. f Y >.dXgXjXsX(.'.;.O nXnXnXnXnXnXnXnXnX5 h !.>.  nXnXnXnXnXnXnXnXnX",
"nXnXnXnXnXnXnXnXnXnXnXnXnXnXnXnXnXnXnXnXnXnXnXnXnXy W._.aXgX| L j j L u > o   @ nXnXnXnXnXnXnX$ ).;.. nXnXnXnXnXnXnXnXnX",
"nXnXnXnXnXnXnXnXnXnXnXnXnXnXnXnXnXnXnXnXnXnXnXnXnX$ } X.X.>.D.n.n.M.n.m.S.m.].-.= nXnXnXnXnXnXnXP K + nXnXnXnXnXnXnXnXnX",
"nXnXnXnXnXnXnXnXnXnXnXnXnXnXnXnXnXnXnXnXnXnXnXnXk &.$.$.&.*.<X8X3X4XqXeXrXyXrX<X*.l nXnXnXnXnXnXX X @ nXnXnXnXnXnXnXnXnX",
"nXnXnXnXnXnXnXnXnXnXnXnXnXnXnXnXnXnXnX( k ( R ! D.iX9X9X5X8X=X:X:X4X9XrXrXrXrXrX6X( - nXnXnXnXnXs 5   nXnXnXnXnXnXnXnXnX",
"nXnXnXnXnXnXnXnXnXnXnXnXnXnXnXnXl * j #XoX1XK.U.U.&X&X@X@X%XU.*X-X9XuXrXrXrXrXrXoX#.@ y nXnXnXp ).;.  nXnXnXnXnXnXnXnXnX",
"nXnXnXnXnXnXnXnXnXnXnXnXnXnX# 0 m.1X#X2X-XN.R g g R q w q Y ~ c.>X9XqXrXrXrXrXrX6X( #.|.g   h W.cX;.. nXnXnXnXnXnXnXnXnX",
"nXnXnXnXnXnXnXnXnXnXnX  . &.].F.$X3X$X%.' E nXnXnXnXnXo R c.b.K.,XrXwXqXrXrXrXrX6X( $. XB.k O } '.>.  nXnXnXnXnXnXnXnXnX",
"nXnXnXnXnXnXnXnXnXnXk -.=.}.qX9XN.v.%.0 X nXnXnXnXnXnXnXW c.T.-X4XOXwXrXrXrXrXrXoXQ ` =XOX].*.$.>.L nXnXnXnXnXnXnXnXnXnX",
"nXnXnXnXnXnXnXnXnXh :.[.5XqX,XF.!   @ nXnXnXnXnXnXnXnXnXnX8 J.3XrXqXrXyXrXrXrXrX5XQ ) I.2XiXtX6XR   nXnXnXnXnXnXnXnXnXnX",
"nXnXnXnXnXnXnXnXu k.E.) }.$XA.q nXnXnXnXnXnXnXnXnXnXnXnXnX8 J.3XyXqXrX7XqXrXrXrXoX) . R F.8X5X1Xk nXnXnXnXnXnXnXnXnXnXnX",
"nXnXnXnXnXnXnXj ).hXfX~.k 0 0 nXnXnXnXnXnXnXnXnXnXnXnXnXnX8 J.3XrXqXyXrXrXrXrXqX+XQ @ nXw N.F.R nXnXnXnXnXnXnXnXnXnXnXnX",
"nXnXnXnXnX@ X.^.lXh.] | nXnXnXnXnXnXnXnXnXnXnXnXnXnXnXnXnX7 J.3XyXqXrXrXrXrXrXrX6XQ = nXnX! Y nXnXnXnXnXnXnXnXnXnXnXnXnX",
"nXnXnXnXnX  a.vXs.h nXnXnXnXnXnXnXnXnXnXnXnXnXnXnXnXnXnXnX7 I.3XtXqXrXrX7XrXrXrXiXQ . nXnXnXnXnXnXnXnXnXnXnXnXnXnXnXnXnX",
"nXnXnXnXL ] p.g.p nXnXnXnXnXnXnXnXnXnXnXnXnXnXnXnXnXnXnXf _ U.4XtXOXrXrXyXrXrXrX6XW   nXnXnXnXnXnXnXnXnXnXnXnXnXnXnXnXnX",
"nXnX. [ sX_.| 4 nXnXnXnXnXnXnXnXnXnXnXnXnXnXnXnXnXnXnX  ~ Z.;XXXeXyXrXrXrXrXrXrX6XW   nXnXnXnXnXnXnXnXnXnXnXnXnXnXnXnXnX",
"nX  nX^.(.j $ nXnXnXnXnXnXnXnXnXnXnXnXnXnXnXnXnXnXnXnX  ^ P.;XXXrXrXyXrXrXrXrXrX6XW   nXnXnXnXnXnXnXnXnXnXnXnXnXnXnXnXnX",
"nX. nXnXy nXnXnXnXnXnXnXnXnXnXnXnXnXnXnXnXnXnXnXnXnXnX  Y P.;X9XiX7XwXyXrXrXrXyX5XW   nXnXnXnXnXnXnXnXnXnXnXnXnXnXnXnXnX",
"nX  . . nXnXnXnXnXnXnXnXnXnXnXnXnXnXnXnXnXnXnXnXnXnXnX  Y Z.;XXXyXrXeXeXrX7XyXtX0XW   nXnXnXnXnXnXnXnXnXnXnXnXnXnXnXnXnX",
"nX  + nXnXnXnXnXnXnXnXnXnXnXnXnXnXnXnXnXnXnXnXnXnXnXnXq / l.T.-X8XuXeXrXeXyXrX.XS.( nXnXnXnXnXnXnXnXnXnXnXnXnXnXnXnXnXnX",
"nX  nXnXnXnXnXnXnXnXnXnXnXnXnXnXnXnXnXnXnXnXnXnXnX5 1 ` l.w H.=X,XeXtXiXqXeXqX{.w nXnXnXnXnXnXnXnXnXnXnXnXnXnXnXnXnXnXnX",
"nXnXnXnXnXnXnXnXnXnXnXnXnXnXnXnXnXnXnXnXnXnXnXnXo 1 > l.z.% H.*X-X+XqXyXyXeXyX}.= nXnXnXnXnXnXnXnXnXnXnXnXnXnXnXnXnXnXnX",
"nXnXnXnXnXnXnXnXnXnXnXnXnXnXnXnXnXnXnXnXnXnXX   v Z + l.z.7 C.T.:X-X7XyXpXrXeX|.# nXnXnXnXnXnXnXnXnXnXnXnXnXnXnXnXnXnXnX",
"nXnXnXnXnXnXnXnXnXnXnXnXnXnXnXnXnXnXnX    , n b S 2.B G _ ` / v.L.;X-X8XiXuXeX[.# nXnXnXnXnXnXnXnXnXnXnXnXnXnXnXnXnXnXnX",
"nXnXnXnXnXnXnXnXnXnXnXnXnXnXnXnXnXnXv < x b S V Z N B z ~ C.w E G.T.*X:X+XuXeX[.# nXnXnXnXnXnXnXnXnXnXnXnXnXnXnXnXnXnXnX",
"nXnXnXnXnXnXnXnXnXnXnXnXnXnXnXnX: - b S S S n < ; ; , - Y ` t q z.V.Z.N.B.|.{.M.* nXnXnXnXnXnXnXnXnXnXnXnXnXnXnXnXnXnXnX",
"nXnXnXnXnXnXnXnXnXnXnXnXnXnXnX- m Z S 2.b z 6 > 3 3 3 ; & % : + % 2 3 u * y 0 r o nXnXnXnXnXnXnXnXnXnXnXnXnXnXnXnXnXnXnX",
"nXnXnXnXnXnXnXnXnXnXnXnXnXnX, Z S S x x 3 < > > > < , 1 > ; + : c V V 5.t.t.0.J . nXnXnXnXnXnXnXnXnXnXnXnXnXnXnXnXnXnXnX",
"nXnXnXnXnXnXnXnXnXnXnXnX  < D S m F < ; < ; 3 > > < > : < : o o v H 1.q.i.y.w.N   nXnXnXnXnXnXnXnXnXnXnXnXnXnXnXnXnXnXnX",
"nXnXnXnXnXnXnXnXnXnXnXnX  c S Z < 1 < ; ; ; ; > ; o - ; o X   : v V 1.q.y.t.nXv   nXnXnXnXnXnXnXnXnXnXnXnXnXnXnXnXnXnXnX",
"nXnXnXnXnXnXnXnXnXnXnXnX  F S c > o o ; ; ; - ; : X       o   + v V 1.q.i.w.nX6   nXnXnXnXnXnXnXnXnXnXnXnXnXnXnXnXnXnXnX",
"nXnXnXnXnXnXnXnXnXnXnXnXX v B c < ; o o   X X X : nXnXnXnXnX  : 6 S 1.8.y.w.nX6 X nXnXnXnXnXnXnXnXnXnXnXnXnXnXnXnXnXnXnX",
"nXnXnXnXnXnXnXnXnXnXnXnXnX- x D 6 < ; + + > nXnXnXnXnXnXnXnX  O < V 1.6.5.u.w.M   nXnXnXnXnXnXnXnXnXnXnXnXnXnXnXnXnXnXnX",
"nXnXnXnXnXnXnXnXnXnXnXnXnXnXnX< m m ; ;   . nXnXnXnXnXnXnXnX  o < Z 1.1.6.y.u.H X nXnXnXnXnXnXnXnXnXnXnXnXnXnXnXnXnXnXnX",
"nXnXnXnXnXnXnXnXnXnXnXnXnXnXnXX m F 1 p =   nXnXnXnXnXnXnXnXnXo > B 2.1.6.i.i.H X nXnXnXnXnXnXnXnXnXnXnXnXnXnXnXnXnXnXnX",
"nXnXnXnXnXnXnXnXnXnXnXnXnXnXnX- < 5 ....y   nXnXnXnXnXnXnXnXnX  X z C <.3.i.i.H X nXnXnXnXnXnXnXnXnXnXnXnXnXnXnXnXnXnXnX",
"nXnXnXnXnXnXnXnXnXnXnXnXnXnXnXnX. K ^.O.9   nXnXnXnXnXnXnXnXnX  X z V 2.6.r.y.D X nXnXnXnXnXnXnXnXnXnXnXnXnXnXnXnXnXnXnX",
"nXnXnXnXnXnXnXnXnXnXnXnXnXnXnXnX  r Q.+.0   nXnXnXnXnXnXnXnXnX    < Z 2.4.4.9.D X nXnX+ $ $ $ $ = = + $ + = $ + .   nXnX",
"nXnXnXnXnXnXnXnXnXnXnXnXnXnXnXnXnXnXr ..r   nXnXnXnXnXnXnXnXnX  o < Z 2.1.4.5.N O   s E.^.!.~.!.!.!.!.).^./.^.).}   nXnX",
"nXnXnXnXnXnXnXnXnXnXnXnXnXnXnXnXnXnXo ..u   nXnXnXnXnXnXnXnXnXnX3 - x V 1.2.8.H - N K X.f.R.R.d.;.O.X.;.s.(.zXjX;.  nXnX",
"nXnXnXnXnXnXnXnXnXnXnXnXnXnXnXnXnXnX& ..i   nXnXnXnXnXnXnXnXnXnXnXX < B 2.4.9.9.D 0.5.v a q d d r       4 O._.hXO.  nXnX",
"nXnXnXnXnXnXnXnXnXnXnXnXnXnXnXnXnXr f [ t   nXnXnXnXnXnXnXnXnXnXnX  > v C 4.<.7.0.H A v : .   1 nXnXnXnX  r { W.O.a nXnX",
"nXnXnXnXnXnXnXnXnXnXnXnXnXnXnXnX  r d. .0   nXnXnXnXnXnXnXnXnXnXnX  + > c V <.S S , X X nXnXnXnXnXnXnXnXnXnX& ] d...& nX",
"nXnXnXnXnXnXnXnXnXnXnXnXnXnXnX  nX .+.{ t   nXnXnXnXnXnXnXnXnXnXnXo + ; < v N N : nXnXnXnXnXnXnXnXnXnXnXnXnXnX% [ nX. nX",
"nXnXnXnXnXnXnXnXnXnXnXnXnX    nX^ { { ..r   nXnXnXnXnXnXnXnXnXnXnXnX: o o : X 6 nXnXnXnXnXnXnXnXnXnXnXnXnXnX& r [ P . nX",
"nXnXnXnXnXnXnXnXnXnXnXnXnXnXnXnXnXnXnXnX2 nXnXnXnXnXnXnXnXnXnXnXnXnXnXO       nXnXnXnXnXnXnXnXnXnXnXnXnXnXnX. nXnXnXnXnX",
"nXnXnXnXnXnXnXnXnXnXnXnXnXnXnXnXnXnXnXnXnXnXnXnXnXnXnXnXnXnXnXnXnXnXnXnXnXnXnXnXnXnXnXnXnXnXnXnXnXnXnXnXnXnXnXnXnXnXnXnX"
};
