/* XPM */
static char *result[] = {
/* columns rows colors chars-per-pixel */
"60 60 238 2 ",
"   c #030203",
".  c #0A0403",
"X  c #0D0906",
"o  c #04050A",
"O  c #0C060B",
"+  c #06090D",
"@  c #0B0A0C",
"#  c #070805",
"$  c #120504",
"%  c #120A05",
"&  c #1B0A04",
"*  c #12070A",
"=  c #130B0B",
"-  c #1C0C0D",
";  c #1D0704",
":  c #1C110E",
">  c #17110B",
",  c #040613",
"<  c #0B0513",
"1  c #060913",
"2  c #0B0A13",
"3  c #070B1B",
"4  c #0B0C1B",
"5  c #05071B",
"6  c #110B13",
"7  c #1C0D12",
"8  c #110C1A",
"9  c #0C111C",
"0  c #161314",
"q  c #1B1313",
"w  c #19171B",
"e  c #0C100A",
"r  c #270C09",
"t  c #2A180A",
"y  c #39180B",
"u  c #260D15",
"i  c #241314",
"p  c #291416",
"a  c #2C151A",
"s  c #241B1A",
"d  c #281A18",
"f  c #321A1B",
"g  c #381A14",
"h  c #2B2415",
"j  c #33241E",
"k  c #3A291A",
"l  c #352A12",
"z  c #0A0E23",
"x  c #080E27",
"c  c #0B1224",
"v  c #0D132B",
"b  c #0B1525",
"n  c #121525",
"m  c #11122A",
"M  c #141B2F",
"N  c #18162A",
"B  c #0E1332",
"V  c #0E1935",
"C  c #0D1A3C",
"Z  c #121533",
"A  c #131A36",
"S  c #131C3C",
"D  c #171A37",
"F  c #361F21",
"G  c #2D1927",
"H  c #17223B",
"J  c #282326",
"K  c #352322",
"L  c #3C2321",
"P  c #392B24",
"I  c #3C2E2A",
"U  c #332C28",
"Y  c #3A3529",
"T  c #282832",
"R  c #2D373A",
"E  c #373536",
"W  c #392630",
"Q  c #481E17",
"!  c #491C0E",
"~  c #55270D",
"^  c #482716",
"/  c #532615",
"(  c #483316",
")  c #4B2F14",
"_  c #753819",
"`  c #643516",
"'  c #432D2B",
"]  c #482826",
"[  c #562B26",
"{  c #44322A",
"}  c #49362A",
"|  c #59352C",
" . c #443631",
".. c #4B3B31",
"X. c #483936",
"o. c #503A32",
"O. c #573833",
"+. c #522E30",
"@. c #643D35",
"#. c #62382B",
"$. c #56480A",
"%. c #534214",
"&. c #794719",
"*. c #694A12",
"=. c #59492B",
"-. c #4E4138",
";. c #5A4439",
":. c #674B3A",
">. c #764D3C",
",. c #71512A",
"<. c #7A6B28",
"1. c #0E1D44",
"2. c #0E1F48",
"3. c #121E44",
"4. c #151D47",
"5. c #132144",
"6. c #12224B",
"7. c #1B2A49",
"8. c #192B4E",
"9. c #233353",
"0. c #283757",
"q. c #28344A",
"w. c #2B435E",
"e. c #2B4261",
"r. c #434B48",
"t. c #584843",
"y. c #4D5351",
"u. c #6A4F41",
"i. c #6A574A",
"p. c #775849",
"a. c #745351",
"s. c #77624D",
"d. c #786356",
"f. c #596565",
"g. c #586974",
"h. c #5B7078",
"j. c #786863",
"k. c #61746C",
"l. c #627273",
"z. c #853F16",
"x. c #973918",
"c. c #8A3D26",
"v. c #86451A",
"b. c #904F19",
"n. c #86651B",
"m. c #987C19",
"M. c #9A7A14",
"N. c #9C7B0D",
"B. c #B66519",
"V. c #A26A1C",
"C. c #854724",
"Z. c #974522",
"A. c #9B5528",
"S. c #AD5228",
"D. c #8C752C",
"F. c #967826",
"G. c #826B24",
"H. c #B46E29",
"J. c #C04D1A",
"K. c #CA691A",
"L. c #E76D1C",
"P. c #C3582D",
"I. c #C66428",
"U. c #DB7632",
"Y. c #D16E2C",
"T. c #E87D26",
"R. c #EE7F2D",
"E. c #865E4A",
"W. c #896D5D",
"Q. c #846555",
"!. c #8A6C56",
"~. c #866D66",
"^. c #897664",
"/. c #957763",
"(. c #A37D64",
"). c #A67D69",
"_. c #A27F70",
"`. c #B48C18",
"'. c #B99819",
"]. c #9A8522",
"[. c #B68B24",
"{. c #B29225",
"}. c #C7881C",
"|. c #D08F1B",
" X c #FA8F1D",
".X c #D9B419",
"XX c #CBA819",
"oX c #F8BA1D",
"OX c #CA8823",
"+X c #DD892A",
"@X c #DB9B2B",
"#X c #CF932E",
"$X c #E78928",
"%X c #FB8C25",
"&X c #FB852B",
"*X c #FB8C2B",
"=X c #F88727",
"-X c #F99228",
";X c #F59624",
":X c #FE8931",
">X c #F88A33",
",X c #F79236",
"<X c #EC982F",
"1X c #D3AA27",
"2X c #E8AB28",
"3X c #F6A525",
"4X c #EAB829",
"5X c #F3B524",
"6X c #FBB624",
"7X c #F5BD23",
"8X c #F8B928",
"9X c #FAB531",
"0X c #F5AD30",
"qX c #F6C51B",
"wX c #FDC31F",
"eX c #F6C81E",
"rX c #FACA1D",
"tX c #ECC425",
"yX c #F6C322",
"uX c #FAC523",
"iX c #FAC922",
"pX c #FDC22A",
"aX c #F8C829",
"sX c #F7CD2F",
"dX c #9E8A6C",
"fX c #AC836C",
"gX c #A88669",
"hX c #B58E6E",
"jX c #AB8B75",
"kX c #A78977",
"lX c #B58B76",
"zX c #B39574",
"xX c #BC9575",
"cX c #BB9879",
"vX c #AF907B",
"bX c #B39887",
"nX c #B39A98",
"mX c None",
/* pixels */
"mXmXmXmXmXmXmXmXmXmXmXmXmXmXmXmXmXmXmXmXmXmXmX7 * * = * * * * mXmXmXmXmXmXmXmXmXmXmXmXmXmXmXmXmXmXmXmXmXmXmXmXmXmXmXmXmX",
"mXmXmXmXmXmXmXmXmXmXmXmXmXmXmXmXmXmXmXmXmXmX- u u a a a a a 7 $ mXmXmXmXmXmXmXmXmXmXmXmXmXmXmXmXmXmXmXmXmXmXmXmXmXmXmXmX",
"mXmXmXmXmXmXmXmXmXmXmXmXmXmXmXmXmXmXmXmXo 0 a a G a i a a a f i =   mXmXmXmXmXmXmXmXmXmXmXmXmXmXmXmXmXmXmXmXmXmXmXmXmXmX",
"mXmXmXmXmXmXmXmXmXmXmXmXmXmXmXmXmXmXmXmX  U d.U 6 - % 7 a a a a X   mXmXmXmXmXmXmXmXmXmXmXmXmXmXmXmXmXmXmXmXmXmXmXmXmXmX",
"mXmXmXmXmXmXmXmXmXmXmXmXmXmXmXmXmXmXmXmX  } kX~.j.f.i.' - p f p =   mXmXmXmXmXmXmXmXmXmXmXmXmXmXmXmXmXmXmXmXmXmXmXmXmXmX",
"mXmXmXmXmXmXmXmXmXmXmXmXmXmXmXmXmXmXmXmX  } vXbXnXnXbXW.' i u p *   mXmXmXmXmXmXmXmXmXmXmXmXmXmXmXmXmXmXmXmXmXmXmXmXmXmX",
"mXmXmXmXmXmXmXmXmXmXmXmXmXmXmXmXmXmXmXmX   .jXE.#.>.(.cXdX} i i 2 o mXmXmXmXmXmXmXmXmXmXmXmXmXmXmXmXmXmXmXmXmXmXmXmXmXmX",
"mXmXmXmXmXmXmXmXmXmXmXmXmXmXmXmXmXmXmXmX   .kXlXfXfXxXcXlXgXi.: X # mXmXmX  # 0 mXo + mXmXmXmXmXmXmXmXmXmXmXmXmXmXmXmXmX",
"mXmXmXmXmXmXmXmXmXmXmXmXmXmXmXmXmXmXmXmX  a @.#.E.lXxXxXcXcXd.= w mXmXmXmXe t.t.7 T J + mXmXmXmXmXmXmXmXmXmXmXmXmXmXmXmX",
"mXmXmXmXmXmXmXmXmXmXmXmXmXmXmXmXmXmXmXmXmXf ] Q [ p.fXxXxXs.' @ R mXmXmXE E -.;.t.E w # mXmXmXmXmXmXmXmXmXmXmXmXmXmXmXmX",
"mXmXmXmXmXmXmXmXmXmXmXmXmXmXmXmXmXmXmXmXmX] [ Q [ :.(.xXgX:.{ { r.R T f.l.k.w  .bXo.d @ mXmXmXmXmXmXmXmXmXmXmXmXmXmXmXmX",
"mXmXmXmXmXmXmXmXmXmXmXmXmXmXmXmXmXmXmXmXX i L ] C.vXfXgXxXxXjX!.( h l y.k.h.T } /.kXp.d mXmXmXmXmXmXmXmXmXmXmXmXmXmXmXmX",
"mXmXmXmXmXmXmXmXmXmXmXmXmXmXmXmXmXmXmXmX# K ~.dXfXkX} =.jXxXs.( ]..X'.=.R k.h.-.P W.vXW.j # mXmXmXmXmXmXmXmXmXmXmXmXmXmX",
"mXmXmXmXmXmXmXmXmXmXmXmXmXmXmXmXmXmXmXmXmXs P { ' I s w U Y *.{.4XrXiX'.<.U f.k.r.E i.kXj   mXmXmXmXmXmXmXmXmXmXmXmXmXmX",
"mXmXmXmXmXmXmXmXmXmXmXmXmXmXmXmXmXmXmXmXmXmXmXmXmXmXmXk <.n.`.sXrXqXqXsXXX<.-.w.l.w ..jXK   mXmXmXmXmXmXmXmXmXmXmXmXmXmX",
"mXmXmXmXmXmXmXmXmXmXmXmXmXmXmXmXmXmXmXmXmXmXmXmXmXmX^ D.8XrXtX8XoXqXrXeXrXtXn.=.r.0 X.gXK   mXmXmXmXmXmXmXmXmXmXmXmXmXmX",
"mXmXmXmXmXmXmXmXmXmXmXmXmXmXmXmXmXmXmXmXmXmXmXmXmX= {.sX7XtX2X}.4XtXaXwXeXqX4XF.= o o.fXj , mXmXmXmXmXmXmXmXmXmXmXmXmXmX",
"mXmXmXmXmXmXmXmXmXmXmXmXmXmXmXmXmXmXmXmXmXmXmXmXmXt '.aX7X;XB.~ |.rXiXuXyXeXpXm.@ e -.(.K + mXmXmXmXmXmXmXmXmXmXmXmXmXmX",
"mXmXmXmXmXmXmXmXmXmXmXmXmXmXmXmXmXmXmXmXmXmXmXmX$.`.tX7X Xz._ B.2XuXuXwXuXeXpXm.q <.D.] s mXmXmXmXmXmXmXmXmXmXmXmXmXmXmX",
"mXmXmXmXmXmXmXmXmXmXmXmXmXmXmXmXmXmXmXmXmXmXmX  $.yX9XOXv._ I. XqXtXuXwXuXeXpXm.t }.V.$ mXmXmXmXmXmXmXmXmXmXmXmXmXmXmXmX",
"mXmXmXmXmXmXmXmXmXmXmXmXmXmXmXmXmXmXmXmXmXmXmX) n.5X;XV.y K.=X,X8XrXiXwXyXeXpXm.> &.&.$ mXmXmXmXmXmXmXmXmXmXmXmXmXmXmXmX",
"mXmXmXmXmXmXmXmXmXmXmXmXmXmXmXmXmXmXmXmXmXmX- [.sX5X+Xb.y K.%X<X6XuXiXwXuXeXpXm.e > t mXmXmXmXmXmXmXmXmXmXmXmXmXmXmXmXmX",
"mXmXmXmXmXmXmXmXmXmXmXmXmXmXmXmXmXmXmXmXmXmXt '.6X|.` r r I.:X%X6XuXrXwXuXeXpXm.# mXmXmXmXmXmXmXmXmXmXmXmXmXmXmXmXmXmXmX",
"mXmXmXmXmXmXmXmXmXmXmXmXmXmXmXmXmXmXmXmXmX%.[..X5X+X^ o r I.:X-X6XuXrXeXuXeXpXm.# mXmXmXmXmXmXmXmXmXmXmXmXmXmXmXmXmXmXmX",
"mXmXmXmXmXmXmXmXmXmXmXmXmXmXmXmXmXmXmXmXO *.tX9XOX_ g . r I.&X-X6XuXrXwXuXqXpXm.. mXmXmXmXmXmXmXmXmXmXmXmXmXmXmXmXmXmXmX",
"mXmXmXmXmXmXmXmXmXmXmXmXmXmXmXmXmXmXmXh %.V.4XH.v.r mXmX& I.:X-X6XiXrXwXuXeXpXm.# mXmXmXmXmXmXmXmXmXmXmXmXmXmXmXmXmXmXmX",
"mXmXmXmXmXmXmXmXmXmXmXmXmXmXmXmXmXt l l [.0X$X) > mXmXmX! H.%X%X6XiXiXwXuXeXpXm.# mXmXmXmXmXmXmXmXmXmXmXmXmXmXmXmXmXmXmX",
"mXmXmXmXmXmXmXmXmXmXmXmXmXmXmXmXd ].1X@X<X$XU.^   mX  / S.$X%X%X6XqXuXwXuXeXpXm.# mXmXmXmXmXmXmXmXmXmXmXmXmXmXmXmXmXmXmX",
"mXmXmXmXmXmXmXmXmXmXmXmXmXmX. } d.=.n.$X&./ / j mXmX  / I.T.%X>X5XeXuXoXuXeXpXm.# mXmXmXmXmXmXmXmXmXmXmXmXmXmXmXmXmXmXmX",
"mXmXmXmXmXmXmXmXmXmXmXmXmX  } W.dXY f ` y mXmXmXmXmX. / P.R.%X>X3XoXuXuXuXeXpXm.  mXmXmXmXmXmXmXmXmXmXmXmXmXmXmXmXmXmXmX",
"mXmXmXmXmXmXmXmXmXmXmXmXw I i.j.i.W < . mXmXmXmXmXmX! ` C.U.*X:X X3XpXwXuXeXpXm.# mXmXmXmXmXmXmXmXmXmXmXmXmXmXmXmXmXmXmX",
"mXmXmXmXmXmXmXmXmXmXmXq X.d.P % @ mXmXmXmXmXmXmXmXr Z._ r S.&X>X=X3XyXrXaXpXuXN.  mXmXmXmXmXmXmXmXmXmXmXmXmXmXmXmXmXmXmX",
"mXmXmXmXmXmXmX% % . % t.t.w mXmXmXmXmXmXmXmXmXmXmX& Z.v.* x.L.$XR.;X8XiXiXpXiXN.. mXmXmXmXmXmXmXmXmXmXmXmXmXmXmXmXmXmXmX",
"mXmXmXmXmX. { Q.W. .= w s mXmXmXmXmXmXmXmXmXmX+ + & Z.z.; x.L.%X%X*X3XyXuXpXiXN.X mXmXmXmXmXmXmXmXmXmXmXmXmXmXmXmXmXmXmX",
"mXmXmXmX    d O.;.{ q mXmXmXmXmXmXmXmXmXmXo 3 b 4 * C.v.r c.U.*X&X:X,X6XoXuXrXN.X mXmXmXmXmXmXmXmXmXmXmXmXmXmXmXmXmXmXmX",
"mXmXmXmX  # X X   mXmXmXmXmXmXmXmXmXmXmXc z x C D z [ _ ^ _ S.R.=X:X:X3XoXuXrX].O mXmXmXmXmXmXmXmXmXmXmXmXmXmXmXmXmXmXmX",
"mXmXmXmXmX  + mXmXmXmXmXmXmXmXmXmX9 , 4 V C C Z D A 8 / A.! ! K.T.>X*X-X3XwXaXF.X mXmXmXmXmXmXmXmXmXmXmXmXmXmXmXmXmXmXmX",
"mXmXmXmXmXmXmXmXmXmXmXmXmXmX, , 4 z M D S B x z 6 x 5 / x.! Q J.S.Y.T.$X@X7X4XD.% mXmXmXmXmXmXmXmXmXmXmXmXmXmXmXmXmXmXmX",
"mXmXmXmXmXmXmXmXmXmXmXmXmX5 v Z Z 4.S x z 8 4 6 6 z 4 r y - q ! Q g / ) ^ ) ( l . mXmXmXmXmXmXmXmXmXmXmXmXmXmXmXmXmXmXmX",
"mXmXmXmXmXmXmXmXmXmXmXmXz Z S D B Z m z 8 4 6 6 2 8 4 6 O < X o x v n A v 5 5 1   mXmXmXmXmXmXmXmXmXmXmXmXmXmXmXmXmXmXmX",
"mXmXmXmXmXmXmXmXmXmXmXz B S Z v 4 6 8 8 2 4 8 2 4 6 6 4 4 < O 4 C 4.4.9.mXmXmX9   mXmXmXmXmXmXmXmXmXmXmXmXmXmXmXmXmXmXmX",
"mXmXmXmXmXmXmXmXmXmXo v 4.D 4 4 2 2 2 8 < < 2 1 2 < O , 1 o X z Z 2.2.0.q.mXmX2   mXmXmXmXmXmXmXmXmXmXmXmXmXmXmXmXmXmXmX",
"mXmXmXmXmXmXmXmXmXmXo A S x 1 4 3 < 2 2 2 4 2 @ o o o   #   o 9 A 1.6.0.9.mXmX1   mXmXmXmXmXmXmXmXmXmXmXmXmXmXmXmXmXmXmX",
"mXmXmXmXmXmXmXmXmXmX, Z Z z 1 1 + @ 2 o o o @ 2 mXmXmXmXmX  o 4 A 6.6.0.0.mXmX1   mXmXmXmXmXmXmXmXmXmXmXmXmXmXmXmXmXmXmX",
"mXmXmXmXmXmXmXmXmXmXc 4 z m v 2 + 6 X # + mXmXmXmXmXmXmXmX  o 4 A 6.6.9.q.9.mX2   mXmXmXmXmXmXmXmXmXmXmXmXmXmXmXmXmXmXmX",
"mXmXmXmXmXmXmXmXmXmXmXmX@ v B 4 @ = + o mXmXmXmXmXmXmXmXmX  o 4 A 2.2.S q.0.mX1   mXmXmXmXmXmXmXmXmXmXmXmXmXmXmXmXmXmXmX",
"mXmXmXmXmXmXmXmXmXmXmXmXmX, S m 1 6 2   mXmXmXmXmXmXmXmXmX  X O b S 6.1.8.w.mX3   mXmXmXmXmXmXmXmXmXmXmXmXmXmXmXmXmXmXmX",
"mXmXmXmXmXmXmXmXmXmXmXmXmX< D N i j J O mXmXmXmXmXmXmXmXmXmXmXo 3 V 1.1.9.w.mX3   mXmXmXmXmXmXmXmXmXmXmXmXmXmXmXmXmXmXmX",
"mXmXmXmXmXmXmXmXmXmXmXmXmXmXO K Q.:.k . mXmXmXmXmXmXmXmXmXmXmX  9 x C 5.9.e.mX3   mXmXmXmXmXmXmXmXmXmXmXmXmXmXmXmXmXmXmX",
"mXmXmXmXmXmXmXmXmXmXmXmXmXmX  I kXp.t . mXmXmXmXmXmXmXmXmXmXmXo 1 b 5.5.8.9.8.3   mXmX                                mX",
"mXmXmXmXmXmXmXmXmXmXmXmXmXmXmXj :.;.K . mXmXmXmXmXmXmXmXmXmXmX  2 n H 2.2.6.7.9 o 0 U X.X.o.o.o...o.o.o...}  ...-.h X mX",
"mXmXmXmXmXmXmXmXmXmXmXmXmXmXmXmXX L K . mXmXmXmXmXmXmXmXmXmXmX1 1 4 Z S 6.2.7.9 o +  .~._.).(.fX(././.^././.hXzXzXi.= mX",
"mXmXmXmXmXmXmXmXmXmXmXmXmXmXmXmXX P L . mXmXmXmXmXmXmXmXmXmXmXmX+ < n A 2.2.9.A 2 T T s { O.O.| ] p : > i } E.hXcXp.+ mX",
"mXmXmXmXmXmXmXmXmXmXmXmXmXmXmXmX$ L L . mXmXmXmXmXmXmXmXmXmXmXmXo o 4 A 5.2.7.7.7.7.S n 0 7 = 6 w mXmXmXmX= ^ >.jXi.= mX",
"mXmXmXmXmXmXmXmXmXmXmXmXmXmXmX= o.O.f . mXmXmXmXmXmXmXmXmXmXmXmX  o 4 m Z C H 5.5.v c b , mXmXmXmXmXmXmXmXmX7 a u.u.{ s ",
"mXmXmXmXmXmXmXmXmXmXmXmXmXmXr ] E.@.] . mXmXmXmXmXmXmXmXmXmXmXmX  o 2 2 b V H Z z 4 ,   mXmXmXmXmXmXmXmXmXmXmX@ t O.mX> ",
"mXmXmXmXmXmXmXmXmXmXmXmXmX= O.>.+.+.L $ mXmXmXmXmXmXmXmXmXmXmXmX+ + o 2 1 4 v b 4 mXmXmXmXmXmXmXmXmXmXmXmXmXmXmX& +.a.- ",
"mXmXmXmXmXmXmXmXmXmXo   % mX[ [ [ O.F . mXmXmXmXmXmXmXmXmXmXmXmXmX+ o o o + O w mXmXmXmXmXmXmXmXmXmXmXmXmXmXmXX K +.+.- ",
"mXmXmXmXmXmXmXmXmXmX    mXmXmX] ] ' a   mXmXmXmXmXmXmXmXmXmXmXmXmXmX          mXmXmXmXmXmXmXmXmXmXmXmXmXmXmXmX# G ] F * ",
"mXmXmXmXmXmXmXmXmXmXmXmXmXmXmXmXmXmXmXmXmXmXmXmXmXmXmXmXmXmXmXmXmXmXmXmXmXmXmXmXmXmXmXmXmXmXmXmXmXmXmXmXmXmXmXmXmXmXmXmX"
};
