/* XPM */
static char *result[] = {
/* columns rows colors chars-per-pixel */
"60 60 235 2 ",
"   c #030203",
".  c #0B0505",
"X  c #0C0906",
"o  c #04050A",
"O  c #0A060A",
"+  c #06080C",
"@  c #0B0A0B",
"#  c #050805",
"$  c #110606",
"%  c #130906",
"&  c #120709",
"*  c #130B0C",
"=  c #1B0D0C",
"-  c #1E0806",
";  c #15110D",
":  c #1D140E",
">  c #1B1407",
",  c #050612",
"<  c #0D0712",
"1  c #060A13",
"2  c #0B0C14",
"3  c #0B0C1A",
"4  c #040B1D",
"5  c #140D12",
"6  c #1C0E11",
"7  c #0E131D",
"8  c #0C1112",
"9  c #141112",
"0  c #1C1213",
"q  c #19161A",
"w  c #260C05",
"e  c #24120D",
"r  c #2B120B",
"t  c #291B09",
"y  c #351C0A",
"u  c #230E13",
"i  c #2F0F17",
"p  c #241215",
"a  c #2B1215",
"s  c #251B13",
"d  c #251519",
"f  c #2C141A",
"g  c #251B1C",
"h  c #2D1A1B",
"j  c #2A1916",
"k  c #31141B",
"l  c #30191C",
"z  c #351617",
"x  c #300F18",
"c  c #282409",
"v  c #3A290C",
"b  c #37220A",
"n  c #2E2617",
"m  c #382618",
"M  c #3F3317",
"N  c #0C0D24",
"B  c #0C0F29",
"V  c #0C1125",
"C  c #0D132B",
"Z  c #0A1528",
"A  c #141829",
"S  c #0E1935",
"D  c #0D1737",
"F  c #121B35",
"G  c #121C3C",
"H  c #12173B",
"J  c #341C22",
"K  c #1A233A",
"L  c #13212F",
"P  c #2C2323",
"I  c #332225",
"U  c #3B2C24",
"Y  c #372826",
"T  c #372F2F",
"R  c #401911",
"E  c #41220E",
"W  c #48350A",
"Q  c #482815",
"!  c #592A17",
"~  c #483716",
"^  c #573B15",
"/  c #502B0F",
"(  c #613811",
")  c #77391A",
"_  c #541D21",
"`  c #4A2C24",
"'  c #462C28",
"]  c #552B2A",
"[  c #49352C",
"{  c #56332D",
"}  c #4B3A33",
"|  c #493536",
" . c #553B34",
".. c #633B34",
"X. c #5C4B18",
"o. c #574512",
"O. c #5F420A",
"+. c #634B12",
"@. c #6B4619",
"#. c #7A4615",
"$. c #6A551D",
"%. c #78581A",
"&. c #724D0E",
"*. c #79610C",
"=. c #7C661A",
"-. c #58463A",
";. c #4F4037",
":. c #664739",
">. c #6A5A3D",
",. c #74592E",
"<. c #786624",
"1. c #0D1D43",
"2. c #121D44",
"3. c #131C49",
"4. c #0E2146",
"5. c #112246",
"6. c #12244B",
"7. c #182948",
"8. c #283551",
"9. c #5A4A43",
"0. c #524340",
"q. c #664E43",
"w. c #744C47",
"e. c #6B5547",
"r. c #745948",
"t. c #685B57",
"y. c #755F55",
"u. c #786447",
"i. c #786253",
"p. c #87491B",
"a. c #87561A",
"s. c #975618",
"d. c #BA531E",
"f. c #856A15",
"g. c #866A19",
"h. c #876719",
"j. c #897117",
"k. c #977816",
"l. c #927117",
"z. c #A2771D",
"x. c #974322",
"c. c #93512C",
"v. c #B85627",
"b. c #A75129",
"n. c #917722",
"m. c #866423",
"M. c #A86624",
"N. c #B66629",
"B. c #BA7626",
"V. c #C47C1F",
"C. c #E5731D",
"Z. c #C95A27",
"A. c #C66828",
"S. c #D56B26",
"D. c #CA7727",
"F. c #DD7C2B",
"G. c #F17E29",
"H. c #EF7C2C",
"J. c #835A4A",
"K. c #905A51",
"L. c #876854",
"P. c #956C5D",
"I. c #9C775F",
"U. c #82604F",
"Y. c #987A65",
"T. c #8B7262",
"R. c #A37E64",
"E. c #AB7D68",
"W. c #A87F72",
"Q. c #AF8919",
"!. c #9C8124",
"~. c #A98C23",
"^. c #B58F25",
"/. c #B99425",
"(. c #C59A19",
"). c #D59A1D",
"_. c #EA811D",
"`. c #C5A41D",
"'. c #DCB41F",
"]. c #E9BB1B",
"[. c #FBB61E",
"{. c #EDA81D",
"}. c #CB8127",
"|. c #D98A29",
" X c #C99228",
".X c #D59328",
"XX c #CA9D32",
"oX c #E98828",
"OX c #F88B2B",
"+X c #E89828",
"@X c #F69626",
"#X c #FB8833",
"$X c #F49831",
"%X c #C8A724",
"&X c #D3A728",
"*X c #DAB32A",
"=X c #CFA935",
"-X c #E8A928",
";X c #F4AC22",
":X c #F8A727",
">X c #ECBC24",
",X c #E5B82B",
"<X c #F3BC24",
"1X c #F7B828",
"2X c #ECB532",
"3X c #EEAC30",
"4X c #ECC41E",
"5X c #F4C31C",
"6X c #FBC61D",
"7X c #FDC91D",
"8X c #F8C819",
"9X c #ECC327",
"0X c #F5C324",
"qX c #FCC523",
"wX c #FBC922",
"eX c #FCC42A",
"rX c #FBCA29",
"tX c #F4C726",
"yX c #F7C830",
"uX c #9E805E",
"iX c #A2815A",
"pX c #AB8A6B",
"aX c #A88768",
"sX c #A98872",
"dX c #B88D72",
"fX c #BC9577",
"gX c #BE9873",
"hX c #BA977A",
"jX c #B2946D",
"kX c #C39574",
"lX c #C19979",
"zX c #BC9682",
"xX c #AD9182",
"cX c #B6A298",
"vX c None",
/* pixels */
"vXvXvXvXvXvXvXvXvXvXvXvXvXvXvXvXvXvXvXvXvXvXvXvXvXvXvXvXvXvXvXvXvXvXvXvXvXvXvXvXvXvXvXvXvXvXvXvXvXvXvXvXvXvXvXvXvXvXvXvX",
"vXvXvXvXvXvXvXvXvXvXvXvXvXvXvXvXvXvXvXvXvXvXvXvXvXvXvX          vXvXvXvXvXvXvXvXvXvXvXvXvXvXvXvXvXvXvXvXvXvXvXvXvXvXvXvX",
"vXvXvXvXvXvXvXvXvXvXvXvXvXvXvXvXvXvXvXvXvXvXvXvXvXvX@ @ = = = O o vXvXvXvXvXvXvXvXvXvXvXvXvXvXvXvXvXvXvXvXvXvXvXvXvXvXvX",
"vXvX& 6 vXvXvXvXvXvXvXvXvXvXvXvXvXvXvXvXvXvXvXvXvXvX5 d h f h f 0 . vXvXvXvXvXvXvXvXvXvXvXvXvXvXvXvXvXvXvXvXvXvXvXvXvXvX",
"  . u 6 vXvXvXvXvXvXvXvXvXvXvXvXvXvXvXvXvXvXvXvXvX5 l f f i f k f =   vXvXvXvXvXvXvXvXvXvXvXvXvXvXvXvXvXvXvXvXvXvXvXvXvX",
"  . i = vXvXvXvXvXvXvXvXvXvXvXvXvXvXvXvXvXvXvXvXvXY e.0 & = i f f =   vXvXvXvXvXvXvXvXvXvXvXvXvXvXvXvXvXvXvXvXvXvXvXvXvX",
"  . u & vXvXvXvXvXvXvXvXvXvXvXvXvXvXvXvXvXvXvXvXvX} sXt.t.9.f d h 6 . vXvXvXvXvXvXvXvXvXvXvXvXvXvXvXvXvXvXvXvXvXvXvXvXvX",
"  . p . vXvXvXvXvXvXvXvXvXvXvXvXvXvXvXvXvXvXvXvXvX[ zXcXcXxX-.a d p   vXvXvXvXvXvXvXvXvXvXvXvXvXvXvXvXvXvXvXvXvXvXvXvXvX",
"  . p . vXvXvXvXvXvXvXvXvXvXvXvXvXvXvXvXvXvXvXvXvX} R.:.:.aXdX{ 0 5   vXvXvXvXvXvXvXvXvXvXvXvXvXvXvXvXvXvXvXvXvXvXvXvXvX",
"  . p . vX  vXvXvXvXvXvXvXvXvXvXvXvXvXvXvXvXvXvXvX} dXR.E.dXkXuX} @   vXvXvXvXvXvXvXvXvXvXvXvXvXvXvXvXvXvXvXvXvXvXvXvXvX",
"  X p O vX  o vXvXvXvXvXvXvXvXvXvXvXvXvXvXvXvXvXvXP w.J.jXgXfXhX-.# vXvXvXvXvXvXvXvXvXvXvXvXvXvXvXvXvXvXvXvXvXvXvXvXvXvX",
"  X p O vXO ; vXvXvXvXvXvXvXvXvXvXvXvXvXvXvXvXvXvX0 z ] L.dXhXY.-.Y vXvXvXvXvXvXvXvXvXvXvXvXvXvXvXvXvXvXvXvXvXvXvXvXvXvX",
"  . u & vX0 5 @ vXvXvXvXvXvXvXvXvXvXvXvXvXvXvXvXvX' ] _ { E.fX..e.r.h vXvXvXvXvXvXvXvXvXvXvXvXvXvXvXvXvXvXvXvXvXvXvXvXvX",
"  . u O vXd * o vXvXvXvXvXvXvXvXvXvXvXvXvXvXvXvXvXu R ] I.kXfXE.sXpXt.= # # # vXvXvXvXvXvXvXvXvXvXvXvXvXvXvXvXvXvXvXvXvX",
"  . u $ 6 k 6 & vXvXvXu $ vXvXvXvXvXvXvXvXvXvXvXO P U.P.pXe.aXgXzXkXjX9.s =.j.M o vXvXvXvXvXvXvXvXvXvXvXvXvXvXvXvXvXvXvX",
"  . 0 $ p x f 5 . vXvXk & vXvXvXvXvXvXvXvXvXvXvXvX' u.L.>.g 9.aXhXW.L.>.%.,XyXj.o.^ vXvXvXvXvXvXvXvXvXvXvXvXvXvXvXvXvXvX",
"  X p & 6 i J 5 @ vXvXf * vXvXvXvXvXvXvXvXvXvXvXvXvXX # ; c n u.aX>.v X.].<X<X0X9Xl.t vXvXvXvXvXvXvXvXvXvXvXvXvXvXvXvXvX",
"  O u & d x f k = @ vXvX6 * vXvXvXvXvXvXvXvXvXvXvXvXvX. t ~.%X$.g $.&X*X].+X+X<X6X>Xh.> vXvXvXvXvXvXvXvXvXvXvXvXvXvXvXvX",
"  . p u 5 i f k q 6 6 vX0 u = vXvXvXvXvXvXvXvXvXvXvXW !.Q.>X4Xo.X.`.qXwX1X3Xa.B.:X;X*X<.> vXvXvXvXvXvXvXvXvXvXvXvXvXvXvX",
"  . f g O u f f f f = @ 0 J u < vXvXvXvXvXvXvXvXvXW k.9X:XqX4X+.l.rXqX7X6X2Xa.p.D.@X6X=X+.vXvXvXvXvXvXvXvXvXvXvXvXvXvXvX",
". & f d = 6 f f x k p X p x J 6 * vXvXvXvXvXvXvXt =.4X-XD.;X0XX.f.7XwXwXeX1X{.) s.D.|.wX`.W vXvXvXvXvXvXvXvXvXvXvXvXvXvX",
"  X f k u * * 0 f k d & d x x d p q vXvXvXvXvXvX=.].;XD.~ D.2XX.f.qXwXwXrXeX<X+X) a #.@X<X&Xv vXvXvXvXvXvXvXvXvXvXvXvXvX",
"  @ u k f = # vXg a p : f J x f p d 5 vXvXvXvX%.&X1X}.^ m ( D.o.g.qXwX7XqXrX6X@X) & E p.3X0X^.M vXvXvXvXvXvXvXvXvXvXvXvX",
"vX5 6 f f u 9 vXvXa p d J J f g f q . vXvXvX@.(.1X.Xp.vXvXe N.( h.qX6XqXwXwX6X;XM./ : E s.;X2Xn.~ vXvXvXvXvXvXvXvXvXvXvX",
"vXvX@ 0 k f 0 @ vXp a d I g f f h 0 . vXvXW /.yX.Xp.- vXvX= N.( h.rX0XqX7X7X0X8X:X%.X vXy B.;X9X=.c vXvXvXvXvXvXvXvXvXvX",
"vXvX@ p f x k = @ vXp k k f l f k p . vXb  X<X$Xs.y vXvXvX= N.@.m.9XqXqX7X6XqX6X<Xf.  vXvXE D.-X,Xf.: vXvXvXvXvXvXvXvXvX",
"vXvXvXO a x z a = @ g d k | Y f 0 = vXy ~.1X;Xa.E vXvXvXvXw A..X$.k.6X6XwX0X7X6XqXf.  vXvXvXv ~ B.).=.= vXvXvXvXvXvXvXvX",
"vXvXvX. p k a f p 0 5 d d Y J p * o n n.].;XM.v vXvXvXvXvXw S.1X*.*.wX0XqXeX7XqXrXf.  vXvXvX= $. X:Xh.  vXvXvXvXvXvXvXvX",
"vXvXvX@ 0 a a x f f * vXg f d = . vXc ~.-X^.! vXvXvXvXvXvXw S.;Xk.<.XXrXqXeX6X6XqXf.  vXvXvXe  X1X|.@.vXvXvXvXvXvXvXvXvX",
"vXvXvXvXX 0 a f k k p @ P I g 5 o vX9 Q N./ vXvXvXvXvXvXvXy A.oX3Xn.@.0X6XqX7XqXrXf.. vXvXvXc /.+X#.w vXvXvXvXvXvXvXvXvX",
"vXvXvXvXvX* 9 h k z a a l f 5 @ vXm T.i.m vXvXvXvXvXvXvXw N.oX#X[.k.o.<X6X0X6X6X5Xh.. vXvXs u.[ b t vXvXvXvXvXvXvXvXvXvX",
"vXvXvXvXvXvX* 6 k x r l Y q 2 vXvXm I. .n vXvXvXvXvXvXvXw A.OXOX:X%Xg.z.4X0XrXeX5Xf.. vXvXs T.P # vXvXvXvXvXvXvXvXvXvXvX",
"vXvXvXvXvXvXvX5 u k z h I 8 vXvXvXh r.* vXvXvXvXvXvXvXvX! d.H.@X@X1XQ.W ].0XrXrXwXh.. vXs [ q.P vXvXvXvXvXvXvXvXvXvXvXvX",
"vXvXvXvXvXvXvXvX6 a h f p = vXvXvXj q.% vXvXvXvXvXvXvXr b.Z.G.OX$X:Xk.&.].rX8X*X=X$.@ vXU t.n vXvXvXvXvXvXvXvXvXvXvXvXvX",
"vXvXvXvXvXvXvXvX9 * d P * vXvXvXvX=  .X vXvXvXvXvXvXvXr d.Z.G.#XOXs.+.&X0X5X<X*.v > o U L.h vXvXvXvXvXvXvXvXvXvXvXvXvXvX",
"vXvXvXvXvXvXvXvXvX< 9 p X vXvXvX$ vX; vXvXvXvXvXvXvXo r d.Z.S.H.@Xs.O.qXwXqXtX/.W |  .U L.= vXvXvXvXvXvXvXvXvXvXvXvXvXvX",
"vXvXvXvXvXvXvXvXvXvX@ 5 = vXvX* = $ X q vXvXvXvXvX7 N A ) d.Z.S._.s.o.;XrXqX5X/.,.L.Y.[ T @ vXvXvXvXvXvXvXvXvXvXvXvXvXvX",
"vXvXvXvXvXvXvXvXvXvXo . 9 vXX % vX.   # vXvXvX2 1 B K C u p.Z.Z.S.p.#.@X1X1X%X~ r.aXY. .. vXvXvXvXvXvXvXvXvXvXvXvXvXvXvX",
"vXvXvXvXvXvXvXvXvXvXvXvXvX. vX$ O vXvX  vX8 o B H G H V < w x.Z.) #.F.#X:X{.~ = r.>.s % vXvXvXvXvXvXvXvXvXvXvXvXvXvXvXvX",
"vXvXvXvXvXvXvXvXvXvXvXvXvX. . X vXvX# vX8 Z S 2.F B V 3 3 3 z x.! ! C.H.OX+Xm [ -.q @ vXvXvXvXvXvXvXvXvXvXvXvXvXvXvXvXvX",
"vXvXvXvXvXvXvXvXvXvXvXvXvXvX    vXvX  , V 2.2.S B 3 3 < 5 3 5 Q y ! A.G.F.s.s U U N 1 vXvXvXvXvXvXvXvXvXvXvXvXvXvXvXvXvX",
"vXvXvXvXvXvXvXvXvXvXvXvXvXvXvXvXvXvXvX, H 2.H B 3 < 5 5 3 3 3 + o R c.b.c.d 4 4 A vX3   vXvXvXvXvXvXvXvXvXvXvXvXvXvXvXvX",
"vXvXvXvXvXvXvXvXvXvXvXvXvXvXvXvXvXvXvX, H 2.D , < < 5 + + < 2 O o % = = : F 1.H G vX2   vXvXvXvXvXvXvXvXvXvXvXvXvXvXvXvX",
"vXvXvXvXvXvXvXvXvXvXvXvXvXvXvXvXvXvXvXo F 2.C , O O o o o o o     .   , 4 K 3.3.4.vX3   vXvXvXvXvXvXvXvXvXvXvXvXvXvXvXvX",
"vXvXvXvXvXvXvXvXvXvXvXvXvXvXvXvXvXvXvX7 V H V , O O < , vXvXvXvXvXvX# o 3 F 5.1.5.vX4   vXvXvXvXvXvXvXvXvXvXvXvXvXvXvXvX",
"vXvXvXvXvXvXvXvXvXvXvXvXvXvXvXvXvXvXvXvX1 V V B < O @ vXvXvXvXvXvXvXvXO 5 S 4.D 4.vX3   vXvXvXvXvXvXvXvXvXvXvXvXvXvXvXvX",
"vXvXvXvXvXvXvXvXvXvXvXvXvXvXvXvXvXvXvXvXvXo C D 7 @ @ vXvXvXvXvXvXvXvXvX+ N S 4.7.7.8 o vXvXvXvXvXvXvXvXvXvXvXvXvXvXvXvX",
"vXvXvXvXvXvXvXvXvXvXvXvXvXvXvXvXvXvXvXvXvXvX, , I ..h @ vXvXvXvXvXvXvXvX# 3 S 4.6.7.V 1 vXvXvXvXvXvXvXvXvXvXvXvXvXvXvXvX",
"vXvXvXvXvXvXvXvXvXvXvXvXvXvXvXvXvXvXvXvXvXvXvX  U K.Q X vXvXvXvXvXvXvXvX2 2 V G 1.4.L q 7 vXvXvXvXvXvXvXvXvXvXvXvXvXvXvX",
"vXvXvXvXvXvXvXvXvXvXvXvXvXvXvXvXvXvXvXvXvXvXvXvX= ..' a vXvXvXvXvXvXvXvXvXo 1 S 6.6.vX7 + vXvXvXvXvXvXvXvXvXvXvXvXvXvXvX",
"vXvXvXvXvXvXvXvXvXvXvXvXvXvXvXvXvXvXvXvXvXvXvXvXvXe r.] * vXvXvXvXvXvXvXvX  + C 6.6.7.7 + vX9 : : 0 q : 0 q 0 0 : 0 @ o ",
"vXvXvXvXvXvXvXvXvXvXvXvXvXvXvXvXvXvXvXvXvXvXvXvXvXj K.] % vXvXvXvXvXvXvXvXvX  3 D 6.7.A # 0 U.iXuXuXaXI.Y.Y.uXuXY.aX;.. ",
"vXvXvXvXvXvXvXvXvXvXvXvXvXvXvXvXvXvXvXvXvXvXvXvXvXg ` ` = vXvXvXvXvXvXvXvXvXo + H 1.7.F 3 T } aXlXlXzXT. .} -.pXkXkX-.o ",
"vXvXvXvXvXvXvXvXvXvXvXvXvXvXvXvXvXvXvXvXvXvXvXvXvXvX: ` j q vXvXvXvXvXvXvXvX8 + Z S 7.K K 8.A 9.sXY.i.0.@   : >.pXkX-.. ",
"vXvXvXvXvXvXvXvXvXvXvXvXvXvXvXvXvXvXvXvXvXvXvXvXvXvX. vX` 9 vXvXvXvXvXvXvXvXvXo < V D 7.8.6.K 7 q.} X * vXvXvX= e.dXr.j ",
"vXvXvXvXvXvXvXvXvXvXvXvXvXvXvXvXvXvXvXvXvXvXvXvXvXvX* J.` = vXvXvXvXvXvXvXvXvX  o 3 S 2.4.6.2.2 q q vXvXvXvXvXvX: r.pXr.",
"vXvXvXvXvXvXvXvXvXvXvXvXvXvXvXvXvXvXvXvXvXvXvXvXvX=  ...' & vXvXvXvXvXvXvXvXvXvXo o 2 S 2.G V < vXvXvXvXvXvXvXvXvX: L.i.",
"vXvXvXvXvXvXvXvXvXvXvXvXvXvXvXvXvXvXvXvXvXvXvXvX= U w.{ ' = vXvXvXvXvXvXvXvXvXvXvXo # 5 V B 3 vXvXvXvXvXvXvXvXvXvXz L.U.",
"vXvXvXvXvXvXvXvXvXvXvXvXvXvXvXvXvXvXvXvXvXvXvX  5 ' ] ] ' = vXvXvXvXvXvXvXvXvXvXvXvXo   o , vXvXvXvXvXvXvXvXvXvX% vXvXvX",
"vXvXvXvXvXvXvXvXvXvXvXvXvXvXvXvXvXvXvXvXvXvXvXvXvXvXvXvXvXvXvXvXvXvXvXvXvXvXvXvXvXvXvXvXvXvXvXvXvXvXvXvXvXvXvXvXvXvXvXvX"
};
