/* XPM */
static char *result[] = {
/* columns rows colors chars-per-pixel */
"60 60 238 2 ",
"   c #030203",
".  c #0B0404",
"X  c #04050A",
"o  c #0A060B",
"O  c #050A0A",
"+  c #0B0A0C",
"@  c #0B0A04",
"#  c #130604",
"$  c #130906",
"%  c #1A0D06",
"&  c #110609",
"*  c #130B0B",
"=  c #1C0E0A",
"-  c #1A0604",
";  c #1D130C",
":  c #161109",
">  c #050613",
",  c #060913",
"<  c #0C0B13",
"1  c #0B0D1B",
"2  c #070919",
"3  c #130B15",
"4  c #1A0D13",
"5  c #130B18",
"6  c #0A1118",
"7  c #1D1415",
"8  c #161515",
"9  c #280D0B",
"0  c #2B1C06",
"q  c #25140B",
"w  c #251B0B",
"e  c #2A1709",
"r  c #331E0A",
"t  c #361807",
"y  c #290F14",
"u  c #251214",
"i  c #2D1B14",
"p  c #2C151B",
"a  c #221C1A",
"s  c #2B1B1C",
"d  c #2C1515",
"f  c #341C14",
"g  c #3B1C12",
"h  c #331B1B",
"j  c #372A09",
"k  c #2C241D",
"l  c #2D2717",
"z  c #3C2A13",
"x  c #31251E",
"c  c #36261D",
"v  c #3D3214",
"b  c #0A0D24",
"n  c #070F27",
"m  c #110F26",
"M  c #0E1225",
"N  c #0D132C",
"B  c #08132A",
"V  c #131728",
"C  c #0D1533",
"Z  c #0D1B3C",
"A  c #0F1832",
"S  c #131C3C",
"D  c #141A36",
"F  c #251E24",
"G  c #172335",
"H  c #2B2625",
"J  c #322622",
"K  c #3D2523",
"L  c #372B27",
"P  c #3E322C",
"I  c #2B2C35",
"U  c #49191B",
"Y  c #491B0B",
"T  c #57290E",
"R  c #43370A",
"E  c #4A2716",
"W  c #552B19",
"Q  c #483B16",
"!  c #593813",
"~  c #492A0A",
"^  c #642B17",
"/  c #653516",
"(  c #763C16",
")  c #541D22",
"_  c #432C25",
"`  c #472A27",
"'  c #522827",
"]  c #47352C",
"[  c #52332D",
"{  c #55312A",
"}  c #4B3C34",
"|  c #523E34",
" . c #633631",
".. c #6F3822",
"X. c #5C4509",
"o. c #554313",
"O. c #674A16",
"+. c #7A451C",
"@. c #6A561A",
"#. c #755716",
"$. c #6F530A",
"%. c #7A641A",
"&. c #59453A",
"*. c #45493B",
"=. c #6B4638",
"-. c #6F4F33",
";. c #796422",
":. c #0D1D43",
">. c #0F1C48",
",. c #121D43",
"<. c #131D49",
"1. c #0E2145",
"2. c #0F2048",
"3. c #112245",
"4. c #16274A",
"5. c #1C3150",
"6. c #232A46",
"7. c #2E354C",
"8. c #31405C",
"9. c #584944",
"0. c #634B42",
"q. c #644D49",
"w. c #685445",
"e. c #76574B",
"r. c #724B42",
"t. c #5A6056",
"y. c #7B6357",
"u. c #726247",
"i. c #8B3B1F",
"p. c #89461B",
"a. c #924D1C",
"s. c #89581B",
"d. c #985719",
"f. c #AE5D1C",
"g. c #896B1A",
"h. c #9A7A19",
"j. c #906216",
"k. c #A67A1E",
"l. c #B36B17",
"z. c #8A4A26",
"x. c #985426",
"c. c #915228",
"v. c #A95824",
"b. c #B55A25",
"n. c #AB4F28",
"m. c #896726",
"M. c #987727",
"N. c #907228",
"B. c #B66923",
"V. c #A27A22",
"C. c #B07021",
"Z. c #C95C1D",
"A. c #DA741F",
"S. c #E1671F",
"D. c #C85A29",
"F. c #C87626",
"G. c #D8722C",
"H. c #EA7629",
"J. c #855B4C",
"K. c #876455",
"L. c #99765B",
"P. c #916E52",
"I. c #946E61",
"U. c #977666",
"Y. c #8A6D66",
"T. c #A27B63",
"R. c #A26D63",
"E. c #998514",
"W. c #BA971A",
"Q. c #AE841A",
"!. c #BAA219",
"~. c #A78727",
"^. c #B49627",
"/. c #BDA224",
"(. c #C5841C",
"). c #FA9C1B",
"_. c #F4831A",
"`. c #C6A41D",
"'. c #F8B81C",
"]. c #ECAB1D",
"[. c #D88528",
"{. c #C69928",
"}. c #DA9825",
"|. c #C98D30",
" X c #EA8829",
".X c #F58C25",
"XX c #F78B2A",
"oX c #E89727",
"OX c #F79728",
"+X c #FB8833",
"@X c #F99330",
"#X c #EC8231",
"$X c #CAA525",
"%X c #D1AB23",
"&X c #D9A827",
"*X c #D8B328",
"=X c #D2A532",
"-X c #E6AB24",
";X c #F3AC2B",
":X c #F7AC24",
">X c #E7B728",
",X c #F2BD23",
"<X c #FBB829",
"1X c #EFB734",
"2X c #EDC41D",
"3X c #E9C21A",
"4X c #F4C51D",
"5X c #FBC51C",
"6X c #FCC91E",
"7X c #F7C516",
"8X c #E9C229",
"9X c #F5C522",
"0X c #FCC523",
"qX c #F6C921",
"wX c #FCC922",
"eX c #FDC32B",
"rX c #FACA2B",
"tX c #F5CB2B",
"yX c #F9C832",
"uX c #9B826D",
"iX c #9F8373",
"pX c #A4846B",
"aX c #A88567",
"sX c #B18B6A",
"dX c #BB8A6E",
"fX c #B4946A",
"gX c #AA8773",
"hX c #B58B74",
"jX c #BC9574",
"kX c #BA967A",
"lX c #AD926E",
"zX c #B68659",
"xX c #C39874",
"cX c #C2905B",
"vX c #B39683",
"bX c #BBA18E",
"nX c #B9ABA6",
"mX c None",
/* pixels */
"mXmXmXmXmXmXmXmXmXmXmXmXmXmXmXmXmXmXmXmXmXmXmXmXmXmXmXmXmXmXmXmXmXmXmXmXmXmXmXmXmXmXmXmXmXmXmXmXmXmXmXmXmXmXmXmXmXmXmXmX",
"mXmXmXmXmXmXmXmXmXmXmXmXmXmXo o & @ & + O + mXmXmXmXmXmXmXmXmXmXmXmXmXmXmXmXmXmXmXmXmXmXmXmXmXmXmXmXmXmXmXmXmXmXmXmXmXmX",
"mXmXmXmXmXmXmXmXmXmXmXmXmX+ 7 7 p d p s 7 4 . mXmXmXmXmXmXmXmXmXmXmXmXmXmXmXmXmXmXmXmXmXmXmXmXmXmXmXmXmXmXmXmXmXmXmXmXmX",
"mXmXmXmXmXmXmXmXmXmXmX  * u d s p y p h d u 4   mXmXmXmXmXmXmXmXmXmXmXmXmXmXmXmXmXmXmXmXmXmXmXmXmXmXmXmXmXmXmXmXmXmXmXmX",
"mXmXmXmXmXmXmXmXmXmXmX  J 9.i 4 u 9 y p p p 4   mXmXmXmXmXmXmXmXmXmXmXmXmXmXmXmXmXmXmXmXmXmXmXmXmXmXmXmXmXmXmXmXmXmXmXmX",
"mXmXmXmXmXmXmXmXmXmXmX  } gX&.L J J p y p p y # mXmXmXmXmXmXmXmXmXmXmXmXmXmXmXmXmXmXmXmXmXmXmXmXmXmXmXmXmXmXmXmXmXmXmXmX",
"mXmXmXmXmXmXmXmXmXmXmX  } vXbXnXnXvX| y p p u o mXmXmXmXmXmXmXmXmXmXmXmXmXmXmXmXmXmXmXmXmXmXmXmXmXmXmXmXmXmXmXmXmXmXmXmX",
"mXmXmXmXmXmXmXmXmXmXmX  | hXK.e.y.gXT.e.y 7 7 X mXmXmXmXmXmXmXmXmXmXmXmXmXmXmXmXmXmXmXmXmXmXmXmXmXmXmXmXmXmXmXmXmXmXmXmX",
"mXmXmXmXmXmXmXmXmXmXmX  | vXP.J.P.dXxXpXw.J o   mXmXmXmXmXmXmXmXmXmXmXmXmXmXmXmXmXmXmXmXmXmXmXmXmXmXmXmXmXmXmXmXmXmXmXmX",
"mXmXmXmXmXmXmXmXmXmXmX  P I.R.T.dXjXxXjXkX}   X mXmXmXmXmXmXmXmXmXmXmXmXmXmXmXmXmXmXmXmXmXmXmXmXmXmXmXmXmXmXmXmXmXmXmXmX",
"mXmXmXmXmXmXmXmXmXmXmXX 4 K U -.lXxXkXkXgX*.; mXmXmXmXmXmXmXmXmXmXmXmXmXmXmXmXmXmXmXmXmXmXmXmXmXmXmXmXmXmXmXmXmXmXmXmXmX",
"mXmXmXmXmXmXmXmXmXmXmXmX_ ' ) '  .gXxXU.{ w.w.7 mXmXmXmXmXmXmXmXmXmXmXmXmXmXmXmXmXmXmXmXmXmXmXmXmXmXmXmXmXmXmXmXmXmXmXmX",
"mXmXmXmXmXmXmXmXmXmXmXmXs U U  .J.dXxXaXe.U.pX0.L .   mXmXmXmXmXmXmXmXmXmXmXmXmXmXmXmXmXmXmXmXmXmXmXmXmXmXmXmXmXmXmXmXmX",
"mXmXmXmXmXmXmXmXmXmXmXO u [  .K.jXL.sXjXxXvXfXkXq.a @ j R R mXmXmXmXmXmXmXmXmXmXmXmXmXmXmXmXmXmXmXmXmXmXmXmXmXmXmXmXmXmX",
"mXmXmXmXmXmXmXmXmXmXmX+ ] uXaXaXP.J q.lXkXkXkXhXgXw.z ^.8X&XQ : w mXmXmXmXmXmXmXmXmXmXmXmXmXmXmXmXmXmXmXmXmXmXmXmXmXmXmX",
"mXmXmXmXmXmXmXmXmXmXmXmXH k k x k 3 7 &.aXxXI.` H @.{.>XtX8X$X!.~.j mXmXmXmXmXmXmXmXmXmXmXmXmXmXmXmXmXmXmXmXmXmXmXmXmXmX",
"mXmXmXmXmXmXmXmXmXmXmXmXmXO     : @.g.%.=.&.@.%.g.~.4X].OX<X<XwX>XM.Q mXmXmXmXmXmXmXmXmXmXmXmXmXmXmXmXmXmXmXmXmXmXmXmXmX",
"mXmXmXmXmXmXmXmXmXmXmXmXmXmXQ Q #.*XqX!.i l %.3XrXtX0X;X[.C.oX<X'.9XM.Q mXmXmXmXmXmXmXmXmXmXmXmXmXmXmXmXmXmXmXmXmXmXmXmX",
"mXmXmXmXmXmXmXmXmXmXmXmXmXR ^.8X>X4X2X!.g E.8XeXrX6X'.yX~.R B..X@X:XtX^.j mXmXmXmXmXmXmXmXmXmXmXmXmXmXmXmXmXmXmXmXmXmXmX",
"mXmXmXmXmXmXmXmXmXmXmX  X.$X8X7X,X4X6X`.w E.6XeX6XwXwXeX&Xl.W a.oXXX,X2X`.X.. mXmXmXmXmXmXmXmXmXmXmXmXmXmXmXmXmXmXmXmXmX",
"mXmXmXmXmXmXmXmXmXmXmX. O.'.:XQ.m.}.<X$X7 h.5XwX6X0XwXeX<X-Xv.p.+.+.F.<X8XW.#.@ mXmXmXmXmXmXmXmXmXmXmXmXmXmXmXmXmXmXmXmX",
"mXmXmXmXmXmXmXmXmXmXmXo.h.'.).a.e d.}.|.w h.0XwXwXwXeXeX0X9X@Xz.. % +.B.;XrX`.o.mXmXmXmXmXmXmXmXmXmXmXmXmXmXmXmXmXmXmXmX",
"mXmXmXmXmXmXmXmXmXmX; ~.,X>X{.z.; w d.F.; E.0X9XwX5XwXwX6X'.OXc.e z e ~ F.;X,X1XO.w mXmXmXmXmXmXmXmXmXmXmXmXmXmXmXmXmXmX",
"mXmXmXmXmXmXmXmXmXmXq !.'. X/ ] *.: a.F.q k.0X4X0XwXwX6X5X4X,XoXx.r * mXY C.;X,X*XN.: mXmXmXmXmXmXmXmXmXmXmXmXmXmXmXmXmX",
"mXmXmXmXmXmXmXmXmXR E.}.OXG.g H t.4 c.F.q V.tX4X0X0X6X5X5X0X4X'.{.w mXmXmXT v.].<X%Xh.j mXmXmXmXmXmXmXmXmXmXmXmXmXmXmXmX",
"mXmXmXmXmXmXmXmX  ! >XOXG.c.g a mX# x.[.O.m.$X4X0XwXwX6X9X0X5X0X%X0 mXmXmXmX! d.M.^.].j.o.mXmXmXmXmXmXmXmXmXmXmXmXmXmXmX",
"mXmXmXmXmXmXmXmXq ( H.[.c.e mXmXmX# x.@X>X@.O.'.5X6X0XeXqX5X0X0X%X0 mXmXmXmXmX: r #.oX-Xm.* mXmXmXmXmXmXmXmXmXmXmXmXmXmX",
"mXmXmXmXmXmXmX% N.&X#X/ u mXmXmXmX$ f.OX'.$.! >XyXwX0XeXqX5X0XwX%X0 mXmXmXmXmX; M.&X;X;Xs.  mXmXmXmXmXmXmXmXmXmXmXmXmXmX",
"mXmXmXmXmXmXz N.}.(.O.E mXmXmXmXmX# v..X].(.N.s.=XwX6XeXwX5X6X0X%X0 mXmXmXmXmX: ^.0XoXa.E mXmXmXmXmXmXmXmXmXmXmXmXmXmXmX",
"mXmXmXmXmX  z >XOXv.= mXmXmXmXmXmX/ B.XX X<X/.r ^.qX6X0X5X5X6X6X%X0 mXmXmXmXk } m.C.d.Y mXmXmXmXmXmXmXmXmXmXmXmXmXmXmXmX",
"mXmXmXmXmXr O.>XoXa.% mXmXmXmXmXt G..X+X+X'.$XQ k.>X9X4X0XwX0X7X$Xr mXmXmX  ` uXL @ @ mXmXmXmXmXmXmXmXmXmXmXmXmXmXmXmXmX",
"mXmXmXmX# m.*X3X@.e mXmXmXmXmXmXt b.H.XX.X:X>X$X$.j.4XqXeXrXyX5X%Xr mXmXmX$ v uXL O mXmXmXmXmXmXmXmXmXmXmXmXmXmXmXmXmXmX",
"mXmXmXmX. z g.&X!   mXmXmXmXmXW i.D.H.XX.XOX'.2X! X.7X4XrX6XtXyX=Xj mXmX* } &.P k mXmXmXmXmXmXmXmXmXmXmXmXmXmXmXmXmXmXmX",
"mXmXmX3 8 f E z.T mXmXmXmXmX  ^ D.D.H..XXX@X[.h.#.h.2X9XrX2XQ.M.%.; X a ] &.P @ mXmXmXmXmXmXmXmXmXmXmXmXmXmXmXmXmXmXmXmX",
"mXmX  & mXcX-.% mXmXmXmXmXmX. ^ S.D.A.H.+X@Xl.t Q.0X9X6XwX>XO.w * p * x gX[   mXmXmXmXmXmXmXmXmXmXmXmXmXmXmXmXmXmXmXmXmX",
"mXmX  . mXcXmX& mXmXmXmXmX> > W b.Z.D.S.H.XXl.9 Q.eXqX9X0X9X%X@.h U.| d Y.c   mXmXmXmXmXmXmXmXmXmXmXmXmXmXmXmXmXmXmXmXmX",
"mXmX  . mXE a mXmXmX  X 1 N N s ^ b.D.D.G._.B.u V.'.0XeX7X>X%.-.P.lXU._ & + mXmXmXmXmXmXmXmXmXmXmXmXmXmXmXmXmXmXmXmXmXmX",
"mXmX  . mX. o o mX6 6 M C 3.Z 1 4 ^ n.D.D.b.p.+.F.OX:X<X`.;.; 9.fXu.=.x   mXmXmXmXmXmXmXmXmXmXmXmXmXmXmXmXmXmXmXmXmXmXmX",
"mXmX7 i mX+ & o 2 n Z ,.S C B b < & W n.D.U T A.XX+X).:XM.# 4 =.u.8 $ @ mXmXmXmXmXmXmXmXmXmXmXmXmXmXmXmXmXmXmXmXmXmXmXmX",
"  + k mXd + 1 D >.<.,.b 5 1 1 < & 2 4 Y n.E c D.H.+X.XXXs.3 -.=.8 > 6 mXmXmXmXmXmXmXmXmXmXmXmXmXmXmXmXmXmXmXmXmXmXmXmXmX",
"  . = mX& b S 3.:.S m b 5 5 5 5 < 1 1 7 h = g n.D.H.[.p.f > 7 H V M ,   mXmXmXmXmXmXmXmXmXmXmXmXmXmXmXmXmXmXmXmXmXmXmXmX",
"  o = q o C >.:.D b 1 2 3 3 5 o < < 6 o X X 9 / ..i.-.i n n M N mXmX,   mXmXmXmXmXmXmXmXmXmXmXmXmXmXmXmXmXmXmXmXmXmXmXmX",
"    # - o C >.,.C b > o o o o X + + + o   X . # @ + < A 3.,.,.Z mXmX>   mXmXmXmXmXmXmXmXmXmXmXmXmXmXmXmXmXmXmXmXmXmXmXmX",
"  . & mXo B :.,.N > X   o X X X   O   O   X     X O 2 D ,.<.:.:.mXmX>   mXmXmXmXmXmXmXmXmXmXmXmXmXmXmXmXmXmXmXmXmXmXmXmX",
"  . - mX. 2 N D M > o o o o O mXmXmXmXmXmXmXmXmXX X < A 1.1.:.1.mXmX2   mXmXmXmXmXmXmXmXmXmXmXmXmXmXmXmXmXmXmXmXmXmXmXmX",
"    - mX  X > 1 b C m , X   mXmXmXmXmXmXmXmXmXmXmX. * V Z 1.Z 1.mXmX>   mXmXmXmXmXmXmXmXmXmXmXmXmXmXmXmXmXmXmXmXmXmXmXmX",
"  . % mX. mXmXX m ,.C H s 3 mXmXmXmXmXmXmXmXmXmXmXmX  1 N :.:.4.5.mX2   mXmXmXmXmXmXmXmXmXmXmXmXmXmXmXmXmXmXmXmXmXmXmXmX",
"    . = mXmXmXmXX > 5 K.K.K : mXmXmXmXmXmXmXmXmXmXmXX > M Z :.3.4.G 6 < mXmXmXmXmXmXmXmXmXmXmXmXmXmXmXmXmXmXmXmXmXmXmXmX",
"mXmX.   + mXmXmXmXO # I.R.` : X mXmXmXmXmXmXmXmXmXmXmX> > M S 2.1.mXG 8 6 mXmXmXmXmXmXmXmXmXmXmXmXmXmXmXmXmXmXmXmXmXmXmX",
"mXmXmXmXmXmXmXmXmXmX& _ r.e.K u mXmXmXmXmXmXmXmXmXmXmXX O 1 D 3.1.4.mX6 O mXmX                          mXmXmXmXmXmXmXmX",
"mXmXmXmXmXmXmXmXmXmXmX  ] gX .K   mXmXmXmXmXmXmXmXmXmX    , M >.2.4.4.V X + k k x x l x x x x x k J x J x J a O mXmXmXmX",
"mXmXmXmXmXmXmXmXmXmXmXO _ I.=.U   mXmXmXmXmXmXmXmXmXmXmXmXO 1 C 2.2.5.G + O L I.zXsXaXsXsXsXaXpXpXuXpXsXsXsXy.* mXmXmXmX",
"mXmXmXmXmXmXmXmXmXmXmXmXa c { h & mXmXmXmXmXmXmXmXmXmXmXmXO > C ,.:.7.6.2 I 7.] uXkXkXbXvXiX} c x P K.xXxXxXK.+ mXmXmXmX",
"mXmXmXmXmXmXmXmXmXmXmXmXmX@ [ [ s 7 mXmXmXmXmXmXmXmXmXmXmX< O 1 A Z 5.6.I 5.6.V P K.kXu.9.9.J + @ + ] e.dXxXy.. mXmXmXmX",
"mXmXmXmXmXmXmXmXmXmXmXmXmX@ r.J._ * mXmXmXmXmXmXmXmXmXmXmXmX  > b N D 4.8.5.:.S < L y.J   @ mXmXmXmXmXi e.hXU.c mXmXmXmX",
"mXmXmXmXmXmXmXmXmXmXmXmXmX= K.J._ & mXmXmXmXmXmXmXmXmXmXmXmX    + b A ,.1.2.<.S 1 + 8 mXmXmXmXmXmXmXmXmX: 0.sXT.K mXmXmX",
"mXmXmXmXmXmXmXmXmXmXmX. s e.r. ._ & mXmXmXmXmXmXmXmXmXmXmXmXmXO O X 1 m S S D 1 < mXmXmXmXmXmXmXmXmXmXmXmX* &.T.c mXmXmX",
"mXmXmXmXmXmXmXmXmX  + 7 [ e. .' ` # mXmXmXmXmXmXmXmXmXmXmXmXmXmXO O + < b b m 5 mXmXmXmXmXmXmXmXmXmXmXmXmXe -.T.g mXmXmX",
"mXmXmXmXmXmXmXmXmX  O u ` [ ' [ _ & mXmXmXmXmXmXmXmXmXmXmXmXmXmXmXO     X X 1 mXmXmXmXmXmXmXmXmXmXmXmXmX@ mXmXmXmXmXmXmX",
"mXmXmXmXmXmXmXmXmXmXmXmXmXmXmXmXmXmXmXmXmXmXmXmXmXmXmXmXmXmXmXmXmXmXmXmXmXmXmXmXmXmXmXmXmXmXmXmXmXmXmXmXmXmXmXmXmXmXmXmX"
};
