/* XPM */
static char *result[] = {
/* columns rows colors chars-per-pixel */
"60 60 227 2 ",
"   c #030203",
".  c #0A0403",
"X  c #0C0A05",
"o  c #04040A",
"O  c #0A060B",
"+  c #04090D",
"@  c #0B0B0D",
"#  c #110504",
"$  c #140A06",
"%  c #1C0C07",
"&  c #13060A",
"*  c #130B0B",
"=  c #1D0C0B",
"-  c #1A140C",
";  c #050612",
":  c #0A0611",
">  c #060A14",
",  c #0C0A14",
"<  c #0C0C1A",
"1  c #08081B",
"2  c #1D0E11",
"3  c #110B15",
"4  c #0C111C",
"5  c #1B1213",
"6  c #12151B",
"7  c #1A1517",
"8  c #240E0C",
"9  c #2D1B06",
"0  c #291709",
"q  c #31140C",
"w  c #33190D",
"e  c #3B1B0C",
"r  c #341D05",
"t  c #250E14",
"y  c #231414",
"u  c #2A1414",
"i  c #231B15",
"p  c #241518",
"a  c #2D151B",
"s  c #241A1B",
"d  c #2B1C19",
"f  c #2B1B15",
"g  c #331C1C",
"h  c #351717",
"j  c #310E07",
"k  c #2A2409",
"l  c #33240C",
"z  c #39290D",
"x  c #2D221E",
"c  c #34221B",
"v  c #342716",
"b  c #3B3316",
"n  c #0B0E23",
"m  c #080E29",
"M  c #0D1224",
"N  c #0D132B",
"B  c #121424",
"V  c #11152D",
"C  c #151C2C",
"Z  c #0C1533",
"A  c #0E193C",
"S  c #091732",
"D  c #131A34",
"F  c #131C3B",
"G  c #131637",
"H  c #110F26",
"J  c #281E23",
"K  c #18243A",
"L  c #2E2522",
"P  c #3B2E25",
"I  c #362824",
"U  c #3E3226",
"Y  c #3E3028",
"T  c #242739",
"R  c #25323B",
"E  c #501A1A",
"W  c #432412",
"Q  c #482314",
"!  c #55241B",
"~  c #593315",
"^  c #4A3610",
"/  c #652E17",
"(  c #683516",
")  c #743419",
"_  c #642D0F",
"`  c #452A28",
"'  c #582C25",
"]  c #44332A",
"[  c #563728",
"{  c #4D3833",
"}  c #5D3E35",
"|  c #573834",
" . c #623C33",
".. c #663B2B",
"X. c #554718",
"o. c #744B1A",
"O. c #796419",
"+. c #574538",
"@. c #67453A",
"#. c #78553F",
"$. c #6B5435",
"%. c #796421",
"&. c #0E1C43",
"*. c #121E44",
"=. c #131E47",
"-. c #122145",
";. c #11214A",
":. c #1C2A49",
">. c #222E49",
",. c #28364D",
"<. c #2A3652",
"1. c #263555",
"2. c #313E59",
"3. c #303F60",
"4. c #34435B",
"5. c #3B4B65",
"6. c #614B42",
"7. c #734C43",
"8. c #6A5247",
"9. c #78584A",
"0. c #735851",
"q. c #635550",
"w. c #7C634A",
"e. c #7B6156",
"r. c #414E61",
"t. c #55464A",
"y. c #883A1A",
"u. c #86450F",
"i. c #824414",
"p. c #93591C",
"a. c #B84D16",
"s. c #AE5F1B",
"d. c #856A1A",
"f. c #9C781D",
"g. c #976418",
"h. c #B8661D",
"j. c #AE7614",
"k. c #854428",
"l. c #9B492D",
"z. c #995723",
"x. c #8E5626",
"c. c #A05226",
"v. c #B95825",
"b. c #BC4923",
"n. c #826526",
"m. c #8D7524",
"M. c #AE6424",
"N. c #B66825",
"B. c #AE702D",
"V. c #D06D1E",
"C. c #E17F1D",
"Z. c #CB7828",
"A. c #D87432",
"S. c #DA6F2F",
"D. c #E96E22",
"F. c #856A5B",
"G. c #866454",
"H. c #867157",
"J. c #99775A",
"K. c #8B6851",
"L. c #8A7265",
"P. c #997A67",
"I. c #826863",
"U. c #A47D67",
"Y. c #9D8419",
"T. c #AE8C1B",
"R. c #B6961B",
"E. c #9E8D20",
"W. c #AB872A",
"Q. c #B68B28",
"!. c #D78E18",
"~. c #F0921D",
"^. c #CEA81B",
"/. c #D4A61A",
"(. c #D6AC19",
"). c #D4B01A",
"_. c #FCBC1C",
"`. c #F4BD1C",
"'. c #F0B61D",
"]. c #CC9828",
"[. c #D68A26",
"{. c #EB8529",
"}. c #F9892A",
"|. c #E8942D",
" X c #FB9425",
".X c #F7972A",
"XX c #F69932",
"oX c #F09431",
"OX c #CFA623",
"+X c #CBAB23",
"@X c #D2A424",
"#X c #D7AB27",
"$X c #CFAD2E",
"%X c #EAA922",
"&X c #FBAD25",
"*X c #FDAD2C",
"=X c #F6A827",
"-X c #E4B726",
";X c #FDBE2B",
":X c #FAB527",
">X c #F6AF32",
",X c #F4C51E",
"<X c #FCC51C",
"1X c #F6C91C",
"2X c #F9CA1D",
"3X c #F9C913",
"4X c #FEC422",
"5X c #FACA23",
"6X c #FDC42A",
"7X c #F6C627",
"8X c #AA875F",
"9X c #9C8276",
"0X c #A58164",
"qX c #A98368",
"wX c #BC926B",
"eX c #A78572",
"rX c #B88B75",
"tX c #BC9375",
"yX c #BB967B",
"uX c #BB987D",
"iX c #B38C6D",
"pX c #C09776",
"aX c #C18C70",
"sX c #9D8B84",
"dX c #A49A98",
"fX c #BB9C89",
"gX c None",
/* pixels */
"gXgXgXgXgXgXgXgXgXgXgXgXgXgXgXgXgXgXgXgXgXgXgXgXgXgXgXgXgXgXgXgXgXgXgXgXgXgXgXgXgXgXgXgXgXgXgXgXgXgXgXgXgXgXgXgXgXgXgXgX",
"gXgXgXgXgXgXgXgXgXgXgXgXgXgXgXgXgXgXgXgXgXgXgXgXgXgXO   .       . gXgXgXgXgXgXgXgXgXgXgXgXgXgXgXgXgXgXgXgXgXgXgXgXgXgXgX",
"gXgXgXgXgXgXgXgXgXgXgXgXgXgXgXgXgXgXgXgXgXgXgXgXgX@ - 2 t 8 t 2 5 O gXgXgXgXgXgXgXgXgXgXgXgXgXgXgXgXgXgXgXgXgXgXgXgXgXgX",
"gXgXgXgXgXgXgXgXgXgXgXgXgXgXgXgXgXgXgXgXgXgXgXgX3 - p a a a a g a % # gXgXgXgXgXgXgXgXgXgXgXgXgXgXgXgXgXgXgXgXgXgXgXgXgX",
"gXgXgXgXgXgXgXgXgXgXgXgXgXgXgXgXgXgXgXgXgXgXgX  3 p a t a t t a 8 ` g X gXgXgXgXgXgXgXgXgXgXgXgXgXgXgXgXgXgXgXgXgXgXgXgX",
"gXgXgXgXgXgXgXgXgXgXgXgXgXgXgXgXgXgXgXgXgXgXgX  & a h J t t 5 7 f G.e.$ gXgXgXgXgXgXgXgXgXgXgXgXgXgXgXgXgXgXgXgXgXgXgXgX",
"gXgXgXgXgXgXgXgXgXgXgXgXgXgXgXgXgXgXgXgXgXgXgX  & a d 7 f G.sXdXdXfXF.& gXgXgXgXgXgXgXgXgXgXgXgXgXgXgXgXgXgXgXgXgXgXgXgX",
"gXgXgXgXgXgXgXgXgXgXgXgXgXgXgXgXgXgXgXgXgXgXgX  & u = I w.rXsXe.L.eXF.$ gXgXgXgXgXgXgXgXgXgXgXgXgXgXgXgXgXgXgXgXgXgXgXgX",
"gXgXgXgXgXgXgXgXgXgXgXgXgXgXgXgXgXgXgXgXgXgXgX  . y P w.yXtXJ.#.7.U.F.$ gXgXgXgXgXgXgXgXgXgXgXgXgXgXgXgXgXgXgXgXgXgXgXgX",
"gXgXgXgXgXgXgXgXgXgXgXgXgXgXgXgXgXgXgXgXgXgXgXgX  * H.tXtXyXpXtXJ.U.0.= gXgXgXgXgXgXgXgXgXgXgXgXgXgXgXgXgXgXgXgXgXgXgXgX",
"gXgXgXgXgXgXgXgXgXgXgXgX* o   gXgXgXgXgXgXgXgXgXgX- F.rXtXuXwXJ.' ` c   gXgXgXgXgXgXgXgXgXgXgXgXgXgXgXgXgXgXgXgXgXgXgXgX",
"gXgXgXgXgXgXgXgXgXgXgXi q.L   gXgXgXgXgXgXgXgXgXgX, J 0.tXaXK.' / E ` gXgXgXgXgXgXgXgXgXgXgXgXgXgXgXgXgXgXgXgXgXgXgXgXgX",
"gXgXgXgXgXgXgXgXgXgX] 6.+.L gXgXgXgXgXgXgXgXgXgXL 8.8.H.uXuXP.@.' E h gXgXgXgXgXgXgXgXgXgXgXgXgXgXgXgXgXgXgXgXgXgXgXgXgX",
"gXgXgXgXgXgXgXgXgX. 8.0X- gXgXgXgXgXgXgXgXgXgX+ s 9.K.K.F.G.qXiX@.} ` . gXgXgXgXgXgXgXgXgXgXgXgXgXgXgXgXgXgXgXgXgXgXgXgX",
"gXgXgXgXgXgXgXgXgX. { e.* gXgXgXgXgXgXgXk k l c v v v k z l 8.9XJ.P.6.$ gXgXgXgXgXgXgXgXgXgXgXgXgXgXgXgXgXgXgXgXgXgXgXgX",
"gXgXgXgXgXgXgXgXgX@ 3 7 gXgXgXgXgXgXgX- %.$X(.#X).)./.@X/.$X%.v x f - $ gXgXgXgXgXgXgXgXgXgXgXgXgXgXgXgXgXgXgXgXgXgXgXgX",
"gXgXgXgXgXgXgXgXgX  o o gXgXgXgXgXgX5 f.#X6X<X4X2X4X&XXXXX>X].T.T.W.T.Y.b + # : +   gXgXgXgXgXgXgXgXgXgXgXgXgXgXgXgXgXgX",
"gXgXgXgXgXgXgXgXgX  x { 5 gXgXgXgXo k (.4X4X4X4X4X4X&X X}.}.XX*X&X*X&X=Xp.o.u.O.O.o.7 gXgXgXgXgXgXgXgXgXgXgXgXgXgXgXgXgX",
"gXgXgXgXgXgXgXgXgX. 6.eX] d gXgXb l k ^.4X4X4X<X4X7X6X&X{.V.M.N.h.h.h.N.Z.h.h.-X4X].X.^ ^ gXgXgXgXgXgXgXgXgXgXgXgXgXgXgX",
"gXgXgXgXgXgXgXgXgXX @.uXL.s . z Q.m.k +X4X4X4X4X4X<X4X>XZ._ w u % % % $ & $ r N.[.[.$X7XW.z 9 9 gXgXgXgXgXgXgXgXgXgXgXgX",
"gXgXgXgXgXgXgXgXgX  +.P.c @ ^ ].~.p.9 @X6X4X4X4X4X1X,X&X|.V.Z.g.j gXgXgXgXgXgXe e ~ [..X|.OX+X%.$ X gXgXgXgXgXgXgXgXgXgX",
"gXgXgXgXgXgXgXgXgXgXg X.f.Y.R.7X=Xz.9 /.4X4X4X4X4X4X3X:X*X Xs._ gXgXgXgXgXgXgXgXgXw ~ _ p.%X4XOXj.Y.X.gXgXgXgXgXgXgXgXgX",
"gXgXgXgXgXgXgXgXgXgXo W -X5X7X=XM.~ l (.4X4X4X4X4X4X2X<X6X Xu.  gXgXgXgXgXgXgXgXgXgXgX  W z.|._.-XE.$.b gXgXgXgXgXgXgXgX",
"gXgXgXgXgXgXgXgXgXgXgXz W.%X%XB.W . r (.4X4X4X4X4X4X2X<X;X Xu.. gXgXgXgXgXgXgXgXgXgXgXgXgXj x.Q.W.~ w.8XI gXgXgXgXgXgXgX",
"gXgXgXgXgXgXgXgXgXgXgXgXq z.M.r gXgX9 /.4X4X4X4X4X4X2X<X;X Xu.. gXgXgXgXgXgXgXgXgXgXgXgXgXgX% % v H.8XrXeX{ - gXgXgXgXgX",
"gXgXgXgXgXgXgXgXgXgXgXgXgXw e gXgX- k ).4X4X4X4X4X4X1X<X;X Xu.  gXgXgXgXgXgXgXgXgXgXgXgXgXgXgXgXgXv v +.iXqX8.* gXgXgXgX",
"gXgXgXgXgXgXgXgXgXgXgXgXgXgXgXgXgXgX9 +X4X4X4X4X4X4X4X1X;XXX) # gXgXgXgXgXgXgXgXgXgXgXgXgXgXgXgXgXgXgX7 +.P.I.#   gXgXgX",
"gXgXgXgXgXgXgXgXgXgXgXgXgXgXgXgXgXgX9 OX4X4X4X4X4X4X_.7X_. Xc.! gXgXgXgXgXgXgXgXgXgXgXgXgXgXgXgXgXgXgXgXB t.8.{ ] c gXgX",
"gXgXgXgXgXgXgXgXgXgXgXgXgXgXgXgXgXgX9 @X4X4X4X<X4X2X<X4X_. XA.k.8 gXgXgXgXgXgXgXgXgXgXgXgXgXgXgXgXgXgXgXgX5 L F.iX#.# gX",
"gXgXgXgXgXgXgXgXgXgXgXgXgXgXgXgXgXgX9 @X4X4X4X4X4X7X4X4X<X XA.l.% gXgXgXgXgXgXgXgXgXgXgXgXgXgXgXgXgXgXgXgXgXgXu K.0XgX  ",
"gXgXgXgXgXgXgXgXgXgXgXgXgXgXgXgXgXgX9 OX4X4X4X4X4X1X4X<X7X XS.l.% gXgXgXgXgXgXgXgXgXgXgXgXgXgXgXgXgXgXgXgXgXgXgXy I gX# ",
"gXgXgXgXgXgXgXgXgXgXgXgXgXgXgXgXgXgX9 $X5X<X;X2X4X1X2X6X7X XS.l.% gXgXgXgXgXgXgXgXgXgXgXgXgXgXgXgXgXgXgXgXgXgXgXgX  . . ",
"gXgXgXgXgXgXgXgXgXgXgXgXgXgXgXgXgXgXz m.^.2X4X2X4X,X2X;X=X Xv.) E j gXgXgXgXgXgXgXgXgXgXgXgXgXgXgXgXgXgXgXgXgXgXgXgX>   ",
"gXgXgXgXgXgXgXgXgXgXgXgXgXgXgXgXgXgXgX0 d.,X<X2X7X7X2X&XoX~.i.e c.W 1 gXgXgXgXgXgXgXgXgXgXgXgXgXgXgXgXgXgXgXgXgXgXgXgXo ",
"gXgXgXgXgXgXgXgXgXgXgXgXgXgXgXgXgXgXgX. n.7X<X4X4X1X3X&XoX}.) w a.Q , * gXgXgXgXgXgXgXgXgXgXgXgXgXgXgXgXgXgXgXgXgXgXgXgX",
"gXgXgXgXgXgXgXgXgXgXgXgXgXgXgXgXgXgXgX. d.1X<X6X7X<X=X X}.D./ q b.Q , Z >   o gXgXgXgXgXgXgXgXgXgXgXgXgXgXgXgXgXgXgXgXgX",
"gXgXgXgXgXgXgXgXgXgXgXgXgXgXgXgXgXgXgX. O.2X7X7X7X=XoX}.V.y./ _ ) J V =.V n M ; gXgXgXgXgXgXgXgXgXgXgXgXgXgXgXgXgXgXgXgX",
"gXgXgXgXgXgXgXgXgXgXgXgXgXgXgXgXgXgXgX. O.2X6X7X*X}.{.D.a.2 ) l.2 Z G G A F D n < < gXgXgXgXgXgXgXgXgXgXgXgXgXgXgXgXgXgX",
"gXgXgXgXgXgXgXgXgXgXgXgXgXgXgXgXgXgXgX. O.(.#X!.C.S.v.b.y.= / o.2 n 1 3 1 m D F F Z n + o gXgXgXgXgXgXgXgXgXgXgXgXgXgXgX",
"gXgXgXgXgXgXgXgXgXgXgXgXgXgXgXgXgXgXgXo s z z l w h g q 8 O 2 q O 1 1 3 3 1 B n Z *.A C M ; gXgXgXgXgXgXgXgXgXgXgXgXgXgX",
"gXgXgXgXgXgXgXgXgXgXgXgXgXgXgXgXgXgXgXo 7 K R R K S N N > : : > , , < < 3 , < < M N H F F B < gXgXgXgXgXgXgXgXgXgXgXgXgX",
"gXgXgXgXgXgXgXgXgXgXgXgXgXgXgXgXgXgXgX  6 ,.4.r.4.;.-.D > . O < , : < < , , , , , , < V G F N , gXgXgXgXgXgXgXgXgXgXgXgX",
"gXgXgXgXgXgXgXgXgXgXgXgXgXgXgXgXgXgXgX  6 gX<.4.5.&.-.N 1 o O @ O , , : , , < , , , 3 1 n F *.H   gXgXgXgXgXgXgXgXgXgXgX",
"gXgXgXgXgXgXgXgXgXgXgXgXgXgXgXgXgXgXgX  @ gX1.4.3.=.-.N >     o   o o O : , : , , , 3 : < m G M   gXgXgXgXgXgXgXgXgXgXgX",
"gXgXgXgXgXgXgXgXgXgXgXgXgXgXgXgXgXgXgX  > gX<.4.3.;.&.S , o O gXgXgXgXgX@ o o o o o O O , m G n o gXgXgXgXgXgXgXgXgXgXgX",
"gXgXgXgXgXgXgXgXgXgXgXgXgXgXgXgXgXgXgX  > >.2.,.:.;.*.S > o gXgXgXgXgXgXgXgX, @ o : : 3 4 V m < gXgXgXgXgXgXgXgXgXgXgXgX",
"gXgXgXgXgXgXgXgXgXgXgXgXgXgXgXgXgXgXgX  4 <.5.>.-.=.*.N ,   gXgXgXgXgXgXgXgXgX@ o 3 1 H B V < gXgXgXgXgXgXgXgXgXgXgXgXgX",
"gXgXgXgXgXgXgXgXgXgXgXgXgXgXgXgXgXgXgX  M 4.5.1.=.;.A B @ O gXgXgXgXgXgXgXgXgX  & * : D V o gXgXgXgXgXgXgXgXgXgXgXgXgXgX",
"gXgXgXgXgXgXgXgXgXgXgXgXgXgXgXgXgXgXgXo B 4.5.1.&.&.m 1 o gXgXgXgXgXgXgXgXgXgX  d I p B B ; gXgXgXgXgXgXgXgXgXgXgXgXgXgX",
"gXgXgXgXgXgXgXgXgXgXgXgXgXgXgXgXgXgXgXo B 4.5.1.&.*.m ;   gXgXgXgXgXgXgXgXgXgX  d  .8.p , gXgXgXgXgXgXgXgXgXgXgXgXgXgXgX",
"gXgXgX                            gXgX  M ,.,.:.=.A m O   gXgXgXgXgXgXgXgXgXgX  f @.U.y   gXgXgXgXgXgXgXgXgXgXgXgXgXgXgX",
"gXgX  s P U P P Y P P U P U U U I - gXo B :.K &.=.*.B ;   gXgXgXgXgXgXgXgXgXgX. g  . .* gXgXgXgXgXgXgXgXgXgXgXgXgXgXgXgX",
"gXgX. 9.yXrXqXqXP.P.P.U.U.U.U.qXJ.` @ o 6 ,.;.;.&.G n , @ gXgXgXgXgXgXgXgXgXgX  g ] : gXgXgXgXgXgXgXgXgXgXgXgXgXgXgXgXgX",
"gXgX. 0.yXrX9.U i i y c [ @...+.L T R 4 C ,.;.&.F m ; , gXgXgXgXgXgXgXgXgXgXgX  L ` . gXgXgXgXgXgXgXgXgXgXgXgXgXgXgXgXgX",
"gXgX$ 8.qX7.c $ gXgXgXs i = 8 t n K >.T :.:.;.K D M o   gXgXgXgXgXgXgXgXgXgXgX. g ` $ gXgXgXgXgXgXgXgXgXgXgXgXgXgXgXgXgX",
"gXs ` 7.6.g 2 gXgXgXgXgXgX    : n M N :.:.&.&.A M < o   gXgXgXgXgXgXgXgXgXgXgX. g [ ` y gXgXgXgXgXgXgXgXgXgXgXgXgXgXgXgX",
"  $ gX| d . gXgXgXgXgXgXgXgXgXgX    ; N D -.F N < ,     gXgXgXgXgXgXgXgXgXgXgX. h .. .t . gXgXgXgXgXgXgXgXgXgXgXgXgXgXgX",
". . gXg $ gXgXgXgXgXgXgXgXgXgXgXgXgXgX> B B < 3 > @ @ , gXgXgXgXgXgXgXgXgXgXgX  g | ' ..gX  gXgXgXgXgXgXgXgXgXgXgXgXgXgX",
"  & ` ' p . gXgXgXgXgXgXgXgXgXgXgXgXgXgX6 o o o o + 6 gXgXgXgXgXgXgXgXgXgXgXgX  p | ' ! gXgX      gXgXgXgXgXgXgXgXgXgXgX",
"gXgXgXgXgXgXgXgXgXgXgXgXgXgXgXgXgXgXgXgXgXgXgXgXgXgXgXgXgXgXgXgXgXgXgXgXgXgXgXgXgXgXgXgXgXgXgXgXgXgXgXgXgXgXgXgXgXgXgXgX"
};
