/* XPM */
static char *result[] = {
/* columns rows colors chars-per-pixel */
"60 60 240 2 ",
"   c #020203",
".  c #0B0504",
"X  c #0B0905",
"o  c #04050A",
"O  c #0B060A",
"+  c #06090C",
"@  c #0B0A0D",
"#  c #140605",
"$  c #190B05",
"%  c #130A0B",
"&  c #1B0C0B",
"*  c #140906",
"=  c #19130D",
"-  c #040513",
";  c #0C0712",
":  c #060A14",
">  c #0B0A14",
",  c #060A1C",
"<  c #0B0C1A",
"1  c #05071A",
"2  c #120B13",
"3  c #1C0D11",
"4  c #130B1A",
"5  c #0C111D",
"6  c #1D1313",
"7  c #1C1319",
"8  c #191717",
"9  c #250E0C",
"0  c #260A05",
"q  c #271409",
"w  c #38140A",
"e  c #220D13",
"r  c #2A0E18",
"t  c #231314",
"y  c #2A1415",
"u  c #221A14",
"i  c #2B1A15",
"p  c #2D151A",
"a  c #241D1A",
"s  c #2B1A1B",
"d  c #23171D",
"f  c #341A18",
"g  c #2D221D",
"h  c #27201D",
"j  c #32221C",
"k  c #3B201A",
"l  c #3A2C0C",
"z  c #0B0E23",
"x  c #090E26",
"c  c #0D1225",
"v  c #0C132B",
"b  c #05112F",
"n  c #12152B",
"m  c #171926",
"M  c #0D1433",
"N  c #0D1934",
"B  c #0D1A3A",
"V  c #121535",
"C  c #131B36",
"Z  c #131B3A",
"A  c #181A3A",
"S  c #100D28",
"D  c #17213B",
"F  c #2C2423",
"G  c #362924",
"H  c #3D2A26",
"J  c #372725",
"K  c #272A31",
"L  c #3C3537",
"P  c #39302F",
"I  c #2E1625",
"U  c #461D0E",
"Y  c #461C14",
"T  c #571B13",
"R  c #4C240E",
"E  c #482517",
"W  c #532717",
"Q  c #493613",
"!  c #59361B",
"~  c #4C2E09",
"^  c #683519",
"/  c #73371D",
"(  c #69380D",
")  c #432524",
"_  c #452B28",
"`  c #572C29",
"'  c #43342C",
"]  c #49332D",
"[  c #453928",
"{  c #58332A",
"}  c #433633",
"|  c #4D3B34",
" . c #4D3C39",
".. c #583732",
"X. c #63362F",
"o. c #3F463C",
"O. c #5E461A",
"+. c #484005",
"@. c #6B4A1A",
"#. c #745214",
"$. c #7E661F",
"%. c #534129",
"&. c #444238",
"*. c #54453C",
"=. c #5C493A",
"-. c #5A562F",
";. c #7E4022",
":. c #66483C",
">. c #675338",
",. c #6A5531",
"<. c #79662F",
"1. c #0E1D44",
"2. c #0E1F48",
"3. c #121D43",
"4. c #161D44",
"5. c #132144",
"6. c #1D2A46",
"7. c #12224B",
"8. c #1A2B4A",
"9. c #1F3454",
"0. c #0E204A",
"q. c #212D4B",
"w. c #27344E",
"e. c #273555",
"r. c #202E52",
"t. c #3F4242",
"y. c #2B435D",
"u. c #2C4261",
"i. c #5C4B41",
"p. c #4D5751",
"a. c #684D44",
"s. c #784D49",
"d. c #6B5244",
"f. c #63554C",
"g. c #755548",
"h. c #775D51",
"j. c #6F5654",
"k. c #5A605F",
"l. c #7B6459",
"z. c #4D5865",
"x. c #58696C",
"c. c #5A6B73",
"v. c #4D6060",
"b. c #647875",
"n. c #873A1B",
"m. c #913916",
"M. c #813622",
"N. c #8B4819",
"B. c #914E18",
"V. c #AA5C1E",
"C. c #B15D1B",
"Z. c #856517",
"A. c #946918",
"S. c #9D7D14",
"D. c #997C1A",
"F. c #93781B",
"G. c #9D7B0D",
"H. c #A76F1D",
"J. c #9A5626",
"K. c #8F4726",
"L. c #BB5C26",
"P. c #A95327",
"I. c #967B2A",
"U. c #8B7025",
"Y. c #B26723",
"T. c #A9632B",
"R. c #C45019",
"E. c #CC6D1A",
"W. c #E76C1C",
"Q. c #C75E28",
"!. c #D4712D",
"~. c #F07E25",
"^. c #E97F25",
"/. c #835C4C",
"(. c #886B5C",
"). c #956D58",
"_. c #8B735D",
"`. c #956D54",
"'. c #9C7C66",
"]. c #947A66",
"[. c #8D7568",
"{. c #A47B64",
"}. c #AB8E19",
"|. c #988020",
" X c #BD9824",
".X c #BF8F2C",
"XX c #EF8F1C",
"oX c #CEA918",
"OX c #F5BA1D",
"+X c #EBBC1E",
"@X c #DA9E26",
"#X c #CC972C",
"$X c #EC892B",
"%X c #FC8529",
"&X c #FC8B2B",
"*X c #F78A26",
"=X c #E79826",
"-X c #F9912A",
";X c #F69827",
":X c #EB8835",
">X c #FD8A32",
",X c #F88B34",
"<X c #FB9333",
"1X c #D8B02B",
"2X c #F6A724",
"3X c #E8B827",
"4X c #FBB524",
"5X c #F5BE22",
"6X c #F6B729",
"7X c #E3B734",
"8X c #E8AC32",
"9X c #F5C51D",
"0X c #FDC31E",
"qX c #F6C81E",
"wX c #FBCA1C",
"eX c #F8C616",
"rX c #F6C423",
"tX c #FAC523",
"yX c #FBCA23",
"uX c #FDC22A",
"iX c #F6C62B",
"pX c #F1CE2B",
"aX c #9F886D",
"sX c #968274",
"dX c #AB836A",
"fX c #B18C6E",
"gX c #A48572",
"hX c #A78978",
"jX c #B38E76",
"kX c #AB9276",
"lX c #B49274",
"zX c #BB9473",
"xX c #BC997A",
"cX c #BC9578",
"vX c #B3946F",
"bX c #B29C8B",
"nX c #BAA6A4",
"mX c #C39B81",
"MX c #C0A8A9",
"NX c None",
/* pixels */
"NXNXNXNXNXNXNXNXNXNXNXNXNXNXNXNXNXNXNXNXNXNXNXNXNXNXNXNXNXNXO . .   . * NXNXNXNXNXNXNXNXNXNXNXNXNXNXNXNXNXNXNXNXNXNXNXNX",
"NXNXNXNXNXNXNXNXNXNXNXNXNXNXNXNXNXNXNXNXNXNXNXNXNXNXNXNX. & t e y y e e e 3 NXNXNXNXNXNXNXNXNXNXNXNXNXNXNXNXNXNXNXNXNXNX",
"NXNXNXNXNXNXNXNXNXNXNXNXNXNXNXNXNXNXNXNXNXNXNXNXNXNXNX% 9 p s p p i p I r & 3 NXNXNXNXNXNXNXNXNXNXNXNXNXNXNXNXNXNXNXNXNX",
"NXNXNXNXNXNXNXNXNXNXNXNXNXNXNXNXNXNXNXNXNXNXNXNXNXNX  O p p y I e & 7 7 J *.d   NXNXNXNXNXNXNXNXNXNXNXNXNXNXNXNXNXNXNXNX",
"NXNXNXNXNXNXNXNXNXNXNXNXNXNXNXNXNXNXNXNXNXNXNXNXNXNX  * r p p e s G P L f.sXF   NXNXNXNXNXNXNXNXNXNXNXNXNXNXNXNXNXNXNXNX",
"NXNXNXNXNXNXNXNXNXNXNXNXNXNXNXNXNXNXNXNXNXNXNXNXNXNX  % t y t f l.bXnXnXbXkXG   NXNXNXNXNXNXNXNXNXNXNXNXNXNXNXNXNXNXNXNX",
"NXNXNXNXNXNXNXNXNXNXNXNXNXNXNXNXNXNXNXNXNXNXNXNXNXNX  2 t & H _.zX{.s.a.).fXG   NXNXNXNXNXNXNXNXNXNXNXNXNXNXNXNXNXNXNXNX",
"NXNXNXNXNXNXNXNXNXNXNXNXNXNXNXNXNXNXNXNXNX    NXNXNXo O t *._.xXcXfX).].dXhXJ   NXNXNXNXNXNXNXNXNXNXNXNXNXNXNXNXNXNXNXNX",
"NXNXNXNXNXNXNXNXNXNXNXNXNXNXNXNXNXm m 7 P P X NXNXNXNX= q (.xXzXzXxXcX)./.s.i   NXNXNXNXNXNXNXNXNXNXNXNXNXNXNXNXNXNXNXNX",
"NXNXNXNXNXNXNXNXNXNXNXNXNXNXNXNXo h L J a.f.F NXNXNXNXK @ i.].xXzXfX).{ Y Y e NXNXNXNXNXNXNXNXNXNXNXNXNXNXNXNXNXNXNXNXNX",
"NXNXNXNXNXNXNXNXNXNXNXNXNXNXNXNX+ & } sX| a v.x.NXNXp.w.a i =.fXzX`.{ W ` ` ] NXNXNXNXNXNXNXNXNXNXNXNXNXNXNXNXNXNXNXNXNX",
"NXNXNXNXNXNXNXNXNXNXNXNXNXNXNXNX= =.aXhX[ m c.c.p.6 8 ' _.'.dXvXlXfX{.X.f f r @ NXNXNXNXNXNXNXNXNXNXNXNXNXNXNXNXNXNXNXNX",
"NXNXNXNXNXNXNXNXNXNXNXNXNXNXNXg g.hX'.%.&.v.b.i.%.|.}.$.%.[.mXlX>.a.jX{.(.j.u o NXNXNXNXNXNXNXNXNXNXNXNXNXNXNXNXNXNXNXNX",
"NXNXNXNXNXNXNXNXNXNXNXNXNXNX  j aX(.=.w.v.x.o.-.|.qXpX#XZ.,.>.*.h G a.d.d.*.g NXNXNXNXNXNXNXNXNXNXNXNXNXNXNXNXNXNXNXNXNX",
"NXNXNXNXNXNXNXNXNXNXNXNXNXNX  j hX| 8 c.v.o.O. XpXeX9XqXrXZ.O.H u NX. . .   NXNXNXNXNXNXNXNXNXNXNXNXNXNXNXNXNXNXNXNXNXNX",
"NXNXNXNXNXNXNXNXNXNXNXNXNXNX  s aX%.8 k.o.#.1XqXwXwXeX9XiX+X9X7X@.= NXNXNXNXNXNXNXNXNXNXNXNXNXNXNXNXNXNXNXNXNXNXNXNXNXNX",
"NXNXNXNXNXNXNXNXNXNXNXNXNXNX- j dX| + 8 U.1X9X0X0XyX5X8X=X5XtX9X7XI.X NXNXNXNXNXNXNXNXNXNXNXNXNXNXNXNXNXNXNXNXNXNXNXNXNX",
"NXNXNXNXNXNXNXNXNXNXNXNXNXNX- g dX .+ * D.uX9XrXtXyXeX X( E.2X5XiX}.* NXNXNXNXNXNXNXNXNXNXNXNXNXNXNXNXNXNXNXNXNXNXNXNXNX",
"NXNXNXNXNXNXNXNXNXNXNXNXNXNXNXg :.<.-.% D.uXqXqXtX0XyX@XB.m.C.2X9XoXA.l NXNXNXNXNXNXNXNXNXNXNXNXNXNXNXNXNXNXNXNXNXNXNXNX",
"NXNXNXNXNXNXNXNXNXNXNXNXNXNXNXNX# S. Xq D.uXqXtXOXyXpXOXXXB.^ V.@XiX+X+.  NXNXNXNXNXNXNXNXNXNXNXNXNXNXNXNXNXNXNXNXNXNXNX",
"NXNXNXNXNXNXNXNXNXNXNXNXNXNXNXNX# N.A.$ D.uXqXtX0XyXqX5X>X$XC.U H.;X3X#.q NXNXNXNXNXNXNXNXNXNXNXNXNXNXNXNXNXNXNXNXNXNXNX",
"NXNXNXNXNXNXNXNXNXNXNXNXNXNXNXNXNXw q X D.uXqXtXtXyXtX6X-X%XQ.w V.=XrX7XU.% NXNXNXNXNXNXNXNXNXNXNXNXNXNXNXNXNXNXNXNXNXNX",
"NXNXNXNXNXNXNXNXNXNXNXNXNXNXNXNXNXNX@ X D.uXqXtXOXwXtX4X&X>XY.0 E N.XX6X}.$ NXNXNXNXNXNXNXNXNXNXNXNXNXNXNXNXNXNXNXNXNXNX",
"NXNXNXNXNXNXNXNXNXNXNXNXNXNXNXNXNXNXNXX D.uXqXtX0XwXtX4X-X%XQ.&   ~ :X+XoXA.l NXNXNXNXNXNXNXNXNXNXNXNXNXNXNXNXNXNXNXNXNX",
"NXNXNXNXNXNXNXNXNXNXNXNXNXNXNXNXNXNXNXX D.uXqXtX0XwXyX4X&X&XL.# . E J.@X6X3X!   NXNXNXNXNXNXNXNXNXNXNXNXNXNXNXNXNXNXNXNX",
"NXNXNXNXNXNXNXNXNXNXNXNXNXNXNXNXNXNXNXX F.uXqXrX0XwXtX4X-X>XL.# NXNXq V.#X3X#.l NXNXNXNXNXNXNXNXNXNXNXNXNXNXNXNXNXNXNXNX",
"NXNXNXNXNXNXNXNXNXNXNXNXNXNXNXNXNXNXNXX D.tXqXtX0X0XtX4X-X&XY.0 NXNXNXi / $X8XF.u = * NXNXNXNXNXNXNXNXNXNXNXNXNXNXNXNXNX",
"NXNXNXNXNXNXNXNXNXNXNXNXNXNXNXNXNXNXNX  D.uXqXtX0XtXqX4X*X*X!.K.Y NXNX  ! $X;X=X.X X$.$ NXNXNXNXNXNXNXNXNXNXNXNXNXNXNXNX",
"NXNXNXNXNXNXNXNXNXNXNXNXNXNXNXNXNXNXNX  D.uXtXtX0X0X9X4X-X%X*XQ.U   NXNXE / / T.=XA.<.d.s NXNXNXNXNXNXNXNXNXNXNXNXNXNXNX",
"NXNXNXNXNXNXNXNXNXNXNXNXNXNXNXNXNXNXNX. D.uXqXtX0XuXOX2X,X&X~.L.U   NXNXNXX   E ;.g o.aXa.F NXNXNXNXNXNXNXNXNXNXNXNXNXNX",
"NXNXNXNXNXNXNXNXNXNXNXNXNXNXNXNXNXNXNX  D.uXqXtX0XuX2XXX>X&X!.K.W U NXNXNXNXNXNX. 4 } _.].i.a NXNXNXNXNXNXNXNXNXNXNXNXNX",
"NXNXNXNXNXNXNXNXNXNXNXNXNXNXNXNXNXNXNXX S.tXyXyXyX6X2X%X,X&XP.w ;.n.# NXNXNXNXNXNXNX8 = 6 *.l.j O NXNXNXNXNXNXNXNXNXNXNX",
"NXNXNXNXNXNXNXNXNXNXNXNXNXNXNXNXNXNXNX. G.wXuXyXyX6X2X~.$XW.m.# N.K.# NXNXNXNXNXNXNXNXNXNXu F f.} X .   . NXNXNXNXNXNXNX",
"NXNXNXNXNXNXNXNXNXNXNXNXNXNXNXNXNXNXNX. S.wXuXtX5X2X&X>X*XW.n.$ m.n.$ O NXNXNXNXNXNXNXNXNXNXNXF 8 & | l.>.j   NXNXNXNXNX",
"NXNXNXNXNXNXNXNXNXNXNXNXNXNXNXNXNXNXNXO S.yXyXOX4X<X>X%X&X!.M.0 B.M.% > 5 5 NXNXNXNXNXNXNXNXNXNXO 6 *.g.:.t   NXNXNXNXNX",
"NXNXNXNXNXNXNXNXNXNXNXNXNXNXNXNXNXNXNXO S.wXtXOX2X>X>X*X:XP./ E / { z C N z , c NXNXNXNXNXNXNXNXNXNXO . # O   NXNXNXNXNX",
"NXNXNXNXNXNXNXNXNXNXNXNXNXNXNXNXNXNXNXX I.rXeX2X-X&X,X^.E.T R K.T e Z A N B Z v 1 o 5 NXNXNXNXNXNXNXNXNXNX+   NXNXNXNXNX",
"NXNXNXNXNXNXNXNXNXNXNXNXNXNXNXNXNXNXNX* I.iX5X=X$X~.!.Q.R.U U P.Y z v 3 c b M A C n c 1 + - NXNXNXNXNXNXNXNXNXNXNXNXNXNX",
"NXNXNXNXNXNXNXNXNXNXNXNXNXNXNXNXNXNXNXX l O.@.! ^ ^ W E T = 9 R 9 , < ; > < z c v A Z M v x 1 NXNXNXNXNXNXNXNXNXNXNXNXNX",
"NXNXNXNXNXNXNXNXNXNXNXNXNXNXNXNXNXNXNXo : : < S n c c z o o O O ; 4 z 2 2 ; 4 4 , V A V A Z v , NXNXNXNXNXNXNXNXNXNXNXNX",
"NXNXNXNXNXNXNXNXNXNXNXNXNXNXNXNXNXNXNX  , NXNXw.r.5.3.B > O 2 < 4 2 < < > 4 < < < 4 4 < n Z Z S , NXNXNXNXNXNXNXNXNXNXNX",
"NXNXNXNXNXNXNXNXNXNXNXNXNXNXNXNXNXNXNX. < NXNXe.e.7.3.N 5 O o - ; O @ > ; 2 - ; 4 2 ; < : c 4.4.z o NXNXNXNXNXNXNXNXNXNX",
"NXNXNXNXNXNXNXNXNXNXNXNXNXNXNXNXNXNXNX  ; NXNXw.e.1.1.C 5 o   o o   o o + < 4 > ; > ; , < > v 4.n o NXNXNXNXNXNXNXNXNXNX",
"NXNXNXNXNXNXNXNXNXNXNXNXNXNXNXNXNXNXNX  - NXNXe.e.7.7.V , . o NXNXNXNXNX: O + + + ; + + - 1 S V v o NXNXNXNXNXNXNXNXNXNX",
"NXNXNXNXNXNXNXNXNXNXNXNXNXNXNXNXNXNXNX  : NXe.w.r.7.7.V : o   NXNXNXNXNXNXNX+ + o @ > O > v c 5 z < NXNXNXNXNXNXNXNXNXNX",
"NXNXNXNXNXNXNXNXNXNXNXNXNXNXNXNXNXNXNX  > NXe.6.3.7.5.Z < .   NXNXNXNXNXNXNXNXNX  + @ > c M c + NXNXNXNXNXNXNXNXNXNXNXNX",
"NXNXNXNXNXNXNXNXNXNXNXNXNXNXNXNXNXNXNX  5 NXy.8.5.0.D v + O   NXNXNXNXNXNXNXNXNX  2 % > V V - NXNXNXNXNXNXNXNXNXNXNXNXNX",
"NXNXNXNXNXNXNXNXNXNXNXNXNXNXNXNXNXNXNXo 5 NXy.9.B 1.N , o NXNXNXNXNXNXNXNXNXNXNX@ F s t V n + NXNXNXNXNXNXNXNXNXNXNXNXNX",
"NXNXNXNXNXNXNXNXNXNXNXNXNXNXNXNXNXNXNXo : NXu.9.1.B b > o NXNXNXNXNXNXNXNXNXNXNX# E >.h.d > NXNXNXNXNXNXNXNXNXNXNXNXNXNX",
"NXNX                            NXNXNX  5 8.9.8.5.5.c -   NXNXNXNXNXNXNXNXNXNXNX. f /.hXs   NXNXNXNXNXNXNXNXNXNXNXNXNXNX",
"NX. i [ ' ' H ' [ ] ] ] ] ] [ } } G 2 o z 8.7.0.5.D c ;   NXNXNXNXNXNXNXNXNXNXNXO H :.:.u NXNXNXNXNXNXNXNXNXNXNXNXNXNXNX",
"NXO =.kXvXfX'.].].].].{.{.dX{.gX[.} @ o 5 8.0.7.Z C < ; + NXNXNXNXNXNXNXNXNXNXNXX H j # NXNXNXNXNXNXNXNXNXNXNXNXNXNXNXNX",
"NX+ i.xXzX`.{ s 6 = i ) ....X.] i K D , n 9.7.2.M c @ + NXNXNXNXNXNXNXNXNXNXNXNX. H F   NXNXNXNXNXNXNXNXNXNXNXNXNXNXNXNX",
"NXX =.lXg.E % NXNXNXNXd 6 2 3 8 m D 6.6.q.5.1.5.A < + o NXNXNXNXNXNXNXNXNXNXNXNX# _ f # NXNXNXNXNXNXNXNXNXNXNXNXNXNXNXNX",
"a H :.d.k 6 NXNXNXNXNXNXNXNXNX- 5 x v 6.5.D 1.V S < o   NXNXNXNXNXNXNXNXNXNXNXNX. ) ..] # NXNXNXNXNXNXNXNXNXNXNXNXNXNXNX",
"% NX:.i O NXNXNXNXNXNXNXNXNXNXNXo o : c N D N c < > +   NXNXNXNXNXNXNXNXNXNXNXNX# ) a.s.k & NXNXNXNXNXNXNXNXNXNXNXNXNXNX",
"& d...& NXNXNXNXNXNXNXNXNXNXNXNXNXNXNX< c c < > ; + + o NXNXNXNXNXNXNXNXNXNXNXNX. ) ` X.:.` # NXNXNXNXNXNXNXNXNXNXNXNXNX",
"% ] ` J % NXNXNXNXNXNXNXNXNXNXNXNXNXNXNX8 + o o o o + NXNXNXNXNXNXNXNXNXNXNXNXNX. _ ..` ` ` NX#   o NXNXNXNXNXNXNXNXNXNX",
"NXI ) I * NXNXNXNXNXNXNXNXNXNXNXNXNXNXNXNXo   o   o NXNXNXNXNXNXNXNXNXNXNXNXNXNXO I _ ) ) NXNXNX    NXNXNXNXNXNXNXNXNXNX",
"NXNXNXNXNXNXNXNXNXNXNXNXNXNXNXNXNXNXNXNXNXNXNXNXNXNXNXNXNXNXNXNXNXNXNXNXNXNXNXNXNXNXNXNXNXNXNXNXNXNXNXNXNXNXNXNXNXNXNXNX"
};
