/* XPM */
static char *result[] = {
/* columns rows colors chars-per-pixel */
"60 60 231 2 ",
"   c #030203",
".  c #0A0505",
"X  c #0A0904",
"o  c #04050A",
"O  c #0B070C",
"+  c #07090C",
"@  c #0C0A0C",
"#  c #060804",
"$  c #130A04",
"%  c #1A0B05",
"&  c #140609",
"*  c #140B0B",
"=  c #1A0C0D",
"-  c #120606",
";  c #15130D",
":  c #1C120D",
">  c #060A16",
",  c #0B0A13",
"<  c #0B0D1B",
"1  c #060716",
"2  c #120B13",
"3  c #1C0E11",
"4  c #150E19",
"5  c #0D111D",
"6  c #0D1214",
"7  c #151212",
"8  c #1C1214",
"9  c #15111B",
"0  c #1D1717",
"q  c #0D110E",
"w  c #210D0B",
"e  c #2B1B0B",
"r  c #251509",
"t  c #321A0B",
"y  c #230E13",
"u  c #2A0F1A",
"i  c #231215",
"p  c #2C1316",
"a  c #2D1B16",
"s  c #251519",
"d  c #2C141A",
"f  c #241B1D",
"g  c #2D1A1D",
"h  c #231916",
"j  c #32141B",
"k  c #321C1B",
"l  c #361D13",
"z  c #320F19",
"x  c #3C2C0D",
"c  c #372609",
"v  c #2C2318",
"b  c #34221C",
"n  c #3B241C",
"m  c #372717",
"M  c #393318",
"N  c #2C200A",
"B  c #0B0E24",
"V  c #060D22",
"C  c #0D1224",
"Z  c #0C132C",
"A  c #121828",
"S  c #0D1532",
"D  c #0E1A38",
"F  c #121B3C",
"G  c #141935",
"H  c #331E23",
"J  c #2C1E20",
"K  c #192239",
"L  c #2E2625",
"P  c #3A2C24",
"I  c #372928",
"U  c #3F3027",
"Y  c #431816",
"T  c #471F0F",
"R  c #45260B",
"E  c #56290D",
"W  c #48350C",
"Q  c #55380A",
"!  c #482615",
"~  c #552714",
"^  c #483615",
"/  c #573917",
"(  c #67340D",
")  c #6B361A",
"_  c #773B1A",
"`  c #602B10",
"'  c #531D20",
"]  c #442C26",
"[  c #492C26",
"{  c #57282B",
"}  c #46352A",
"|  c #4D3C2D",
" . c #46382B",
".. c #55352C",
"X. c #422D32",
"o. c #4D3D33",
"O. c #4A3C35",
"+. c #523B33",
"@. c #553835",
"#. c #663C37",
"$. c #554312",
"%. c #5C490A",
"&. c #684D0C",
"*. c #664515",
"=. c #764415",
"-. c #695716",
";. c #755818",
":. c #7B651C",
">. c #564339",
",. c #664939",
"<. c #75483D",
"1. c #715029",
"2. c #766021",
"3. c #0E1E43",
"4. c #0F1F49",
"5. c #121D43",
"6. c #121C49",
"7. c #0F2145",
"8. c #122245",
"9. c #12244A",
"0. c #1B2948",
"q. c #2B3246",
"w. c #634D44",
"e. c #6A4D41",
"r. c #724842",
"t. c #695345",
"y. c #765948",
"u. c #705C56",
"i. c #73624E",
"p. c #7C6359",
"a. c #6D625D",
"s. c #8A3A1C",
"d. c #84471E",
"f. c #955A1B",
"g. c #A7581C",
"h. c #92761A",
"j. c #876A14",
"k. c #A8681D",
"l. c #BE661F",
"z. c #934B28",
"x. c #9B5923",
"c. c #AA4A26",
"v. c #A45525",
"b. c #BE5A28",
"n. c #856522",
"m. c #986824",
"M. c #B76B26",
"N. c #A47A22",
"B. c #B87223",
"V. c #C75A28",
"C. c #D96727",
"Z. c #C57926",
"A. c #DE7925",
"S. c #CC6622",
"D. c #F27B29",
"F. c #825349",
"G. c #856958",
"H. c #916B59",
"J. c #8B7356",
"K. c #97755B",
"L. c #896849",
"P. c #8E7262",
"I. c #987964",
"U. c #A67D65",
"Y. c #9C881A",
"T. c #AA8A1A",
"R. c #B18C1D",
"E. c #B9881B",
"W. c #B9981A",
"Q. c #9C8328",
"!. c #AA8924",
"~. c #B38C25",
"^. c #BB9424",
"/. c #B99726",
"(. c #C88E1D",
"). c #F2841C",
"_. c #C6A419",
"`. c #D7AA1A",
"'. c #D5B11C",
"]. c #E7A21D",
"[. c #F7AC1E",
"{. c #E7B81C",
"}. c #F9BC1D",
"|. c #F1B81E",
" X c #D7892A",
".X c #C89A26",
"XX c #DB9626",
"oX c #E98629",
"OX c #F48D2A",
"+X c #F98B2A",
"@X c #E69829",
"#X c #F89429",
"$X c #FA8631",
"%X c #CBA52A",
"&X c #D9A626",
"*X c #DDB625",
"=X c #D6B12B",
"-X c #E7A325",
";X c #F7A926",
":X c #E6B928",
">X c #F4BC23",
",X c #F4B52C",
"<X c #FCBB2B",
"1X c #F9B926",
"2X c #E5B532",
"3X c #FBC51D",
"4X c #FDC91B",
"5X c #F6C81D",
"6X c #F6C423",
"7X c #FCC623",
"8X c #FCC923",
"9X c #FDC32B",
"0X c #F8CA27",
"qX c #FBCB32",
"wX c #EDC425",
"eX c #A4895E",
"rX c #9D816B",
"tX c #AC856D",
"yX c #A3866E",
"uX c #B78D6E",
"iX c #BD936F",
"pX c #B5936B",
"aX c #AB8971",
"sX c #BC9475",
"dX c #BD9379",
"fX c #B79575",
"gX c #B28D79",
"hX c #C39576",
"jX c #B89D8E",
"kX c #B4A096",
"lX c None",
/* pixels */
"lXlXlXlXlXlXlXlXlXlXlXlXlXlXlXlXlXlXlXlXlXlXlXlXlXlXlXlXlXlXlXlXlXlXlXlXlXlXlXlXlXlXlXlXlXlXlXlXlXlXlXlXlXlXlXlXlXlXlXlX",
"lXlXlXlXlXlXlXlXlXlXlXlXlXlXlXlXlXlXlXlXlXlXlXlXlXlXlXlXlXlXlXlXlXlXlXlXlXlXlXlXlXlXlXlXlXlXlXlXlXlXlXlXlXlXlXlXlXlXlXlX",
"lXlXlXlXlXlXlXlXlXlXlXlXlXlXlXlXlXlXlXlXlXlXlXlXlXlXlXlX        lXlXlXlXlXlXlXlXlXlXlXlXlXlXlXlXlXlXlXlXlXlXlXlXlXlXlXlX",
"lXlXlXlXlXlXlXlXlXlXlXlXlXlXlXlXlXlXlXlXlXlXlXlXlXlXlXO * = = O + lXlXlXlXlXlXlXlXlXlXlXlXlXlXlXlXlXlXlXlXlXlXlXlXlXlXlX",
"lXlXlXlXlXlXlXlXlXlXlXlXlXlXlXlXlXlXlXlXlXlXlXlXlXlX* i k p d s 3 + lXlXlXlXlXlXlXlXlXlXlXlXlXlXlXlXlXlXlXlX8 * . lXlXlX",
"lXlXlXlXlXlXlXlXlXlXlXlXlXlXlXlXlXlXlXlXlXlXlXlXlXO i d j p d d k h   lXlXlXlXlXlXlXlXlXlXlXlXlXlXlXlXlXlXlX3 u -   lXlX",
"lXlXlXlXlXlXlXlXlXlXlXlXlXlXlXlXlXlXlXlXlXlXlXlXlX. s z u 3 * * >.+.  lXlXlXlXlXlXlXlXlXlXlXlXlXlXlXlXlXlXlX- y &   lXlX",
"lXlXlXlXlXlXlXlXlXlXlXlXlXlXlXlXlXlXlXlXlXlXlXlXlX& d j y O.u.a.rXw.  lXlXlXlXlXlXlXlXlXlXlXlXlXlXlXlXlXlXlX. y *   lXlX",
"lXlXlXlXlXlXlXlXlXlXlXlXlXlXlXlXlXlXlXlXlXlXlXlXlX* s s ] I.kXkXjX,.. lXlXlXlXlXlXlXlXlXlXlXlXlXlXlXlXlXlXlX. 3 *   lXlX",
"lXlXlXlXlXlXlXlXlXlXlXlXlXlXlXlXlXlXlXlXlXlXlXlXlX. 0 b I.uXy.,.K.w.  lXlXlXlXlXlXlXlXlXlXlXlXlXlXlXlXlXlXlX  : *   lXlX",
"lXlXlXlXlXlXlXlXlXlXlXlXlXlXlXlXlXlXlXlXlXlXlXlXlX  h G.pXhXU.U.gXw.o lXlXlXlXlXlXlXlXlXlXlXlXlXlXlXlXlX  lXo 3 *   lXlX",
"lXlXlXlXlXlXlXlXlXlXlXlXlXlXlXlXlXlXlXlXlXlXlXlXlX+ h yXhXhXhXL.r.I o lXlXlXlXlXlXlXlXlXlXlXlXlXlXlXlXlX  lX. y *   lXlX",
"lXlXlXlXlXlXlXlXlXlXlXlXlXlXlXlXlXlXlXlXlXlXlXlXlXf O.p.gXsXK...Y u lXlXlXlXlXlXlXlXlXlXlXlXlXlXlXlXlX0 @ lX. 3 *   lXlX",
"lXlXlXlXlXlXlXlXlXlXlXlXlXlXlXlXlXlXlXlXlXlXlXlXL } J.+.yXsX#.' { [ lXlXlXlXlXlXlXlXlXlXlXlXlXlXlXlXlX@ 8 lXo 3 &   lXlX",
"lXlXlXlXlXlXlXlXlXlXlXlXlXlXlXlXlXlXlXlXlXX # + I I.fXyXiXhXuX#.Y i + lXlXlXlXlXlXlXlXlXlXlXlXlXlXlXlX  8 lXo y *   lXlX",
"lXlXlXlXlXlXlXlXlXlXlXlXlXlXlXlXlXlXlXo -.T.-.L P.dXdXhXpXr.K.U.H.} . lXlXlXlXlXlXlXlXlXlXlX= lXlXlX& 3 p d . y =   lXlX",
"lXlXlXlXlXlXlXlXlXlXlXlXlXlXlXlXlXlX*.-./.qX.X2.t.G.dXfXi.f O.y.y.>.lXlXlXlXlXlXlXlXlXlXlXo = k lXlX. 0 u d & = *   lXlX",
"lXlXlXlXlXlXlXlXlXlXlXlXlXlXlXlXlXW /.0X>X>X6X~.W ..J.J.^ x ; + o lXlXlXlXlXlXlXlXlXlXlXlX* = p lXlXO g j p * y *   lXlX",
"lXlXlXlXlXlXlXlXlXlXlXlXlXlXlXlXN ~.6X>X-XoX[.wX:XW.m m W.%X$.; lXlXlXlXlXlXlXlXlXlXlXlX* * 8 lXlX@ y j u d * y *   lXlX",
"lXlXlXlXlXlXlXlXlXlXlXlXlXlXlXN Q.:X;X#Xf.m.<X7X8X:XY.x _.6X_./.-.lXlXlXlXlXlXlXlXlXlXlX3 i 8 lX3 8 H u j = ; d &   lXlX",
"lXlXlXlXlXlXlXlXlXlXlXlXlXlXr j.*X}.#Xg.=.~.9X7X4X9X'.W _.4X;X1XW.%.lXlXlXlXlXlXlXlXlX2 i k 8 - y j u p d & 8 g =   lXlX",
"lXlXlXlXlXlXlXlXlXlXlXlXlXlX&.*X1XZ.M._ k.1X9X7X8X4X'.M %X1X(.XX}.T.W lXlXlXlXlXlXlX2 i j j 3 * p j u g y = i d = . lXlX",
"lXlXlXlXlXlXlXlXlXlXlXlXlXW *X,X X~ w v.;X7X9X7X4X0X&Xx .X X~ m.].>XN.t lXlXlXlXlX0 i p z z i * g d i lXO i j j *   lXlX",
"lXlXlXlXlXlXlXlXlXlXlXlX^ %X|.@X( c = v.[.8X8X8X8X8X&Xx Z.=.n b x.,X2Xh.lXlXlXlX2 i y d z j s 3 s s lXlX. i j d * o lXlX",
"lXlXlXlXlXlXlXlXlXlXlX$.!.wX@X=.r r =. X1X3X8X8X8X5X&Xx M.! M lXE B.<X`.n.lXlXlXo s g d d H L i i d lX; 3 d j 3 * lXlXlX",
"lXlXlXlXlXlXlXlXlXlXx h.0X-Xf.t lXO N.}.5X3X4X3X8X5X&XR M.! lXlXlX) (.,X%X&.lXlXO y g g g g d p i i ; = s d g O + lXlXlX",
"lXlXlXlXlXlXlXlXlXv j.=X.Xk.m lXlX$ R.7X4X7X4X7X8X5X/./ Z.~ lXlXlXlX=. X1X&XW lXO y z u H g j d 8 lX* s z p i 2 lXlXlXlX",
"lXlXlXlXlXlXlXlXlX-.-XM.m t lXlXlX$ R.8X3X8X6X7X3X`./ /.oX~ lXlXlXlXt *.@X<X^.c lX* y H X.I p s 0 @ i z p k = O lXlXlXlX",
"lXlXlXlXlXlXlXlX  =.;X-Xn.8 lXlXlX$ R.8X3X6X9X7X0X%XR `.OX` lXlXlXlXlXe d.;X|.!.N lX* h H f h 0 * i u d p a O lXlXlXlXlX",
"lXlXlXlXlXlXlXlXlX/ B.9X(.: lXlXlX$ R.8X4X8X9X4X2Xm.j.].oX~ lXlXlXlXlXlXl m.XXh.; lXO 8 d g f 2 8 d j p i y ; lXlXlXlXlX",
"lXlXlXlXlXlXlXlXlXlX` (.Q.m lXlXlX% R.8X4X3X8X4X^.W 2X@XoX=.lXlXlXlXlXlXlXR x.[ v lX  8 s I i ; d j j d i * lXlXlXlXlXlX",
"lXlXlXlXlXlXlXlXlXlXlX; M p.r lXlX% T.4X6X8X5X6X~.$.:X#X$XA.~ lXlXlXlXlXlXlXa G.I.a lX+ 7 d k p p z d h @ lXlXlXlXlXlXlX",
"lXlXlXlXlXlXlXlXlXlXlXq P J.0 lXlX% R.3XqX9X5X_.;./.>X#X$XC.E lXlXlXlXlXlXlXlX} H.a lXlXq f I d p p p * lXlXlXlXlXlXlXlX",
"lXlXlXlXlXlXlXlXlXlXlXlXL >.>.0 lX% ~.qX0X7X3XT.Q |.;X#X$XC.s.l lXlXlXlXlXlXlX* y.: lXlX# 8 k p j d = * lXlXlXlXlXlXlXlX",
"lXlXlXlXlXlXlXlXlXlXlXlXlX0 w. .0 $ 2.~.'.8X8XW.;.E.#X+X+XC.V.~ lXlXlXlXlXlXlX* e.7 lXlXlX= h g s 3 2 lXlXlXlXlXlXlXlXlX",
"lXlXlXlXlXlXlXlXlXlXlXlXlXlXa J.v 7 ; N !.8X5X6XT.E  X$XoXS.V.~   lXlXlXlXlXlX- ] $ lXlXlX@ * J 8 * lXlXlXlXlXlXlXlXlXlX",
"lXlXlXlXlXlXlXlXlXlXlXlXlXlX8 p.b y.X.:.:X7X8X8XE.E oXoXC.S.b.Y o lXlXlXlXlXlXlX* lX- lXlXX = 8 , lXlXlXlXlXlXlXlXlXlXlX",
"lXlXlXlXlXlXlXlXlXlXlXlXlXlXlXf w.yXK.1.W.3X9X}.E.R D.C.V.V._ g Z C o lXlXlXlXq X . lX- lX7 = + @ lXlXlXlXlXlXlXlXlXlXlX",
"lXlXlXlXlXlXlXlXlXlXlXlXlXlXlX. +.i.eX+./ .X<X;XZ._ v.V.V.s.r B 3.S 5 < lXlXlX#   . lX$ * 7 * o lXlXlXlXlXlXlXlXlXlXlXlX",
"lXlXlXlXlXlXlXlXlXlXlXlXlXlXlXlX$ ; t.>.* ;.;X#X$Xl.R c.c.r , < S G 5.S 1 6 lXo lXlX. lXX X lXlXlXlXlXlXlXlXlXlXlXlXlXlX",
"lXlXlXlXlXlXlXlXlXlXlXlXlXlXlXlXlX> 9 1.I =.OX+XD.g.t z.Y < 2 1 4 B Z 5.F S > lX# lXlX.   lXlXlXlXlXlXlXlXlXlXlXlXlXlXlX",
"lXlXlXlXlXlXlXlXlXlXlXlXlXlXlXlXo < A L 5 a z.oXC.z.w a 3 < 2 2 , 4 < Z F 3.S 1 lXlXlX  . lXlXlXlXlXlXlXlXlXlXlXlXlXlXlX",
"lXlXlXlXlXlXlXlXlXlXlXlXlXlXlXlXo C lXZ B V n =.) ~ & o , < , , 2 2 < B D 3.F 1 lXlXlXlXlXlXlXlXlXlXlXlXlXlXlXlXlXlXlXlX",
"lXlXlXlXlXlXlXlXlXlXlXlXlXlXlXlX  5 lX5.6.8.Z + O -   + O @ + + 1 O O 1 Z 5.F o lXlXlXlXlXlXlXlXlXlXlXlXlXlXlXlXlXlXlXlX",
"lXlXlXlXlXlXlXlXlXlXlXlXlXlXlXlX  B lX3.6.5.S > o +         o + O O   o B 5.S , lXlXlXlXlXlXlXlXlXlXlXlXlXlXlXlXlXlXlXlX",
"lXlXlXlXlXlXlXlXlXlXlXlXlXlXlXlXo C lX3.3.8.A @ o lXlXlXlXlXlXlX, O & 1 C G B lXlXlXlXlXlXlXlXlXlXlXlXlXlXlXlXlXlXlXlXlX",
"lXlXlXlXlXlXlXlXlXlXlXlXlXlXlXlXo C lX7.3.D < O lXlXlXlXlXlXlXlXO o < S Z 1 lXlXlXlXlXlXlXlXlXlXlXlXlXlXlXlXlXlXlXlXlXlX",
"lXlXlXlXlXlXlXlXlXlXlXlXlXlXlXlX+ A 0.7.3.S , o lXlXlXlXlXlXlXlX2 y 4 Z B + lXlXlXlXlXlXlXlXlXlXlXlXlXlXlXlXlXlXlXlXlXlX",
"lXlXlXlXlXlXlXlXlXlXlXlXlXlXlXlX5 A 8.7.F C > + lXlXlXlXlXlXlX# g <.@.+ o lXlXlXlXlXlXlXlXlXlXlXlXlXlXlXlXlXlXlXlXlXlXlX",
"lXlXlXlXlXlXlXlXlXlXlXlXlXlXlX6 A lX7.7.S > , lXlXlXlXlXlXlXlXX b <.[   lXlXlXlXlXlXlXlXlXlXlXlXlXlXlXlXlXlXlXlXlXlXlXlX",
"lX#                         lX+ lXlX9.8.Z + # lXlXlXlXlXlXlXlXd ..{ = lXlXlXlXlXlXlXlXlXlXlXlXlXlXlXlXlXlXlXlXlXlXlXlXlX",
"lX7 O.| O.o.o.| | |  .>.| U * + A 0.9.3.< # lXlXlXlXlXlXlXlX. ] F.b   lXlXlXlXlXlXlXlXlXlXlXlXlXlXlXlXlXlXlXlXlXlXlXlXlX",
"lXv tXhXsXI.I.K.aXfXsXfXpXu.0 , K 8.9.Z +   lXlXlXlXlXlXlXlX. n <.P lXlXlXlXlXlXlXlXlXlXlXlXlXlXlXlXlXlXlXlXlXlXlXlXlXlX",
"lXv tXhXtX} : : t.gXfXdXJ.I q.C K 9.3.Z o # lXlXlXlXlXlXlXlX* l n 0 lXlXlXlXlXlXlXlXlXlXlXlXlXlXlXlXlXlXlXlXlXlXlXlXlXlX",
"lXg aXuX+.h lXlXI I y.P.I F 0.q.0.F Z > @ lXlXlXlXlXlXlXlX7 b ..=   lXlXlXlXlXlXlXlXlXlXlXlXlXlXlXlXlXlXlXlXlXlXlXlXlXlX",
"n t.aX,.: lXlXlXlX  I I < 5.9.0.8.S 5 o lXlXlXlXlXlXlXlXlXO n F.=   lXlXlXlXlXlXlXlXlXlXlXlXlXlXlXlXlXlXlXlXlXlXlXlXlXlX",
" .tXy.* lXlXlXlXlXlXlXO > F 5.5.F B ,   lXlXlXlXlXlXlXlXlX. k <.n   lXlXlXlXlXlXlXlXlXlXlXlXlXlXlXlXlXlXlXlXlXlXlXlXlXlX",
"} K.k lXlXlXlXlXlXlXlXlXlX< G G 5 @ + lXlXlXlXlXlXlXlXlXlX. n ..r.] * lXlXlXlXlXlXlXlXlXlXlXlXlXlXlXlXlXlXlXlXlXlXlXlXlX",
"[ tX,.$ lXlXlXlXlXlXlXlXlXlX< > + # lXlXlXlXlXlXlXlXlXlXlX. I { @...8   lXlXlXlXlXlXlXlXlXlXlXlXlXlXlXlXlXlXlXlXlXlXlXlX",
"lXlXlXlXlXlXlXlXlXlXlXlXlXlXlXlXlX+ lXlXlXlXlXlXlXlXlXlXlXlXlXlXlXlXlXlXlXlXlXlXlXlXlXlXlXlXlXlXlXlXlXlXlXlXlXlXlXlXlXlX"
};
