/* XPM */
static char *result[] = {
/* columns rows colors chars-per-pixel */
"60 60 242 2 ",
"   c #030203",
".  c #0A0404",
"X  c #04050A",
"o  c #0B050B",
"O  c #06080C",
"+  c #0B0A0B",
"@  c #0A0907",
"#  c #130403",
"$  c #130A04",
"%  c #130C0B",
"&  c #1A0D0B",
"*  c #180807",
"=  c #1E150B",
"-  c #1A1308",
";  c #060713",
":  c #0B0612",
">  c #050A14",
",  c #0C0B13",
"<  c #0B0C1B",
"1  c #040A1C",
"2  c #120B14",
"3  c #170F13",
"4  c #09111B",
"5  c #131112",
"6  c #1B1314",
"7  c #1A191A",
"8  c #220C0A",
"9  c #280E06",
"0  c #22110D",
"q  c #2D1C0D",
"w  c #251507",
"e  c #381A09",
"r  c #240E11",
"t  c #231312",
"y  c #2A1B14",
"u  c #2B151B",
"i  c #261D1B",
"p  c #291D1A",
"a  c #261618",
"s  c #321C14",
"d  c #321D1A",
"f  c #351918",
"g  c #2D240D",
"h  c #37280B",
"j  c #2B211C",
"k  c #262219",
"l  c #372616",
"z  c #3B3212",
"x  c #0B0D24",
"c  c #060D25",
"v  c #0D1225",
"b  c #0D132B",
"n  c #0F1829",
"m  c #141423",
"M  c #141929",
"N  c #0C1532",
"B  c #0D1B3D",
"V  c #0C1836",
"C  c #111935",
"Z  c #131B3C",
"A  c #121636",
"S  c #2A1C22",
"D  c #1F263B",
"F  c #2B2223",
"G  c #2B2A27",
"H  c #342421",
"J  c #3B2C24",
"K  c #382B24",
"L  c #3A3024",
"P  c #353130",
"I  c #4A1D18",
"U  c #442C0C",
"Y  c #44260C",
"T  c #4A350B",
"R  c #482617",
"E  c #532B17",
"W  c #483714",
"Q  c #673616",
"!  c #6E3217",
"~  c #521B21",
"^  c #492A28",
"/  c #552B29",
"(  c #4A342B",
")  c #58372A",
"_  c #4B3B36",
"`  c #563A34",
"'  c #793A24",
"]  c #683936",
"[  c #5B4416",
"{  c #56420F",
"}  c #674A16",
"|  c #7A4713",
" . c #695318",
".. c #745917",
"X. c #67520C",
"o. c #776516",
"O. c #564339",
"+. c #40443E",
"@. c #6A5528",
"#. c #67473A",
"$. c #71453B",
"%. c #755138",
"&. c #744C2B",
"*. c #7A6620",
"=. c #0D1D43",
"-. c #121D44",
";. c #121C48",
":. c #0E2144",
">. c #0F2048",
",. c #122244",
"<. c #11234B",
"1. c #172947",
"2. c #1E3151",
"3. c #232D47",
"4. c #293349",
"5. c #2C3A56",
"6. c #373440",
"7. c #524C46",
"8. c #734C46",
"9. c #6A5749",
"0. c #775A4A",
"q. c #6D5C51",
"w. c #745D53",
"e. c #795D57",
"r. c #604B43",
"t. c #79614C",
"y. c #863D1B",
"u. c #874C1A",
"i. c #98471E",
"p. c #9B5919",
"a. c #8D5C11",
"s. c #A35E1C",
"d. c #85660C",
"f. c #957D0F",
"g. c #9D651D",
"h. c #9B731B",
"j. c #876F18",
"k. c #AE6E18",
"l. c #A5791A",
"z. c #B46D1F",
"x. c #815124",
"c. c #924A28",
"v. c #A55829",
"b. c #B45929",
"n. c #B85C32",
"m. c #926821",
"M. c #977626",
"N. c #896B27",
"B. c #A86421",
"V. c #B66A23",
"C. c #A77E27",
"Z. c #BC7627",
"A. c #E67F1B",
"S. c #CD5D25",
"D. c #C85B28",
"F. c #CA5625",
"G. c #C66B2B",
"H. c #D96B26",
"J. c #C97925",
"K. c #D97628",
"L. c #C67037",
"P. c #EC7A29",
"I. c #CF6619",
"U. c #875B4C",
"Y. c #886A59",
"T. c #95685C",
"R. c #95745C",
"E. c #856F51",
"W. c #A27A5D",
"Q. c #A17348",
"!. c #8C7364",
"~. c #987666",
"^. c #91736A",
"/. c #A47B65",
"(. c #98861D",
"). c #B78B1B",
"_. c #BC951C",
"`. c #AA941A",
"'. c #BFA116",
"]. c #9B8226",
"[. c #A88625",
"{. c #B78924",
"}. c #AB9023",
"|. c #B79728",
" X c #B38D32",
".X c #D2951B",
"XX c #ED921D",
"oX c #C4A41E",
"OX c #F5A51D",
"+X c #F9B91B",
"@X c #E7B51B",
"#X c #C69926",
"$X c #D78F26",
"%X c #E78829",
"&X c #F58927",
"*X c #E89A29",
"=X c #F79129",
"-X c #F89827",
";X c #FB8734",
":X c #EE8B36",
">X c #CDA827",
",X c #D7AA28",
"<X c #D9B726",
"1X c #D3B135",
"2X c #E9A828",
"3X c #F7A926",
"4X c #E4BB25",
"5X c #E8B727",
"6X c #F9B926",
"7X c #EBB833",
"8X c #E3AD31",
"9X c #EEC41D",
"0X c #EFC71A",
"qX c #F4C51C",
"wX c #FBC51C",
"eX c #F2C91D",
"rX c #FBCA1E",
"tX c #FAC515",
"yX c #EBC427",
"uX c #FCC523",
"iX c #FBC923",
"pX c #F4C32C",
"aX c #FDC32B",
"sX c #F6CA26",
"dX c #FCC933",
"fX c #B1875D",
"gX c #9E8370",
"hX c #A3846C",
"jX c #AB8768",
"kX c #B6956B",
"lX c #A98773",
"zX c #B88D77",
"xX c #BA9374",
"cX c #BB9779",
"vX c #B08D6B",
"bX c #C3926F",
"nX c #C29574",
"mX c #C29879",
"MX c #B39A8C",
"NX c #BAA28F",
"BX c #B8ADAA",
"VX c None",
/* pixels */
"VXVXVXVXVXVXVXVXVXVXVXVXVXVXVXVXVXVXVXVXVXVXVXVXVXVXVXVXVXVXVXVXVXVXVXVXVXVXVXVXVXVXVXVXVXVXVXVXVXVXVXVXVXVXVXVXVXVXVXVX",
"VXVXVXVXVXVXVXVXVXVXVXVXVXVXVXVXVXVXVXVXVXVXVXVXVXVXVXVXVXVXVXVXVXVXVXVXVXVXVXVXVXVXVXVXVXVXVXVXVXVXVXVXVXVXVXVXVXVXVXVX",
"VXVXVXVXVXVXVXVXVXVXVXVXVXVXVXVXVXVXVXVXVXVXVXVXVXVXVXVXVXVXVXVXVXVXVXVXVXX @ o . @ @ @ VXVXVXVXVXVXVXVXVXVXVXVXVXVXVXVX",
"VXVXVXVXVXVXVXVXVXVXVXVXVXVXVXVXVXVXVXVXVXVXVXVXVXVXVXVXVXVXVXVXVXVXVXX % 6 a u u u u 6 5 o VXVXVXVXVXVXVXVXVXVXVXVXVXVX",
"VXVXVXVXVXVXVXVXVXVXVXVXVXVXVXVXVXVXVXVXVXVXVXVXVXVXVXVXVXVXVXVXVXVX  % r u u u r f u S u &   VXVXVXVXVXVXVXVXVXVXVXVXVX",
"VXVXVXVXVXVXVXVXVXVXVXVXVXVXVXVXVXVXVXVXVXVXVXVXVXVXVXVXVXVXVXVXVXVX  & u f u u r 8 3 3 ^ ` @ VXVXVXVXVXVXVXVXVXVXVXVXVX",
"VXVXVXVXVXVXVXVXVXVXVXVXVXVXVXVXVXVXVXVXVXVXVXVXVXVXVXVXVXVXVXVXVXVX. r u u u r f F G P Y.!.5 VXVXVXVXVXVXVXVXVXVXVXVXVX",
"VXVXVXVXVXVXVXVXVXVXVXVXVXVXVXVXVXVXVXVXVXVXVXVXVXVXVXVXVXVXVXVXVXVX. r u S r R ^.MXBXNXNX!.& VXVXVXVXVXVXVXVXVXVXVXVXVX",
"VXVXVXVXVXVXVXVXVXVXVXVXVXVXVXVXVXVXVXVXVXVXVXVXVXVXVXVXVXVXVXVXVXVX. 6 a & O.R.zX~.w.Y.jX!.- VXVXVXVXVXVXVXVXVXVXVXVXVX",
"VXVXVXVXVXVXVXVXVXVXVXVXVXVXVXVXVXVXVXVXVXVXVXVXVXVXVXVXVXVXVXVXVXVX  + i _ R.xXbXT.0.U./.^.& VXVXVXVXVXVXVXVXVXVXVXVXVX",
"VXVXVXVXVXVXVXVXVXVXVXVXVXVXVXVXVXVXVXVXVXVXVXVXVXVXVXVXVXVXVXVXVXVX    K lXcXcXbXkXvX/./.e.2 VXVXVXVXVXVXVXVXVXVXVXVXVX",
"VXVXVXVXVXVXVXVXVXVXVXVXVXVXVXVXVXVXVXVXVXVXVXVXVXVXVXVXVXVXVXVXVXVXVX5 J gXcXxXmXxXR.E ^ F : VXVXVXVXVXVXVXVXVXVXVXVXVX",
"VXVXVXVXVXVXVXVXVXVXVXVXVXVXVXVXVXVXVXVXVXVXVXVXVXVXVXVXVXVXVXVXVXVX& O.q.( R.cXxXU./ ~ ~ ^ S VXVXVXVXVXVXVXVXVXVXVXVXVX",
"VXVXVXVXVXVXVXVXVXVXVXVXVXVXVXVXVXVXVXVXVXVXVXVXVXVXVXVXVXVXVXVXVXG O.~.hX#.R.mXnXT.] ~ ~ l i VXVXVXVXVXVXVXVXVXVXVXVXVX",
"VXVXVXVXVXVXVXVXVXVXVXVXVXVXVXVXVXVXVXVXVXVXVXVXVXVXVXVXh h g @ a O.lXkXcXcXcXxXR.vX/.] / l + VXVXVXVXVXVXVXVXVXVXVXVXVX",
"VXVXVXVXVXVXVXVXVXVXVXVXVXVXVXVXVXVXVXVXVXVXVXVXVXw % W <X4X}.h r.lXzXzXnXMXkXE.H 0.jXjXjXt.7 VXVXVXVXVXVXVXVXVXVXVXVXVX",
"VXVXVXVXVXVXVXVXVXVXVXVXVXVXVXVXVXVXVXVXVXVXVXVXT [.`.>XyXpX5X|. .J ^ T.cXkXq.G % F L P L G VXVXVXVXVXVXVXVXVXVXVXVXVXVX",
"VXVXVXVXVXVXVXVXVXVXVXVXVXVXVXVXVXVXVXVXVXVXVX[ C.4XiX6X3X3XOXeX[.*.*.@.#.9. .....g     X VXVXVXVXVXVXVXVXVXVXVXVXVXVXVX",
"VXVXVXVXVXVXVXVXVXVXVXVXVXVXVXVXVXVXVXVXVXVXW }.uX+X3X2XZ.%X3XqXdXsX9Xj.g 6 f.yXyXj.T z z VXVXVXVXVXVXVXVXVXVXVXVXVXVXVX",
"VXVXVXVXVXVXVXVXVXVXVXVXVXVXVXVXVXVXVXVX@ { 1XpX3X*X=XB.Y [.dX+XtXuX6XyX`.g (.tXwX5X5X<XX.w VXVXVXVXVXVXVXVXVXVXVXVXVXVX",
"VXVXVXVXVXVXVXVXVXVXVXVXVXVXVXVXVXVXVX$ o.oX0XOX=X%Xu.Q k.,XaXaXrXrXaXiX'.w (.iX+XpX+XyX>X(.- VXVXVXVXVXVXVXVXVXVXVXVXVX",
"VXVXVXVXVXVXVXVXVXVXVXVXVXVXVXVXVXVXg d.oXdX3XV.&.u.y.v.2X+XaXaXuXiXiXwX_.w ].aX2X[.h.2X+X_.- VXVXVXVXVXVXVXVXVXVXVXVXVX",
"VXVXVXVXVXVXVXVXVXVXVXVXVXVXVXVXVXz ..yXuX2XG.Q # $ v.-XsXaXuXiXuXrXiXuX|.w M.*Xk.E Y XX+X#XX.z VXVXVXVXVXVXVXVXVXVXVXVX",
"VXVXVXVXVXVXVXVXVXVXVXVXVXVXVXVXq ].7X+X2Xz.e q h 9 v.-XwXuXiXiXuXrXsXuXoX- p.J.Y - E J.2X6X<X} + VXVXVXVXVXVXVXVXVXVXVX",
"VXVXVXVXVXVXVXVXVXVXVXVXVXVXVXW |.5X6X*Xu.e VX% l k.*X+XrXwXiXiXiXuXeXwX#X- s.G.- G O.R z.OX9X .: VXVXVXVXVXVXVXVXVXVXVX",
"VXVXVXVXVXVXVXVXVXVXVXVXVXVXX.[.pX+X.Xu.Y VXVX  R ,X+XqXsXwXtXrXuXuXiXsX#Xw s.L.- +.7.& v.=X-X{.o.w VXVXVXVXVXVXVXVXVXVX",
"VXVXVXVXVXVXVXVXVXVXVXVXl { _.8X XC.p.y VXVXVX  U 4XuXuXuXwXrXiXuXuXrX>XM.[ Z.L.8 G VX& ' V.:X3X_.- VXVXVXVXVXVXVXVXVXVX",
"VXVXVXVXVXVXVXVXVXVXVX. W >XOXZ.U t w VXVXVXVX  T 4XuXuXwXsXuXuXuXtXtXa.T ,X-XG.9 k VXVX8 E Z.:XG.h VXVXVXVXVXVXVXVXVXVX",
"VXVXVXVXVXVXVXVXVXVXVX  U $X3X7X|.) $ VXVXVXVX  T 4XuXuXtXsXaXuXiXdXyX..T @X-XK.9 j VXVXVXVXe b.XX#X) # VXVXVXVXVXVXVXVX",
"VXVXVXVXVXVXVXVXVXVXVXVXh ' J.6XaX}   VXVXVXVX  T 4XuXwXrXsX6XwXiX8Xm.N.C.@X-XK.9 VXVXVXVXVXt Q a.*X{.*.w VXVXVXVXVXVXVX",
"VXVXVXVXVXVXVXVXVXVXVXVXVX* | k.{. .L VXVXVXVX  T 5XrXwXtXwXaXrXrX#Xe (.6X=X:XK.Q Y VXVXVXVXVX@ l P.3X|.- VXVXVXVXVXVXVX",
"VXVXVXVXVXVXVXVXVXVXVXVXVXVX- % @ 9.!.& VXVXVX  T <X0XuXiXuXwXuX5X).z `.+X=X;X&XP.Q   VXVXVXVXVXY J.2X'.U y VXVXVXVXVXVX",
"VXVXVXVXVXVXVXVXVXVXVXVXVXVXVX5 % q.E.6 VXVXVX  T 5X+XdXpXaXiX0Xh.} _.5X6X=X;X;XH.Q # VXVXVXVXVXVXe [.tX#X[ . VXVXVXVXVX",
"VXVXVXVXVXVXVXVXVXVXVXVXVXVXVXVX7 J O.O.K VXVX  T 5XdXsXrXdXqX0XX.T 9X6X-X-X=XP.S.y.! 8 VXVXVXVXVX# m.,X*.s . VXVXVXVXVX",
"VXVXVXVXVXVXVXVXVXVXVXVXVXVXVXVXVXVX% r.O.J VX@ g M. X_.9XpXiX9Xh...l..X=X;X=XP.S.S.i.8 VXVXVXVXVX8 | x.f a % VXVXVXVXVX",
"VXVXVXVXVXVXVXVXVXVXVXVXVXVXVXVXVXVXVX* t.!.& 5 6 - q } yXiXwXeX6X).q p.=XP.&XA.S.S.i.8 VXVXVXVXVXVX& q Q.fXVXo VXVXVXVX",
"VXVXVXVXVXVXVXVXVXVXVXVXVXVXVXVXVXVXVX. r.e.- 8.Y.= *.>XsXuXiXsXpX_.9 p.=X&XH.S.S.S.c.& ; ; VXVXVXVX@ & VXVXVX. VXVXVXVX",
"VXVXVXVXVXVXVXVXVXVXVXVXVXVXVXVXVXVXVXVX& & ` hXjXt.@.h.5XtXaXwX+X).r p.&XH.D.F.D.y.f m b v ,   VXVXVXVXj VXVX. VXVXVXVX",
"VXVXVXVXVXVXVXVXVXVXVXVXVXVXVXVXVXVXVXVXVX  _ 9.E.kX_ q h.,X6X3X-XJ.! u.b.F.F.b.' e : N ,.B b 4 4 VXVXo # VXVX. VXVXVXVX",
"VXVXVXVXVXVXVXVXVXVXVXVXVXVXVXVXVXVXVXVXVXVX$ % k E.O.$ & M.3XOX;X;X%XQ Y b.F.' & % 4 c N C Z >.V 1 ; % o % VXw 6 VXVXVX",
"VXVXVXVXVXVXVXVXVXVXVXVXVXVXVXVXVXVXVXVXVXVXVX+ > 7 &.O.: m.=X=X;XP.I.R e v.! r < , < , x m x N -.;.A M ; 2 f VXi O VXVX",
"VXVXVXVXVXVXVXVXVXVXVXVXVXVXVXVXVXVXVXVXVXVXX > b m K a : h i.%XP.H.n.E & f r < 4 , 2 2 2 2 : x A -.-.-.A < * VX&     VX",
"VXVXVXVXVXVXVXVXVXVXVXVXVXVXVXVXVXVXVXVXVXVXX < VXVXb c c c l &.u.y.' s @ X : 2 , , , 2 2 2 : < x N B -.-.x % y &     VX",
"VXVXVXVXVXVXVXVXVXVXVXVXVXVXVXVXVXVXVXVXVXVX  < VXVXA -.;.-.n , : o # . X   X 5 + , O O : : : : ; x B -.=.b o # # .   VX",
"VXVXVXVXVXVXVXVXVXVXVXVXVXVXVXVXVXVXVXVXVXVX  < VXVX=.;.;.-.C 1 ; X   X X         X   X o X . o X c A -.B < o VX#     VX",
"VXVXVXVXVXVXVXVXVXVXVXVXVXVXVXVXVXVXVXVXVXVXX < VXVX=.=.>.:.M < o   VXVXVXVXVXVXVXVXVXVXo o o o : 1 N A b o . VX#     VX",
"VXVXVXVXVXVXVXVXVXVXVXVXVXVXVXVXVXVXVXVXVXVX  < VXVX:.B :.B m 2 @ VXVXVXVXVXVXVXVXVXVXVXo   o < b b v < 1   . VX# .   VX",
"VXVXVXVXVXVXVXVXVXVXVXVXVXVXVXVXVXVXVXVXVXVX  4 1.2.<.=.=.b <   VXVXVXVXVXVXVXVXVXVXVXVX% 3 S m V A <   VX  . VX* .   VX",
"VXVXVXVXVXVXVXVXVXVXVXVXVXVXVXVXVXVXVXVXVXVX> v 1.1.:.B C n :   VXVXVXVXVXVXVXVXVXVXVX@ i ` ^._ : ; VXVXVXVX7 & . .   VX",
"VXVXVXVXVXVXVXVXVXVXVXVXVXVXVXVXVXVXVXVXVX5 M VX:.:.:.Z v > > VXVXVXVXVXVXVXVXVXVXVXVX. l $.mX(   VXVXVXVXVXo     VXVXVX",
"VXVXVXVXVXVXVXVXVXVXVXVXVXVXVXVXVXVXVXVXO O VXVX<.<.<.A 4 X X VXVXVXVXVXVXVXVXVXVXVX3 u ` 8.8.y VXVXVXVXVXVX    VXVXVXVX",
"VX  7 j k i k j k i p i p k i p k k i VXO O VX1.<.<.-.b >     VXVXVXVXVXVXVXVXVXVX  0 ) T.!.* VXVXVXVXVXVXVXVXVXVXVXVXVX",
"VX@ w.vXjXjXjXhXgXR.jXjXvXvXjXjXjX/.w.t @ 4 1.1.:.<.N ,   VXVXVXVXVXVXVXVXVXVXVXVX  & ) U.e.& VXVXVXVXVXVXVXVXVXVXVXVXVX",
"VX@ w.nXbXmX~.( ( J ( Y.MXcXcXmXcX0.P 6.7 4 5.3.=.,.b X @ VXVXVXVXVXVXVXVXVXVXVXVXo 8 / ( H VXVXVXVXVXVXVXVXVXVXVXVXVXVX",
"VX. w.nXbXY.O.6   + 7 _ 9.9.~.lX9.G C 4.4.D 4.1.B V 4 O + VXVXVXVXVXVXVXVXVXVXVX5 i l ] y . VXVXVXVXVXVXVXVXVXVXVXVXVXVX",
"VXs Y.xXY.K $ VXVXVXVX3   & 9.q.6 M ,.-.5.5.-.V b 4 O X VXVXVXVXVXVXVXVXVXVXVXVXo d #.R.t   VXVXVXVXVXVXVXVXVXVXVXVXVXVX",
"l R.zXe.= VXVXVXVXVXVXVXVXVX7 5 O n <.<.<.,.-.N < :     VXVXVXVXVXVXVXVXVXVXVXVX. s #./.K   VXVXVXVXVXVXVXVXVXVXVXVXVXVX",
"d hX$.& VXVXVXVXVXVXVXVXVXVXVXVXVX, b Z Z Z m < O X   VXVXVXVXVXVXVXVXVXVXVXVXVX  d ) $.8._ o VXVXVXVXVXVXVXVXVXVXVXVXVX",
"s /.%.y VXVXVXVXVXVXVXVXVXVXVXVXVXVXv x x v , o O O VXVXVXVXVXVXVXVXVXVXVXVXVXVX. H / / 8.8.y 3   VXVXVXVXVXVXVXVXVXVXVX",
"VXVXVXVX. VXVXVXVXVXVXVXVXVXVXVXVXVXVX; X     X X VXVXVXVXVXVXVXVXVXVXVXVXVXVXVX. d ( / / ) H 2     VXVXVXVXVXVXVXVXVXVX"
};
