/* XPM */
static char *f573c942488e4f59827ddd6eb5e01d40zV5UU0AlNYSTBiUM[] = {
/* columns rows colors chars-per-pixel */
"60 60 162 2 ",
"   c None",
".  c #1D1F3D",
"X  c #221E3F",
"o  c #24223E",
"O  c #2D233E",
"+  c #272738",
"@  c #3C243E",
"#  c #342B3E",
"$  c #37313D",
"%  c #42243F",
"&  c #6D2A3E",
"*  c #1E1F42",
"=  c #211F45",
"-  c #1F2342",
";  c #252342",
":  c #2C2344",
">  c #262941",
",  c #2A2C40",
"<  c #262248",
"1  c #29244C",
"2  c #2C2A4D",
"3  c #332442",
"4  c #3E2542",
"5  c #342842",
"6  c #392A44",
"7  c #3D2A49",
"8  c #2C2753",
"9  c #2D2853",
"0  c #2E275A",
"q  c #2E295C",
"w  c #322C5A",
"e  c #2F3058",
"r  c #3A3350",
"t  c #33335A",
"y  c #3D3C59",
"u  c #342D63",
"i  c #352E69",
"p  c #392F6B",
"a  c #393167",
"s  c #35316C",
"d  c #39326E",
"f  c #3E3D69",
"g  c #382F73",
"h  c #3A3271",
"j  c #3F367C",
"k  c #3F3B75",
"l  c #432543",
"z  c #462A45",
"x  c #452B48",
"c  c #4A2C48",
"v  c #562946",
"b  c #5C2A44",
"n  c #4F3D4C",
"m  c #5D3C44",
"M  c #403752",
"N  c #652A45",
"B  c #6C2B43",
"V  c #662648",
"C  c #622A48",
"Z  c #722D45",
"A  c #6C314D",
"S  c #74344B",
"D  c #7C3C55",
"F  c #793E59",
"G  c #753B55",
"H  c #41367E",
"J  c #42387E",
"K  c #4B424C",
"L  c #564049",
"P  c #5C474E",
"I  c #544A50",
"U  c #4F5051",
"Y  c #6F4E4C",
"T  c #7D464D",
"R  c #7C494C",
"E  c #6F554F",
"W  c #7D4156",
"Q  c #69635C",
"!  c #7C6556",
"~  c #434061",
"^  c #4E4968",
"/  c #47466C",
"(  c #54526E",
")  c #484C76",
"_  c #454079",
"`  c #46497B",
"'  c #49497A",
"]  c #474572",
"[  c #4E5079",
"{  c #595874",
"}  c #5C5D78",
"|  c #67607F",
" . c #884547",
".. c #83444D",
"X. c #81494B",
"o. c #824054",
"O. c #884559",
"+. c #8F485A",
"@. c #85435A",
"#. c #815F54",
"$. c #B85F4E",
"%. c #B25E5B",
"&. c #976058",
"*. c #887F5F",
"=. c #B9634D",
"-. c #A7765D",
";. c #B77E5F",
":. c #877868",
">. c #897F6A",
",. c #A67461",
"<. c #B17D61",
"1. c #C05B53",
"2. c #CF6C5A",
"3. c #C96254",
"4. c #CD7A5C",
"5. c #D07D58",
"6. c #D4765E",
"7. c #C97960",
"8. c #D47F62",
"9. c #B1845F",
"0. c #BA9167",
"q. c #AEA47A",
"w. c #B0A075",
"e. c #B7AA79",
"r. c #CC815F",
"t. c #CF8B65",
"y. c #C68D68",
"u. c #D58366",
"i. c #CD9E6C",
"p. c #DC9D6C",
"a. c #DC9469",
"s. c #D19971",
"d. c #D39270",
"f. c #EAB57E",
"g. c #EFBA7E",
"h. c #423783",
"j. c #443984",
"k. c #453B89",
"l. c #483D8D",
"z. c #484484",
"x. c #514D85",
"c. c #544A96",
"v. c #565095",
"b. c #595092",
"n. c #5A5996",
"m. c #5B559D",
"M. c #5B589F",
"N. c #605D86",
"B. c #625E89",
"V. c #696687",
"C. c #74728F",
"Z. c #6C6A98",
"A. c #747192",
"S. c #5C56A2",
"D. c #5C58A3",
"F. c #6861A6",
"G. c #7D75B4",
"H. c #817DB3",
"J. c #8985B7",
"K. c #8B88BC",
"L. c #F4E591",
"P. c #9793C8",
/* pixels */
"                                                                                                                        ",
"                                                                                                                        ",
"                                                                                                                        ",
"                                                                                                                        ",
"                                                                                                                        ",
"                                                                                                                        ",
"                                                                                                                        ",
"                                                                                                                        ",
"                                                                                                                        ",
"                                                                                                                        ",
"                                                                                                                        ",
"                                                                                                                        ",
"                                                                                                                        ",
"                                                                                                                        ",
"                                                                                                                        ",
"                                                                                                                        ",
"                                                                                                                        ",
"                                                                                                                        ",
"                                                                                                                        ",
"                                                    , { A.C.V.y                                                         ",
"                                  } N.' ` ` ` ` ` ) t ] H.K.Z.w / ' ' ` ` ` ' [ V.                                      ",
"                                  V.G.m.M.M.D.D.S.n.f u z.v.k q x.D.D.D.D.S.S.F.H.f                                     ",
"                                - _ c.j.J h d h g a 9 0 p h w 1 i h d d d h k.l.b.w                                     ",
"                                ; s k.H u 1 ; ; 1 ; o ; < < ; o ; ; ; ; ; 2 h h.j.0                                     ",
"                                  i j.h < o o o o o o ; o o o ; ; ; ; ; ; ; 0 h.h.0                                     ",
"                                  s k.h ; o ; ; ; ; < < ; o ; ; ; ; ; ; ; o 8 k.h.0                                     ",
"                                ; p k.h ; ; ; ; ; o < < o o o o ; ; ; ; ; o 9 h.J 0                                     ",
"                                ; p k.h ; ; ; ; ; + o 1 ; o ; ; o o ; ; ; ; 0 h.J 0                                     ",
"                                ; p k.h ; ; ; ; < ; ; : 3 ; # # ; ; ; ; ; ; 0 h.J 0                                     ",
"                                ; i k.h ; ; ; ; ; ; * Q >.I e.q.K ; ; ; ; ; 0 h.J 0                                     ",
"                                > i k.s ; ; ; o o ; X ! i.0.L.L.e.K o ; ; ; 8 h.J 8                                     ",
"                                > 8 q 8 o . $ :.n = P ;.t.t.f.g.f.w.U X L E : w w :                                     ",
"                                + ^ V.( : 3 Y y.,.*.9.6.y.s.4.5.a.p.-.#.<.,.M V.| r                                     ",
"                                > B.P.Z.7 W %.$.4.p.r.1.7.d.=.=.4.3.2.8.u.&.~ K.J.y                                     ",
"                                > _ D.z.6 R  ...X...T R ..X.T T ..T T ..X.m t S.m.e                                     ",
"                                ; i k.p : @ % l 4 x x 4 4 4 4 l c l 4 @ 4 3 9 j.h.9                                     ",
"                                ; i k.p @ N Z N B D D B B N B Z @.S B B B v 9 j.h.9                                     ",
"                                ; i k.d 5 b B B B O.o.& B B & Z +.S & B N z 9 j.h.9                                     ",
"                                ; u H i ; @ v V N F G N N C N N W A N b l O 9 j j 9                                     ",
"                                  ; 2 ; o o O 3 3 6 6 3 3 3 3 3 6 3 3 : ; o ; 1 1 ;                                     ",
"                                                                                                                        ",
"                                                                                                                        ",
"                                                                                                                        ",
"                                                                                                                        ",
"                                                                                                                        ",
"                                                                                                                        ",
"                                                                                                                        ",
"                                                                                                                        ",
"                                                                                                                        ",
"                                                                                                                        ",
"                                                                                                                        ",
"                                                                                                                        ",
"                                                                                                                        ",
"                                                                                                                        ",
"                                                                                                                        ",
"                                                                                                                        ",
"                                                                                                                        ",
"                                                                                                                        ",
"                                                                                                                        ",
"                                                                                                                        "
};
