/* XPM */
static char *_3585aebc4b44036d5ddcc66053f717a95i0lQrYPMtbUxIT[] = {
/* columns rows colors chars-per-pixel */
"60 60 169 2 ",
"   c None",
".  c #251E3F",
"X  c #281F3B",
"o  c #24223C",
"O  c #2C223E",
"+  c #35243F",
"@  c #3B243E",
"#  c #45263E",
"$  c #562E3F",
"%  c #6A273F",
"&  c #6C293E",
"*  c #70283F",
"=  c #231E40",
"-  c #1E2441",
";  c #242243",
":  c #2A2343",
">  c #252945",
",  c #2A2B42",
"<  c #25254A",
"1  c #2A244B",
"2  c #27294B",
"3  c #2B2C4B",
"4  c #362543",
"5  c #3B2544",
"6  c #332549",
"7  c #312D4F",
"8  c #3B274A",
"9  c #32364D",
"0  c #3D314B",
"q  c #2C2A55",
"w  c #2D2C5A",
"e  c #322B54",
"r  c #312B5B",
"t  c #33335C",
"y  c #39365F",
"u  c #353B5F",
"i  c #332D63",
"p  c #392E65",
"a  c #353165",
"s  c #393062",
"d  c #3B3B64",
"f  c #34326B",
"g  c #363767",
"h  c #323071",
"j  c #3A3674",
"k  c #393B72",
"l  c #3D357A",
"z  c #432544",
"x  c #4A2443",
"c  c #432845",
"v  c #432D4A",
"b  c #4D2D4B",
"n  c #4C2946",
"m  c #572F46",
"M  c #552D4D",
"N  c #5B2B46",
"B  c #45304A",
"V  c #4F3048",
"C  c #513247",
"Z  c #5F3147",
"A  c #55334C",
"S  c #58354D",
"D  c #59394F",
"F  c #453252",
"G  c #652B45",
"H  c #6A2A44",
"J  c #652B48",
"K  c #6D2D4B",
"L  c #722A42",
"P  c #6E3246",
"I  c #6D324C",
"U  c #783646",
"Y  c #73334B",
"T  c #7B374C",
"R  c #783551",
"E  c #7C3D55",
"W  c #40367F",
"Q  c #403F7F",
"!  c #423C77",
"~  c #3D426D",
"^  c #7E4659",
"/  c #40426E",
"(  c #4A4768",
")  c #474465",
"_  c #544D6B",
"`  c #434274",
"'  c #484474",
"]  c #494679",
"[  c #464E7D",
"{  c #4B4D7C",
"}  c #43437B",
"|  c #4D537F",
" . c #833D4D",
".. c #87444E",
"X. c #93474E",
"o. c #94534D",
"O. c #8C4553",
"+. c #87485F",
"@. c #864757",
"#. c #954D56",
"$. c #964F5B",
"%. c #9A4F55",
"&. c #9B565C",
"*. c #9F5A5D",
"=. c #97555C",
"-. c #A45D5C",
";. c #A7635D",
":. c #BA6C54",
">. c #B36653",
",. c #BF7053",
"<. c #A75F60",
"1. c #AE6761",
"2. c #B16963",
"3. c #C0715A",
"4. c #C8785A",
"5. c #C77B67",
"6. c #CD8363",
"7. c #C7816A",
"8. c #D88C67",
"9. c #D58E6A",
"0. c #D88E6A",
"q. c #D68A63",
"w. c #DB936A",
"e. c #DF986D",
"r. c #E2996C",
"t. c #E49870",
"y. c #3D3A85",
"u. c #443686",
"i. c #413985",
"p. c #43398C",
"a. c #4B4E82",
"s. c #4D4582",
"d. c #53558F",
"f. c #535B82",
"g. c #4D4690",
"h. c #58529E",
"j. c #5B5D99",
"k. c #5B5C92",
"l. c #635E9E",
"z. c #6B6A8E",
"x. c #726E8E",
"c. c #67629B",
"v. c #716C9B",
"b. c #7F7293",
"n. c #6662A7",
"m. c #6666AD",
"M. c #6A67AC",
"N. c #6769AB",
"B. c #686AAD",
"V. c #726DA0",
"C. c #716EAE",
"Z. c #7273AC",
"A. c #676BB0",
"S. c #6A68B1",
"D. c #6B71B1",
"F. c #7C7DB7",
"G. c #7475B4",
"H. c #837F97",
"J. c #827EB6",
"K. c #8885AD",
"L. c #8D8CB4",
"P. c #8781BB",
"I. c #9B95BD",
"U. c #A299BB",
"Y. c #A29CC3",
"T. c #A6A1CE",
"R. c #AFA4CA",
"E. c #B5AAC4",
"W. c #B0A9D1",
/* pixels */
"                                                                                                                        ",
"                                                                                                                        ",
"                                                                                                                        ",
"                                                                                                                        ",
"                                                                                                                        ",
"                                                                                                                        ",
"                                                                                                                        ",
"                                                                                                                        ",
"                                                                                                                        ",
"                                                                                                                        ",
"                                                                                                                        ",
"                                                                                                                        ",
"                                                                                                                        ",
"                                                                                                                        ",
"                                                                                                                        ",
"                                                                                                                        ",
"                                                                                                                        ",
"                                                                                                                        ",
"                                                                                                                        ",
"                                  s ` d > ,     , , , , , , , , , , , , , , , > t { a.                                  ",
"                                2 s.n.[ - O @ V D A z A S S S S S n b S C # + ; k B.A.g                                 ",
"                                3 V.P.f.; x @.;.2.-...<.2.2.2.2.1.X.%.2.;.o.$ : / J.F.d                                 ",
"                                9 L.W.x.4 I 7.e.r.q.:.8.r.e.e.r.e.,.4.t.r.w...@ _ R.Y.(                                 ",
"                                9 K.T.z.5 Y 5.0.w.6.>.6.9.9.9.9.9.:.3.0.w.9.O.x _ Y.I.)                                 ",
"                                2 c.G.| 5 J #.&.*.#.T $.&.&.=.&.&. .O.&.&.&.R z d Z.Z.d                                 ",
"                                3 k.D.a.: @ Z P P H H I M 0 0 b J H P P P K c o d N.m.y                                 ",
"                                7 j.D.a.; X @ 5 5 5 8 4 ' z.H.b.F 4 4 + 5 5 : o d S.m.y                                 ",
"                                e j.D.a.< ; ; w f k ] q d.L.E.U.u ~ ` a t : o o d M.M.y                                 ",
"                                , ~ [ d : : ; f i.g.c.r } J.Y.v.t d.h.i.j 1 = O e ] ' 7                                 ",
"                                o q w q . : = w f k { 2 i l.C.! 1 ` Q h a < ; o 1 i q <                                 ",
"                                < l i.a : 6 4 4 4 5 B 5 p j k s 8 v v 5 5 @ + O r i.W q                                 ",
"                                < l p.p 5 M J G H Y @.I z 6 6 z m ^ E H H H J # q y.u.e                                 ",
"                                < l p.p 4 M H * & U +.Y G G G H L O. .% H H J # w y.u.e                                 ",
"                                < j u.i o 5 N J H Y +.Y H H G H H ..T H K J z O r i.l q                                 ",
"                                  q w 1 ; : 4 5 5 c v 8 5 @ @ @ 4 v 8 5 8 5 : o 1 r q o                                 ",
"                                                                                                                        ",
"                                                                                                                        ",
"                                                                                                                        ",
"                                                                                                                        ",
"                                                                                                                        ",
"                                                                                                                        ",
"                                                                                                                        ",
"                                                                                                                        ",
"                                                                                                                        ",
"                                                                                                                        ",
"                                                                                                                        ",
"                                                                                                                        ",
"                                                                                                                        ",
"                                                                                                                        ",
"                                                                                                                        ",
"                                                                                                                        ",
"                                                                                                                        ",
"                                                                                                                        ",
"                                                                                                                        ",
"                                                                                                                        ",
"                                                                                                                        ",
"                                                                                                                        ",
"                                                                                                                        ",
"                                                                                                                        ",
"                                                                                                                        "
};
