/* XPM */
static char *c1f00f540ba94a64b1630ca2c68f924f3ykwp3aWQXTU0aS9[] = {
/* columns rows colors chars-per-pixel */
"60 60 208 2 ",
"   c None",
".  c #2A1F3F",
"X  c #221F3E",
"o  c #301F3D",
"O  c #1E243E",
"+  c #24233D",
"@  c #2C223E",
"#  c #21293D",
"$  c #3B233D",
"%  c #35243D",
"&  c #43253E",
"*  c #5F2A3F",
"=  c #6C2B3F",
"-  c #241F42",
";  c #2C1F42",
":  c #1D2D53",
">  c #252241",
",  c #2C2342",
"<  c #232943",
"1  c #292B44",
"2  c #25254B",
"3  c #29254C",
"4  c #25294C",
"5  c #292B4C",
"6  c #342543",
"7  c #3C2543",
"8  c #3C2C45",
"9  c #3E2648",
"0  c #3D2C4A",
"q  c #342948",
"w  c #2B3444",
"e  c #2C324C",
"r  c #2F3844",
"t  c #333546",
"y  c #33344A",
"u  c #363C4C",
"i  c #3A3C4F",
"p  c #303845",
"a  c #252753",
"s  c #2B2653",
"d  c #262A54",
"f  c #2A2A54",
"g  c #2B2759",
"h  c #262B59",
"j  c #2B2B5B",
"k  c #322A56",
"l  c #312B5D",
"z  c #312655",
"x  c #2C3151",
"c  c #2C315D",
"v  c #263356",
"b  c #343953",
"n  c #3A3D51",
"m  c #2C2E63",
"M  c #2C2E69",
"N  c #2B2B62",
"B  c #322D63",
"V  c #352E69",
"C  c #263366",
"Z  c #2C3265",
"A  c #2C336B",
"S  c #2E396D",
"D  c #273767",
"F  c #31336D",
"G  c #313A6B",
"H  c #353165",
"J  c #2D3572",
"K  c #2E3B73",
"L  c #263C72",
"P  c #313573",
"I  c #3C3573",
"U  c #323B75",
"Y  c #333D7A",
"T  c #3F3B7A",
"R  c #422542",
"E  c #4D2543",
"W  c #4C2943",
"Q  c #422B48",
"!  c #452B48",
"~  c #5E2744",
"^  c #5C2A44",
"/  c #532743",
"(  c #4C304C",
")  c #5B374F",
"_  c #6F2747",
"`  c #622C44",
"'  c #6B2B45",
"]  c #642744",
"[  c #712B43",
"{  c #702747",
"}  c #663B52",
"|  c #6C3E53",
" . c #723E50",
".. c #433C7C",
"X. c #41387C",
"o. c #3C414D",
"O. c #364049",
"+. c #3D4255",
"@. c #2E4174",
"#. c #2D417A",
"$. c #2F4D7F",
"%. c #324276",
"&. c #33427C",
"*. c #36467A",
"=. c #42465B",
"-. c #495459",
";. c #724059",
":. c #7C4858",
">. c #525C64",
",. c #4C4C6F",
"<. c #854255",
"1. c #8A4253",
"2. c #864258",
"3. c #844C5B",
"4. c #8C4D5B",
"5. c #8A4757",
"6. c #924E5B",
"7. c #9F4F5C",
"8. c #8D505F",
"9. c #95515D",
"0. c #99515E",
"q. c #955161",
"w. c #995362",
"e. c #3E3780",
"r. c #433A84",
"t. c #453C89",
"y. c #483E8D",
"u. c #2E4182",
"i. c #364584",
"p. c #394585",
"a. c #374A85",
"s. c #394A85",
"d. c #354B89",
"f. c #3B4D8B",
"g. c #3A4788",
"h. c #365284",
"j. c #36518F",
"k. c #3B538D",
"l. c #3B5A8E",
"z. c #385083",
"x. c #3C4D91",
"c. c #3C5394",
"v. c #3D5995",
"b. c #3D5498",
"n. c #3C5A9A",
"m. c #365494",
"M. c #3F639B",
"N. c #3C66A6",
"B. c #4B448C",
"V. c #444A89",
"C. c #534B87",
"Z. c #58518F",
"A. c #4B4690",
"S. c #474D93",
"D. c #415394",
"F. c #415A94",
"G. c #415B9B",
"H. c #415098",
"J. c #55549B",
"K. c #595190",
"L. c #534E98",
"P. c #43629A",
"I. c #426599",
"U. c #615FA9",
"Y. c #4365A3",
"T. c #456AA6",
"R. c #456CAB",
"E. c #486DAE",
"W. c #4B6EAA",
"Q. c #4B6AA6",
"!. c #4673AB",
"~. c #4C73AC",
"^. c #4576AA",
"/. c #5070AE",
"(. c #4C74B3",
"). c #4779B4",
"_. c #4A7AB5",
"`. c #4D7DBB",
"'. c #4775B2",
"]. c #5074B2",
"[. c #527BB5",
"{. c #537EBB",
"}. c #5A7AB9",
"|. c #6061A6",
" X c #6163A9",
".X c #6769AB",
"XX c #696AAD",
"oX c #6B6CB1",
"OX c #676AB0",
"+X c #7575B3",
"@X c #7473AB",
"#X c #4B7DC0",
"$X c #807CB0",
"%X c #4E87BE",
"&X c #4E81BD",
"*X c #4F88BF",
"=X c #5284BE",
"-X c #5081B7",
";X c #4F8AC2",
":X c #548CC4",
">X c #5A8CC5",
",X c #538DCA",
"<X c #5481C0",
"1X c #8080B5",
"2X c #8985B3",
"3X c #928BBB",
"4X c #9998BF",
"5X c #9291B9",
/* pixels */
"                                            2 < < < < 2 3 2 + 2 < < < < 2 3                                             ",
"                                  5 -.=.2 5 Z A A A Z C Z f 2 j Z A A A A F f > y                                       ",
"                              < 5 j f f j G _.*X%X%X=X[.f.d 2 U _.*X%X%X;X%Xh.j k y 5 f <                               ",
"                        + 1 c Z m m 2 h M U Y.E.E.E.E.R.i.s 3 J Y.E.E.E.E.R.$.C B 2 j M j d 4 <                         ",
"                      5 j C F.{.R.L h s N J x.c.c.c.c.m.U s 3 A f.c.c.c.c.f.U h a d F G._.T.A h v                       ",
"                  u 5 G ^.'.).).).W.*.s s A i.f.c.c.c.k.U s a F f.c.H.D.c.p.F a a Z M.).).).!.~.a.: e                   ",
"                y 5 %.!._.`.Y.m.G.(.&.j f f C U Y Y &.Y P f 2 A Y &.&.&.Y A j f j A T.Y.m.n.(.`.(.l.v b y               ",
"            y s h z.~.'.H.x.c.v.c.m.J Z j 2 d m Z C A M j 5 < h M C C C A M s s B J x.c.m.m.H.c.R._.P.Z f x             ",
"          e 4 f D v.Q.v.v.c.c.c.x.p.F m f 2 2 3 f h h f 2 > + 2 f h h h h s , 3 j M u.f.D.c.c.m.c.N.Q.K N d f           ",
"        1 a N 3 h C U s.c.c.c.f.i.V N s > + + > > > > > > > > > > > > > > + + + , s Z Y f.c.c.m.a.Y M j s d h ,         ",
"        x S k.h.h f B P i.s.p.Y C h s 2 > + > > > > > > > > > > > > > > > 2 > + + > f Z U p.a.a.K m f d %.j.*.f i       ",
"      1 d l.>X=Xl.Z f j C C Z Z h 2 2 > > > > > > > > > > > > > > > > > > > > 2 > + > f M A J A m f h $.).,XW.F 3       ",
"      4 U f.n.N.{.M.D 5 j j j f 2 + + > > > > > > > > > > > > > > > > > > + > 2 2 > @ 2 s m M m g m s.{.R.v.l.%.j x     ",
"    2 C W.].m.c.G._.I.j > > > 2 > @ @ > 2 2 > > > > > > > > > > > > > > > > > > > > > > > 2 2 > d d.}.Y.b.c.Y.}.#.d     ",
"  n 2 C d.n.v.c.b.n.s.N 2 > X @ 7 / R @ > 2 > > > > > > > > > > > > > > > > > > > > > > > > > > a #.n.v.c.v.v.D.K d e   ",
"  5 j A J &.V.f.j.Y F j 2 > 6 R ^ ' ^ 7 + > > > > > > > > > > > > > > > > > > > > > > > > > > > 3 Z K g.f.k.p.J A M f   ",
"  3 A M A A U U L F l 2 > @ ) | = ' ` R @ , > > > > > > > > > > > > > > > > > > > > > > > > > > 3 f Z J P P F Z m M h   ",
"  n 5 5 2 j Z A Z f 2 > , | 6.1.= ' ' R 7 W , > > > > > > > > > > > > > > > > > > > > > > > > + > 2 s N M M j 3 4 5 x   ",
"  y f f d f a d a 2 > + % :.7.1.' ' ' R 7 ^ , > > > > > > > > > > > > > > > > > > > > > > > > > > + > 3 5 < a h N j x   ",
"e 2 M C C Z j a 2 2 > 6 } 8.0.1.' ' ' R 7 ^ , > > > > > > > > > > > > > > > > > > > > > > > > > , + + > s h m Z F M h O ",
"y 2 K Y.'.!.P.Z h 2 > 8 4.0.9.<.' ' ' R 7 ^ , > > > > > > > > > > > > > > > > > > > > > > > > + + + 2 s V V.~.!.!.i.d > ",
"t 2 L W.`.`._.P.S 2 > 8 4.0.w.2.[ ' ' R R ^ , > > > > > > > > > > > > > > > > > > > > > > > > > + + 2 B F.~.{.`.#Xs.a # ",
"y 3 A f.m.m.G.!.@.3 > 8 4.9.w.<.[ = = & R ^ , > > > > > > > > > > > > > > > > > > > > > > > > 2 + # 2 Z T.T.c.H.c.Y a # ",
"y 3 A f.c.c.c.m.A s > 8 6.w.w.<.[ ' ' & R ^ , > > > > > > > > > > > > > > > > > > > > > > > > 2 + # 2 m g.c.H.H.c.Y a # ",
"y 3 A f.c.c.c.D.F f > q | ;.;.} ^ E ` R R ^ , > > > > > > > > > > > > > > > > > > > > > > > > 2 + # 2 m g.b.c.c.c.Y a # ",
"y 2 A i.a.a.s.p.Z 5 > , z z k k s @ W 7 R ^ , > > > > > > > > > > > > > > > > > > > > > > > > 2 > + 2 m &.d.a.a.g.U f # ",
"p 4 M A A A A A j 2 2 H C.Z.Z.K.C.k 2 > 7 ^ , > > > > > > > > > > > > > > > > > > > > > > > > > > 2 3 s Z C C C A A d < ",
"O.e j j j j j j 2 2 j C.5X4X4X4X2X..N 2 7 ^ , > > > > > > > > > > > > > > > > > > > > > > > > > > > 2 2 j j j j j j 5 w ",
">.=.4 2 2 2 2 2 > > B B.oX+X+X+XXXy.X.j 7 ~ , > > > > > > > > > > > > > > > > > > > > > > > > > > > > > 2 2 2 2 2 4 b -.",
"u 5 m A S S S Z 4 > l B. XOXoXoX Xy.r.B 7 ~ , > > > > > > > > > > > > > > > > > > > > > > > > > > > > 2 Z G G G S Z f w ",
"t 2 K ].:X;X:X[.@.2 l r.A.|.oXoXU.y.X.j 9 * , > > > > > > > > > > > > > > > > > > > > > > > > > + + 2 c !.,X,X,X:Xf.a # ",
"t 2 A M.N.N.R.Y.U s k T r.B.A.A.A.T l 2 9 ^ , > > > > > > > > > > > > > > > > > > > > > > > > > + + 2 Z v.T.T.T.Y.&.d # ",
"t 5 A f.c.b.H.f.P s 3 B r.t.t.r.e.j > > 9 ^ , > > > > > > > > > > > > > > > > > > > > > > > > > + + 2 m a.m.m.m.j.Y d # ",
"u 4 C f.v.c.c.z.J 5 + 2 l l l l s ; Q q R ^ , > > > > > > > > > > > > > > > > > > > > > > > > > + + 2 m a.c.c.c.m.Y d # ",
"u 5 S s.D.D.k.f.S 2 + 6 } } } ) E E ` R R ^ , > > > > > > > > > > > > > > > > > > > > > > > > 2 + + 3 B g.c.c.c.c.U a # ",
"i 2 A Y &.&.Y Y Z 5 > Q 4.9.w.2.{ ' ' R 7 ^ , > > > > > > > > > > > > > > > > > > > > > > > > 2 > + 3 l U %.%.%.%.J h < ",
"u < m A A Z Z Z f 2 > Q 4.9.9.2._ ' ' R 7 ^ , > > > > > > > > > > > > > > > > > > > > > > > > > > + , s m C C C C M h # ",
"-.u f f f f f f 2 > > 0 4.9.9.2._ ' ' R 7 ^ , > > > > > > > > > > > > > > > > > > > > > > > > > > > > 2 f h h h h h x u ",
"-.=.s s a s s 5 , , > 0 4.9.9.2._ ' ' R 7 ^ , > > > > > > > > > > > > > > > > > > > > > > > > + > + + > 2 2 2 2 2 4 e   ",
"i 3 C z.m.l.k.h.h 3 2 0 4.9.9.2._ ' ' R 7 ^ , > > > > > > > > > > > > > > > > > > > > > > > > > > + > 5 *.k.l.l.j.Y a + ",
"i 2 #.[.>X:X>X{.#.a 2 0 4.9.9.2._ ' ' R 7 ^ , > > > > > > > > > > > > > > > > > > > > > > > > 2 2 2 2 j !.,X,X,X,Xf.a + ",
"n 3 P D.n.n.b.b.J s ; Q 4.9.9.2._ ' ' R 7 ^ , > > > > > > > > > > > > > > > > > > > > > > > > 2 2 2 2 m f.F.n.n.v.Y a + ",
"n 3 A f.m.c.c.j.A 2 - 0 4.9.w.<.[ ' ' R 7 ^ , > > > > > > > > > > > > > > > > > > > > > > > > > + + 2 m s.c.c.c.m.Y a + ",
"o.2 J f.c.c.c.j.S 2 > 8 :.3.3. .` * ' E R ^ , > > > > > > > > > > > > > > > > > > > > > > > > > + + 2 m s.c.c.c.c.Y a + ",
"o.2 K f.v.c.c.x.A 2 > > q 0 0 q , $ W 9 R ^ , > > > > > > > > > > > > > > > > > > > > > > > > > + + 2 m a.c.c.c.c.Y a + ",
"o.2 J a.c.c.x.g.F s 2 f I X.....I s 6 , 7 ~ , > > > > > > > > > > > > > > > > > > > > > > > > > + + 2 m p.x.f.k.f.U a + ",
"o.3 A K K K U U m s g ,.2X3X3X3X$XI 3 O q ] 6 > > > > > > > > > > > > > > > > > > > > > > > > > + + 2 j A K K K K A d + ",
"+.4 M A Z M M m 2 > l C.+X1X1X1X@XB.I f 7 ` , > > > > > > > > > > > > > > > > > > > > > > > > > > > 2 3 j M M M M M d # ",
">.=.f 5 5 s s s > + l B..XXX.X.X|.t.r.B 7 ^ , > > > > > > > > > > > > > > > > > > > > > > > > > > > > > 2 5 2 2 5 5 b   ",
"-.n s f d h j h > > B t.J. XoXoX Xy.X.j 7 ^ , > > > > > > > > > > > > > > > > > > > > > > > > > > > 2 2 s h h h h h x u ",
"O.< K P.R.R.W.P.Z 2 V r.t.L.J.J.L.t.V 3 $ ^ , > > > > > > > > > > > > > > > > > > > > > > > > > > 2 2 s v.W.R.R.R.p.a < ",
"u < K Q.=X&X<X(.%.a s F r.r.r.r.r.B 3 > $ ^ , > > > > > > > > > > > > > > > > > > > > > > > > > > > 3 B Y.&X&X&X`.f.d # ",
"u 4 A s.D.c.b.f.S 2 > 2 V V V V B > $ 6 7 ^ , > > > > > > > > > > > > > > > > > > > > > > > > 2 + + 3 l p.c.c.c.c.Y d # ",
"r < A Y p.p.g.*.c 2 > , ( ( ( ! R & ^ R R ] , > > > > > > > > > > > > > > > > > > > > > > > > 2 > + , f Y p.p.p.i.P h O ",
"o.y j j c j j j 2 > > 0 4.9.q.<.' ` ' E 7 E > > > > > > > > > > > > > > > > > > > > > > > > > > > > > , f j j j j j f r ",
"  +.5 2 2 2 3 2 2 > > 0 5.6.9.1.[ ' ] 7 > o > > > > > > > > > > > > > > > > > > > > > > > > > > > > > > 3 3 3 3 3 2 x   ",
"u 5 m A %.&.%.A f 2 > 0 4.9.w.1.= / $ @ > - > > > > > > > > > > > > > > > > > > > > > > > > > > > > 2 3 Z Y &.%.K A h + ",
"t 2 A f./.>X{.s.Z 2 > 8 :.3.3. .^ % + + , > > > > > > > > > > > > > > > > > > > > > > > > > > > > 2 3 s &.T.:X-Xv.J g 1 ",
"+ 5 Z Z U Y U C a 2 > , 6 6 q 6 ; + > > > > > > > > > > > > > > > > > > > > > > > > > > > > > > > > 2 3 N F K K F B f X ",
"> 2 2 2 3 3 3 2 > . > > > > - 2 > > > > > > > > > > > > > > > > > > > > > > > > > > > > > > > > > > 2 2 2 2 3 3 2 < < > "
};
