/* XPM */
static char *_255931611204539b69d4dc4a8b44f56j6oU7qkfYx6YAPVn[] = {
/* columns rows colors chars-per-pixel */
"60 60 228 2 ",
"   c None",
".  c #2A1F3E",
"X  c #261F3E",
"o  c #321C3C",
"O  c #1F233D",
"+  c #24223E",
"@  c #2B223E",
"#  c #24293F",
"$  c #32233E",
"%  c #3B253E",
"&  c #332B3F",
"*  c #47283F",
"=  c #5B293F",
"-  c #6B2C3F",
";  c #251F41",
":  c #2B1F41",
">  c #221F48",
",  c #361F40",
"<  c #1E2443",
"1  c #242343",
"2  c #2A2343",
"3  c #252943",
"4  c #25254A",
"5  c #2A254B",
"6  c #26294C",
"7  c #2B2B4C",
"8  c #2C2D44",
"9  c #342442",
"0  c #3C2544",
"q  c #3C2944",
"w  c #3A264A",
"e  c #352B4C",
"r  c #3C2B4B",
"t  c #352848",
"y  c #2D324C",
"u  c #2D3245",
"i  c #343A4E",
"p  c #262752",
"a  c #2A2652",
"s  c #262A54",
"d  c #2A2A54",
"f  c #2B2759",
"g  c #272C5B",
"h  c #2B2C5B",
"j  c #322C53",
"k  c #332B5D",
"l  c #362851",
"z  c #2C3252",
"x  c #2A325D",
"c  c #28345E",
"v  c #333452",
"b  c #373B54",
"n  c #262D62",
"m  c #2B2E63",
"M  c #2B2F69",
"N  c #332D64",
"B  c #352E6A",
"V  c #392E6C",
"C  c #263263",
"Z  c #2B3264",
"A  c #2C336B",
"S  c #2D3A6C",
"D  c #2C3F65",
"F  c #353165",
"G  c #33326A",
"H  c #39326B",
"J  c #313A6D",
"K  c #393065",
"L  c #2E3772",
"P  c #2E3B73",
"I  c #2E3C78",
"U  c #3B3473",
"Y  c #313B74",
"T  c #3C367A",
"R  c #343E7B",
"E  c #3C3B7C",
"W  c #343673",
"Q  c #442543",
"!  c #4A2643",
"~  c #442944",
"^  c #4C2944",
"/  c #482A4A",
"(  c #532643",
")  c #542945",
"_  c #5B2A45",
"`  c #532A49",
"'  c #5B2C49",
"]  c #5B2745",
"[  c #413046",
"{  c #57314B",
"}  c #5B3651",
"|  c #632B44",
" . c #6C2C44",
".. c #652D4A",
"X. c #6B2D4A",
"o. c #662743",
"O. c #722D45",
"+. c #712E48",
"@. c #61334B",
"#. c #6D334C",
"$. c #6C394D",
"%. c #6B3348",
"&. c #733244",
"*. c #74344A",
"=. c #7C364B",
"-. c #7C3A4D",
";. c #793348",
":. c #6B3B53",
">. c #793A51",
",. c #433975",
"<. c #423A7C",
"1. c #413677",
"2. c #3C4451",
"3. c #344375",
"4. c #34427C",
"5. c #344C7F",
"6. c #39477D",
"7. c #304173",
"8. c #774558",
"9. c #6D4252",
"0. c #7D4B61",
"q. c #424256",
"w. c #833E4E",
"e. c #823D53",
"r. c #83424D",
"t. c #854252",
"y. c #8A4555",
"u. c #8B4955",
"i. c #8A4559",
"p. c #8C4B5A",
"a. c #85495B",
"s. c #914A57",
"d. c #924D5A",
"f. c #994E5C",
"g. c #95515D",
"h. c #99525E",
"j. c #8F535D",
"k. c #965261",
"l. c #9C5561",
"z. c #8A4C60",
"x. c #3F3882",
"c. c #433B84",
"v. c #453A89",
"b. c #493D8D",
"n. c #463985",
"m. c #493C91",
"M. c #364582",
"N. c #394684",
"B. c #364984",
"V. c #3A4B86",
"C. c #364D8A",
"Z. c #3A4C8C",
"A. c #3B4689",
"S. c #3B538D",
"D. c #3B598D",
"F. c #385285",
"G. c #3C4E91",
"H. c #3C5393",
"J. c #3D5A92",
"K. c #3B5599",
"L. c #3D5B9B",
"P. c #375690",
"I. c #3E639C",
"U. c #3F64A2",
"Y. c #4B458B",
"T. c #41568E",
"R. c #4C4992",
"E. c #524D95",
"W. c #534C9A",
"Q. c #415495",
"!. c #425C9E",
"~. c #435699",
"^. c #55529B",
"/. c #59549D",
"(. c #575699",
"). c #524B8E",
"_. c #44629B",
"`. c #43679B",
"'. c #67629F",
"]. c #5C5BA4",
"[. c #5955A0",
"{. c #435FA2",
"}. c #625EA4",
"|. c #615DAA",
" X c #4364A3",
".X c #436AA5",
"XX c #456BA9",
"oX c #4A6CAB",
"OX c #486CA7",
"+X c #5A64A7",
"@X c #4674AC",
"#X c #4B74AD",
"$X c #4C76B2",
"%X c #4D7DBA",
"&X c #497AB6",
"*X c #517DBB",
"=X c #517FB7",
"-X c #4C6EB0",
";X c #6463AC",
":X c #6668AD",
">X c #6A6CAD",
",X c #6C67A5",
"<X c #746BA6",
"1X c #7373AD",
"2X c #7C78AE",
"3X c #6A6CB3",
"4X c #676BB3",
"5X c #7F79B4",
"6X c #665D9B",
"7X c #4C7FC1",
"8X c #8279AB",
"9X c #827BB4",
"0X c #4C82BB",
"qX c #4C81B8",
"wX c #5282BD",
"eX c #4D85C1",
"rX c #5388C7",
"tX c #8787BA",
"yX c #948EB6",
"uX c #9494BE",
"iX c #8F90BE",
"pX c #9896C4",
"aX c #8E8DC1",
"sX c #A29DC7",
"dX c #AEAAC7",
"fX c #AEAAC9",
"gX c #ABA7C7",
"hX c #B0ABC8",
/* pixels */
"                                            7 5 2 1 2 1 1 + 1 2 5 2 @ 1 7                                               ",
"                                      q.8 7 g g g g h h k 7 6 a f f f d f f d e                                         ",
"                              8 y d b b d Z !.OX.X.X.X.XV.g 6 Z S..X.X X X_.6.g d b b 7                                 ",
"                          7 h d d h 6 s Z 4.oX*X%X%X0X%XJ.x 5 Z _.%X0X0XeX*X_.S h 4 d h 6 6 y                           ",
"                      v j h S..X_.7.g a h W G.K.H.H.H.H.R h 4 Z B.H.H.K.K.K.A.G h s n 4.S.F.D a 7                       ",
"                    z D T.I.@XeX%X_.Y d a A M.G.H.S.H.G.R h 5 Z B.H.H.H.H.Z.R m a x 4..XrXwXU.C.3.x b                   ",
"                i z 3.`.qXqX.XK.!.oXB.g a g Z 4.M.M.M.M.W d 5 Z 4.V.V.M.M.I M h f Z J.oX{.!.$X0X@XB.x b                 ",
"            z 6 g 5.OX-XL.Q.Q.H.H.Z.I M h 6 d Z A A A A n a 5 d Z S A A A Z g a h A B.H.H.K.L.L.XX&XS.c 7 7             ",
"          y s g A _.XXK.G.H.D.H.H.A.W m d 1 2 f m m n g s 5 2 4 g g h h g g 7 4 g A R G.H.H.H.S.H. XXX5.Z d 7           ",
"        7 a h h h J R V.H.H.H.S.M.L m 5 1 1 2 2 1 1 1 2 2 2 2 1 1 1 1 2 1 1 2 2 4 g A 4.Z.H.H.H.H.Z.B.S h h d 3         ",
"      2.y J Z.6.z d Z Y N.C.V.R A g 6 1 < 1 9 9 9 9 9 2 1 1 1 1 + @ $ @ $ @ @ 2 1 4 g Z R Z.H.Z.M.I m p m J A s i       ",
"      u N !.rX%XV.x s Z A A A A g 4 1 2 2 9 ` | _ ' ` 0 2 < < + $ ^ ' ' | ] Q @ 2 1 4 p Z L L L S n f C D.*X#X7.z       ",
"    b z 4.H.L..X$XD.Z g h h h d 6 1 1 2 2 0 | O.&. . ._ % 2 1 2 ! |  . .O. .! @ + + 2 2 a n M n g h S _.@X@X.X4.s 8     ",
"    7 J #X.XH.Q. X#XD.g 5 5 2 1 # 2 2 1 0 _ &.r.u.r.&.o.Q 2 1 9 ( O.;.y.t.*.o.! @ + 2 2 1 4 5 5 d J .X$XU.K.!.XX4.a     ",
"  v a G H.K.H.H.H.L.B.g 2 2 + + % ! @ # Q #.t.g.g.p.r. .~ 1 1 $ _ e.u.g.k.p.=.( @ 2 w 0 2 1 1 2 f Y I.L.H.H.L.XXB.h 7   ",
"u z h A P M.Z.Z.Z.R A a 1 + @ % ] ] 9 1 Q *.p.g.g.g.p.*.0 2 1 @ _ i.k.h.k.k.e._ 2 @ / ' Q 2 + 1 d G 4.Z.S.H.Z.M.W k j   ",
"# a m M Z A P I Y G h 4 + @ Q _ - o.w 1 Q *.p.g.h.g.d.*.0 2 1 $ _ i.g.h.k.k.e.) 2 @ (  ._ Q $ 2 4 d A R 4.4.R A A Z h 6 ",
"  b 6 6 s d g n M d 5 + @ ^ .. . .| 9 1 Q *.d.h.k.h.d.#.Q 2 1 9 _ i.h.g.h.k.e.) 1 @ (  .- | ( $ 1 4 f m Z A Z d g d z 7 ",
"i v d d d a a a p 1 2 + $ _ >.=.O.| 9 1 Q *.d.h.k.h.d. .~ 2 1 9 _ i.h.g.h.k.e.( 2 2 )  .&.-.X.Q 2 1 2 5 d h h p s s z i ",
"# a Z A A n h a 2 ; 2 9 ^  .y.p.-.| $ 1 Q *.d.h.k.h.d. .~ 2 1 9 _ i.h.g.h.k.e.( 2 2 ) ;.t.i.*.( 9 1 + 2 5 s s g M m g 4 ",
"1 d M..X.X.XF.A k 5 2 0 X.-.p.g.y...$ 1 Q *.d.h.k.h.d. .~ 2 1 9 _ i.h.g.h.k.e.) 2 @ ( e.d.s.-.X.! + + 5 d S F.F.V.R h 2 ",
"3 s B.$X%X*X#XH.A 5 + Q *.s.h.h.y...9 2 Q *.d.k.k.h.s. .0 2 + $ _ i.h.g.h.k.e.( 2 @ ) e.d.h.p.>.( + 4 h 3._.%XeXwX~.g 1 ",
"# s Y S.H.H.XX_.A 4 + Q #.s.h.f.y.@.9 2 ~ $.d.k.k.k.p.#.0 2 + $ ' y.h.h.h.h.e.) 2 2 ) t.h.k.d.-.^ 2 4 g _.$XI.U. XV.g 1 ",
"+ d Y Z.H.Q.H.C.M 4 + 9 ' e.f.s.-.^ 2 2 0 @.i.h.l.f.e.' t 1 + @ ` >.d.f.h.p.$.~ 2 : ^ >.d.h.s.$.~ 2 4 m C.L.H.H.H.4.g 1 ",
"+ d Y S.H.Q.Q.C.A 5 + 2 0 ) $.$.! o + 1 2 0 { 9.8.9.` 9 2 + + X 9 ) :.8.8.@.Q . + X 9 ^ $.8.$.! @ 1 4 N N.H.H.H.H.4.g 1 ",
"# a J M.B.V.Z.4.Z 5 1 5 j l e l l a 5 7 a a l e e e l a 5 7 5 5 5 w w r r t 5 5 5 5 5 t q r t 2 2 1 4 m M.S.C.S.Z.R g 1 ",
"3 d G M A A A A g 1 5 F Y.c.c.c.c.c.c.c.c.c.c.c.c.c.c.c.c.c.c.c.c.<.E ,.,.x.<.,.<.<.<.<.<.T T E N > 4 h J L Y W L A h 1 ",
"y v h n h h h h 4 4 F ).;X;X;X;X;X;X;X;X;X;X;X;X;X;X;X;X;X;X;X;X;X;X;X1XtX>X5XyXyXyXyXyX2X].].}.Y.N 1 4 s g m M n m h 1 ",
"  b 4 p 5 5 a 5 + 1 G ^.3X3X3X3X3X3X3X3X3X3X3X3X3X3X3X3X3X3X3X3X3X3X3XtXsX1XaXhXgXgXgXhXpX3X>X3X/.U 1 1 4 s g s 6 s j   ",
"# a Z J J J W Z 4 1 G W.4X>X3X3X3X3X3X3X3X3X3X3X3X3X3X3X3X3X3X3X3X3X3XtXpX1XiXdXgXgXgXhXpX4X3X>X^.W 2 1 s g g g g h h 8 ",
"+ d C.=XqXqXwX_.n 4 H Y.W.;X:X:X:X:X:X:X3X3X3X3X3X3X3X3X3X3X>X3X3X3X3X9XpX1XiXgXgXgXgXgXuX4X;X].R.U 1 s F.`..X.X XV.g 1 ",
"+ h N..XXXXXXXQ.m 5 K c.b.R.E.E.E.E.E.E.E.E.E.E.E.E.E.E.E.E.E.E.E.E.^./.,X^.,X<X<X<X<X<X'.^.W.Y.c.U 4 C  X%X%X7X%XH.h + ",
"+ h R G.H.H.H.M.n 4 a H c.c.c.n.n.c.c.c.v.v.v.v.v.v.v.v.v.v.c.c.c.c.v.c.c.v.b.c.c.b.b.v.b.b.v.c.U k 5 n A.L.~.~.K.M.h + ",
"O h 4.H.H.H.H.4.g 4 1 5 k k k k k k N N N N N N N N N N N N N N N N B N N V V K K H H H H F B K d 1 2 n A.H.Q.H.G.R h 1 ",
"# h R S.S.H.T.6.Z 4 O + 0 ~ ^ * % @ + 1 + $ Q Q Q Q % . 1 2 # + @ 0 ~ ! ! / 9 2 1 1 2 0 ~ ~ 0 t 1 O 4 Z A.K.H.H.H.R h 2 ",
"1 d S 4.I R R Y Z 5 1 9 ) |  . ._ ~ 2 1 9 ) o. . . ._ Q 2 2 + 2 ! |  . . .| ^ $ # 1 0 _ | - | ^ 9 1 4 M R A.B.5.M.W h ; ",
"3 a Z Z C M M n p 2 1 ~ ..O.=.&. .` 9 2 ~ X.O.-.-.;. .' 9 X + 0 ' O.&.-.=.O...! 2 2 `  .&.*. ...~ 2 1 s A S A Z A Z d + ",
"i z a d d d d a 2 1 + ! +.w.p.t.;.) 9 @ ! *.w.d.d.y.=.' 9 2 2 0 | =.y.g.p.>. .! 2 9 _ &.t.p.=. .~ 2 1 4 d h h h m g d 3 ",
"i j d g d d s 5 2 1 2 ! =.d.g.g.e._ @ + * -.d.g.g.h.y._ $ + 1 % ..y.g.g.g.p.*.Q 1 9 _ t.j.j.i.#.Q + 1 1 5 a a 5 5 6 z   ",
"3 g 4.J.S.D.D.3.p 1 2 ^ -.g.h.g.t._ 2 1 ! -.g.h.k.g.u.| 9 1 1 0 ..d.h.h.g.g.*.Q 1 9 ' y.h.h.s.*.Q + 1 < S Y Y Y P A h 4 ",
"1 g D.=XwX0XwX_.C 4 2 ^ -.g.h.g.t._ 2 1 ! -.g.h.k.g.u.| 9 1 1 0 ..d.h.h.g.d.*.Q 1 9 ' y.h.h.s.*.Q 2 4 C `.qXqX0X$XF.g 2 ",
"2 h M.L.!.L.!.A.N 4 2 ^ -.h.h.g.t._ 2 1 ^ -.g.h.k.g.u.| 9 1 1 0 #.d.h.h.g.d.*.Q 1 9 ..y.h.h.s.*.Q 1 4 C J.OXXXoX X5.s 1 ",
"1 h 4.H.Q.H.H.4.g 4 2 Q #.p.d.d.-.( 2 1 ! =.d.h.k.g.t._ 9 1 1 0 ..p.d.h.h.p.*.Q 2 9 ' t.h.h.u.*.Q 1 4 C V.H.H.H.Z.Y d 2 ",
"1 h 4.S.S.H.H.M.n 2 1 @ * @.8.:.^ 9 2 1 9 ^ $.a.p.>.' 0 1 1 # + Q @.8.p.a.$.^ $ 1 2 0 ' 8.a.$.^ 9 1 1 Z V.H.S.H.Z.Y d 2 ",
"1 g 4.H.H.H.H.N.Z 1 2 4 5 w r w 5 4 4 6 5 2 t [ [ q 2 1 1 4 2 1 2 w q [ / w 2 1 1 1 @ % / / w 5 2 1 4 Z V.H.S.H.S.I s 2 ",
"3 h 4.Z.Z.G.Z.4.Z 5 5 G E E <.<.<.,.,.,.<.<.T T T T T 1.1.1.T T U U U U U U U 1.U U H H H H H K d 2 4 A V.S.S.S.C.I g 1 ",
"1 h W I I Y Y G h 5 K ).}.|.+X+X}.}.}.].].].|.|.|.].].].].].].].]././.>X1X6X2X9X9X8X8X2X,X(./.^.<.h p Z R 4.3.4.R S s 1 ",
"3 d m M n n m d 5 5 U ].3X3X3X3X3X3X3X3X3X3X3X3X3X3X3X3X3X3X3X3X3X3X3XtXpX2XpXgXdXhXhXgXtX>X3X4XE.G 4 p Z A A A A A d 1 ",
"2.y 5 4 p p s 1 + 5 U [.>X3X3X3X3X3X3X3X3X3X3X3X3X3X3X3X3X3X3X3X3X3X3XtXuX2XuXdXgXgXgXgXaX3X3X3XE.N 2 1 p h d s d d v   ",
"u z x Z Z Z x 7 2 5 U R./.:X3X3X3X3X3X3X3X3X3X3X3X3X3X3X3X3X3X3X3X3X3XtXuX5XpXhXgXgXhXdXtX3X3X].Y.N 1 1 4 p s 4 4 a v   ",
"1 Z J.@X#X#X#XV.h 5 U c.Y.E.^.^.^.^.^.^.^.^.^.^.^.^././././././././.[.'.,X}.2X8X8X8X8X8X,X]./.R.c.B 4 g 5.J.D.D.S.Y g 3 ",
"1 Z H.$X&X&X$XH.n 4 N U <.c.c.c.c.c.x.c.c.x.x.c.c.c.c.c.c.c.v.v.c.c.v.c.n.m.b.v.b.b.b.b.v.v.b.c.U k p S oXrXeXrX*XV.s 1 ",
"1 g 4.H.H.H.G.R h 2 2 d K F G G F G B B G F F H H F G G G H U U H K H F U U U U U U U U U U U F d 1 6 A G.!.L.L.Q.Y a + ",
"< g W 4.4.4.4.J s 1 1 2 9 0 q 0 9 2 1 1 2 9 q q 0 q 9 2 1 1 1 1 2 0 q 0 w w 5 4 4 4 2 9 t t e 5 2 1 4 Z 4.A.Z.Z.A.W d 1 ",
"y d d h g g g a 2 1 + % ) .. . .( $ + + 0 ) ..| | ..) % + X ; : Q _  . ...) % 2 1 2 9 ` | o.( 0 2 O 1 4 g Z Z Z A m d 3 ",
"y d s a 5 a a 5 + + @ ^ ..O.&.+.../ 9 9 ` X.O.;.;.O.X.` 9 @ X 0 '  .O.+.+.X...0 2 0 )  .O. . .' 0 2 + 2 5 5 5 4 4 7 v   ",
"2 h J 5.S.F.3.x 4 2 @ Q ..-.y.>.../ 2 2 / #.e.s.s.e.X./ t + @ 0 _ ;.e.u.t.*._ 9 2 9 ) &.w.t.*.' 0 2 1 6 x S J S Z g d   ",
"1 m 4.`.0X$XT.J a 1 + $ { 8.8.8.{ 2 1 1 9 } 0.a.a.0.} 9 1 1 + @ / 8.z.d.p.9.~ @ 1 X ~ :.a.z.:.~ 2 1 5 c 5..XwX@XC.A d 5 ",
"4 h Z Z S S Z d 4 2 1 2 2 9 & 9 2 : ; : : 2 9 & & & 9 2 ; 2 1 1 2 q q q q 9 2 2 1 1 2 q [ q q 2 ; 2 1 d S V.S.V.Y Z 6 1 ",
"2 2 5 5 5 5 5 5 + 2 2 4 2 + + + 1 2 ; 2 2 1 + 2 + + 2 1 2 : 2 4 1 + + 1 + ; 2 2 2 2 2 2 + + + 2 2 1 1 4 5 a a a a 7 1 + "
};
