/* XPM */
static char *acc1f55f6ed04206835c55f7e63aaf04APXhWrUApQ16bkOR[] = {
/* columns rows colors chars-per-pixel */
"60 60 142 2 ",
"   c #171323",
".  c #181425",
"X  c #1F1D24",
"o  c #191628",
"O  c #1B192C",
"+  c #1E1E32",
"@  c #201F26",
"#  c #211F31",
"$  c #1F2036",
"%  c #1F2138",
"&  c #23232B",
"*  c #212136",
"=  c #262832",
"-  c #2D2D36",
";  c #22243B",
":  c #25283F",
">  c #292A3C",
",  c #232740",
"<  c #262C46",
"1  c #282C45",
"2  c #272E48",
"3  c #282E49",
"4  c #2E3047",
"5  c #2B324D",
"6  c #313344",
"7  c #393B44",
"8  c #32354C",
"9  c #2E3652",
"0  c #2F3956",
"q  c #323A55",
"w  c #393D56",
"e  c #333D5B",
"r  c #3C404C",
"t  c #35405F",
"y  c #3C435D",
"u  c #374363",
"i  c #394565",
"p  c #3E4966",
"a  c #3D4A6A",
"s  c #454954",
"d  c #4D525E",
"f  c #424B66",
"g  c #444E6C",
"h  c #47506B",
"j  c #49506C",
"k  c #515763",
"l  c #525864",
"z  c #455272",
"x  c #4A5776",
"c  c #4C5876",
"v  c #4E5B7B",
"b  c #505D7D",
"n  c #55607E",
"m  c #546282",
"M  c #586585",
"N  c #596686",
"B  c #5A6787",
"V  c #596686",
"C  c #5A6888",
"Z  c #5B6988",
"A  c #5B6889",
"S  c #5B6989",
"D  c #5C6989",
"F  c #5D6A8A",
"G  c #5E6B8A",
"H  c #5E6B8B",
"J  c #5C6989",
"K  c #606C8A",
"L  c #676F8A",
"P  c #626D8B",
"I  c #63708F",
"U  c #63708F",
"Y  c #647290",
"T  c #657291",
"R  c #657391",
"E  c #667291",
"W  c #667492",
"Q  c #677493",
"!  c #677594",
"~  c #667392",
"^  c #687594",
"/  c #687595",
"(  c #6A7694",
")  c #697796",
"_  c #697695",
"`  c #6B7897",
"'  c #6B7897",
"]  c #6C7A98",
"[  c #6D7A99",
"{  c #6D7B99",
"}  c #6E7B99",
"|  c #6E7C9A",
" . c #6F7C9B",
".. c #6F7D9B",
"X. c #6E7B9A",
"o. c #707D9C",
"O. c #707E9C",
"+. c #727F9E",
"@. c #717E9D",
"#. c #72809E",
"$. c #73809F",
"%. c #73819F",
"&. c #75829E",
"*. c #73819F",
"=. c #7481A0",
"-. c #7482A0",
";. c #7582A0",
":. c #7582A1",
">. c #7583A1",
",. c #7683A1",
"<. c #7683A2",
"1. c #7582A0",
"2. c #7C8AA7",
"3. c #7D8AA7",
"4. c #7C8AA7",
"5. c #7D8AA8",
"6. c #7D8BA9",
"7. c #7E8BA9",
"8. c #7D8BA9",
"9. c #808EAC",
"0. c #818FAD",
"q. c #818FAD",
"w. c #8290AD",
"e. c #8391AE",
"r. c #8290AD",
"t. c #8492B0",
"y. c #8593B0",
"u. c #8593B1",
"i. c #8795B2",
"p. c #8796B4",
"a. c #8694B1",
"s. c #8896B3",
"d. c #8896B3",
"f. c #8A98B6",
"g. c #8D9BB8",
"h. c #8E9CB9",
"j. c #8E9DB9",
"k. c #8F9DBA",
"l. c #8E9CB9",
"z. c #909EBB",
"x. c #909FBB",
"c. c #909EBB",
/* pixels */
"k h.g.g.g.g.g.g.g.h.;.i i ;.h.g.g.g.g.g.g.g.g.g.g.g.g.g.g.h.w.a u T h.g.g.g.g.g.g.g.g.g.g.g.g.h.[ u i 3.h.g.g.g.g.g.g.g.",
"k h.h.h.h.9.! ^ t.x.;.i i ;.x.h.h.h.h.6. .g.h.h.h.s.^ W 6.x.w.a u T x.h.h.h.h.t.^ ! 9.h.h.h.h.x.[ u a 6.x.9.! ^ t.h.h.h.",
"l i.T O.;.` M M [ ;.K q u I [ W %.;.;.^ F %.T [ ;. .M M ^ ;.^ 5 e M O.T O.;.;.[ M M ` ;.;.%.T  .F u e T ;.` M M [ ;. .I ",
"l 9.a x v v b b v b g 3 u x z a v v v b b v i z b v b b b b z O q z x i v v v v b b v v v v i z x u 3 z b v b b v b x u ",
"d &.u t t t t t t t q < e t t t t t t t t t t t t t t t t t q O 9 u t t t t t t t t t t t t t t t e 1 e t t t t t t t t ",
"& * O O O O O O O O O o O O O O O O O O O O O O O O O O O O O . O O O O O O O O O O O O O O O O O O o O O O O O O O O O ",
"s L j g h j j g g j w . . w j j j j j j j j j j j j j g g g j j j j w . . w j j j j j j j j j j q   . y j g g j j h g g ",
"l p.F A b x v M A m u . . i c x x x x x x x x x x x c M F m x x x c i . . i c x x x x x x x x c e   . p m A M c x m A A ",
"l t.A b g u a v b z 9 . . 9 i u u u u u u u u u u u i c b x u u u i 9 . . 9 i u u u u u u u u i 5 . . q z b v i u z m M ",
"l t.m a u i i i i i 9 . . 9 i u u u u u u i i u u i i i i i u u i i 9 . . 9 i i i u u u u u u i 5 . . q i i i i i u a m ",
"l 3.9 3 e i i i i q : . . 9 e 2 3 3 3 2 5 u i 9 9 i i i i e 3 3 e i 9 . . 9 i i u 5 3 3 3 3 3 e 5 . . , e i i i i 0 3 5 ",
"- 6 O O + * $ $ * + o   . + + O O O O O O * * + + * * * * + O O + * +     + * * * O O O O O O + O .   O + * $ $ * + O O ",
"7 j w w w w w w 4 < 1 < * + O . . + $ $ + + + : : + + .   o * 1 * + * 1 1 * + + + + $ $ + . . O $ * 1 1 < 4 w w w w w w ",
"l p.F m b b c c a u e e 3 < $ . . , < < < < < 0 0 < < O   + 3 e 5 < 5 e e 5 < < < < < < , . . * < 5 e e u a c c b b m A ",
"l t.M a u e < < e 9 < < < < $ . . , < < < < < < < < 1 O   + < < < < < < < < < < < < < < : . . * < < < < q e < < e u g M ",
"l t.M q 2 2 < < 2 2 < < < < $ . . , < < < < < < < < 1 O   + < < < < < < < < < < < < < < : . . * < < < < 2 2 < < 2 2 e M ",
"l p.A 1 : 2 < < < < < < < < $ . . , < < < < < * * < < O   + < < < < < 1 + O * < < < < < , . . * < < < < < < < < < % 4 A ",
"7 j w O O $ $ $ $ $ $ $ $ $ O . . + $ $ $ $ $ O O $ $ o . O $ $ $ $ $ + . . O $ $ $ $ $ + . . O $ $ $ $ $ $ $ $ $ O # w ",
"X     . . . . . . . . . . . . . . . . . . . . . . . . . . . . . . . . . . . . . . . . . . . . . . . . . . . . . . .     ",
"@ o o o o o o o o . . . o o . . . o . . . . . . . . . . . . . . . . . . . . . . . . . . o . . . o o . . . o o o o o o o ",
"= , , , , , , , , + . o , 1 $ . . : O . . . . . . . . . . . . . . . . . . . . . . . . + : . . * 1 : . . $ 1 , , , , , , ",
"s ^ c u g g e e e 5 $ O h i e 9 9 2 + . . . . . . . . . . . . . . . . . . . . . . . . + 3 9 9 e p g O * 9 e e e z a u c ",
"l t.v x x z i i i 0 : O b i e i i e $   . . . . . . . . . . . . . . . . . . . . . .   * e i i e f b O : e i i i z x x x ",
"l w.z v x a i i i 0 : * b t e u e e : o . . . . . . . . . . . . . . . . . . . . . . O , e e u 0 p b + , e i i i a x v g ",
"d 3.m a z x u u u 9 1 3 v a u e < , , $ . . . . . . . . . . . . . . . . . . . . . . * , , < e u g c < 1 0 u u u v z a n ",
"- 9 5 3 5 5 3 3 3 2 : O 3 3 3 2 1 O o . . . . . . . . . . . . . . . . . . . . . . . . o O 1 2 3 5 1 O : 2 3 3 3 5 5 3 5 ",
"& o O O O O O O O O O . O O O O O .   . . . . . . . . . . . . . . . . . . . . . . . .   . O O O O O . O O O O O O O O O ",
"7 j w 1 8 q 1 1 1 1 1 < * o   # w 1 1 * . . . . . . . . . . . . . . . . . . . . . . ; 1 5 q O   O * 1 1 1 < 1 1 q 8 5 w ",
"l f.^ x c x i g a u e e 3 O   : v a e , . . . . . . . . . . . . . . . . . . . . . . 1 e a v *   + 5 e e u a g i c x v ^ ",
"k g.i.K z i a m g 0 3 3 < O   * i i : o . . . . . . . . . . . . . . . . . . . . . . o 1 i u +   + < 3 3 e z b i i x T s.",
"k t.H g x v i a i u u t 3 O   * i i u 1 . . . . . . . . . . . . . . . . . . . . . . 5 u i u +   + 5 u u u i a i v x z F ",
"6 f e 9 q q 5 5 5 5 5 5 < O   O 5 5 9 : . . . . . . . . . . . . . . . . . . . . . . , 9 5 5 O   + 2 5 5 5 5 5 5 q 9 9 e ",
"& + + + + + $ + + + + + + o   o + + $ O . . . . . . . . . . . . . . . . . . . . . . + $ + + .   O + + + + + $ + + + + + ",
"- 8 1 * * + . . : 1 : * * * + + * O . . . . . . . . . . . . . . . . . . . . . . . . . o O * O + * * * : 1 * . . + * ; : ",
"k t.M g i 9 . . j M v i i i q 5 t 3 + . . . . . . . . . . . . . . . . . . . . . . . . + 5 u 5 e u i i v M f . . q i z m ",
"l 9.g b z 5 . . j c i i i i u e 3 < 1 $ . . . . . . . . . . . . . . . . . . . . . . * 1 < 3 e u i i i i v f . . q x v a ",
"l i.m z a 9 . . z M x i i i e 9 e 3 $ o . . . . . . . . . . . . . . . . . . . . . . O * 5 e 9 e i i i v M f . . q a z b ",
"r n f e 0 1 . . w f u 0 0 0 5 3 0 3 + . . . . . . . . . . . . . . . . . . . . . . .   + 5 0 2 9 0 0 q p f q . . 5 0 e f ",
"& * : : : + . . $ : : : : : : : : : O . . . . . . . . . . . . . . . . . . . . . . . . O : : : : : : : : : + . . $ : : : ",
"@ . . . . . . . . . . . . . . . . . . . . . . . . . . . . . . . . . . . . . . . . . . . . . . . . . . . . . . . . . . . ",
"@ . . . . . . . . . . . . . . . . . . . . . . . . . . . . . . . . . . . . . . . . . . . . . . . . . . . . . . . . . . . ",
"X     . . . . . . . . . . . . . . . . . . . . . . . . . . . . . . . . . . . . . . . . . . . . . . . . . . . . . . . .   ",
"7 j w O O $ $ $ $ $ $ $ $ $ O . . + $ $ $ $ $ O O $ $ o . O $ $ $ $ $ + . . O $ $ $ $ $ + . . O $ $ $ $ $ $ $ $ $ O # w ",
"l p.A 1 ; < < < < < < < < < $ . o , < < < < < * * < < O   + < < < < < 1 + O * 2 < < < < , . . * < < < < < < < < < % 4 A ",
"l t.M q 2 2 < < 2 2 < < < < $ . . , < < < < < < < < 1 O   + < < < < < < < < < < < < < < : . . * < < < < 2 2 < < 2 2 e M ",
"l t.M a u e < < e 9 < < < < $ . . , < < < < < < < < 1 O   + < < < < < < < < < < < < < < : . . * < < < < q e < < e u g M ",
"l p.F m b b c c a u e e 3 < $ . . , < < < < < 0 0 < < O   + 3 e 5 < 5 e e 5 < < < < 2 2 , . . * < 5 e e u a c c b b m A ",
"7 j w w w w w w 4 < 1 < * + O . . + $ $ + + + : : + + .   o * 1 * + * 1 1 * + + + + $ $ + . . O $ * 1 1 < 4 w w w w w w ",
"- 6 O O + * $ $ * + o   . + + O O O O O O * * + + * * * * + O O + * +     + * * * O O O O O O + O .   O + * $ $ * + O O ",
"l 3.9 3 e i i i i q : . . 9 e 2 3 3 3 2 5 u i 9 9 i i i i e 3 3 e i 9 . . 9 i i u 5 3 3 3 3 3 e 5 . . , e i i i i 0 3 5 ",
"l t.m a u i i i i i 9 . . 9 i u u u u u u i i u u i i i i i u u i i 9 . . 9 i i i u u u u u u i 5 . . q i i i i i u a m ",
"l t.A b g u a v b z 9 . . 9 i u u u u u u u u u u u i c b x u u u i 9 . . 9 i u u u u u u u u i 5 . . q z b v i u z m M ",
"l p.F A b x v M A m u . . i c x x x x x x x x x x x c M F m x x x c i . . i c x x x x x x x x c e   . p m A M c x m A A ",
"s L j g h j j g g j w . . w j j j j j j j j j j j j j g g g j j j j w . . w j j j j j j j j j j q   . y j g g j j h g g ",
"& * O O O O O O O O O o O O O O O O O O O O O O O O O O O O O . O O O O O O O O O O O O O O O O O O o O O O O O O O O O ",
"d &.u t t t t t t t q < e t t t t t t t t t t t t t t t t t q O 9 u t t t t t t t t t t t t t t t e 1 e t t t t t t t t ",
"l 9.a x v v b b v b g 3 u x z a v v v b b v i z b v b b b b z O q z x i v v v v b b v v v v i z x u 3 z b v b b v b x u ",
"l i.T O.;.` M M [ ;.K q u I [ W %.;.;.^ F %.T [ ;. .M M ^ ;.^ 5 e M O.T O.;.;.[ M M ` ;.;.%.T  .F u e T ;.` M M [ ;. .I ",
"k h.h.h.h.9.! ^ t.x.;.i i ;.x.h.h.h.h.6. .g.h.h.h.s.^ W 6.x.w.a u T x.h.h.h.h.t.^ ! 9.h.h.h.h.x.[ u a 3.x.9.! ^ t.h.h.h.",
"k h.g.g.g.g.g.g.g.h.;.i i ;.h.g.g.g.g.g.g.g.g.g.g.g.g.g.g.h.w.a u T h.g.g.g.g.g.g.g.g.g.g.g.g.h.[ u i 3.h.g.g.g.g.g.g.g."
};
