/* XPM */
static char *d1cb8e9ce85449a2c7022c635dc25ec0pELJ9EQX9ce1UcH0[] = {
/* columns rows colors chars-per-pixel */
"60 60 234 2 ",
"   c None",
".  c #1D0E17",
"X  c #1F131C",
"o  c #1E1515",
"O  c #2B0F14",
"+  c #250F18",
"@  c #231316",
"#  c #23131B",
"$  c #2A151B",
"%  c #25191E",
"&  c #2B191D",
"*  c #2A1414",
"=  c #351C1C",
"-  c #341616",
";  c #2C120E",
":  c #3E221E",
">  c #1E1722",
",  c #221523",
"<  c #2B1522",
"1  c #241A24",
"2  c #2B1B24",
"3  c #251F2A",
"4  c #2A1929",
"5  c #321E2C",
"6  c #351D22",
"7  c #341D32",
"8  c #200E20",
"9  c #2C222B",
"0  c #292224",
"q  c #352224",
"w  c #3C2424",
"e  c #32222B",
"r  c #3C242B",
"t  c #392A2B",
"y  c #2E2432",
"u  c #332534",
"i  c #3B2335",
"p  c #3B2A33",
"a  c #3C253B",
"s  c #3D2A3C",
"d  c #352A39",
"f  c #39343A",
"g  c #451F1B",
"h  c #49251D",
"j  c #442422",
"k  c #472927",
"l  c #552E29",
"z  c #593629",
"x  c #462837",
"c  c #4A3334",
"v  c #42353C",
"b  c #4E3A3B",
"n  c #483638",
"m  c #53353C",
"M  c #533B3D",
"N  c #5A3C39",
"B  c #583934",
"V  c #532F39",
"C  c #633D38",
"Z  c #763E36",
"A  c #69392C",
"S  c #5D403D",
"D  c #64443D",
"F  c #6B473A",
"G  c #724B37",
"H  c #744A3C",
"J  c #784B3B",
"K  c #7B533B",
"L  c #75402F",
"P  c #3C1E42",
"I  c #3D2542",
"U  c #3A2A45",
"Y  c #3B3746",
"T  c #323252",
"R  c #401D41",
"E  c #422542",
"W  c #4C3C44",
"Q  c #453A44",
"!  c #523B42",
"~  c #583A40",
"^  c #42385D",
"/  c #4B4447",
"(  c #534246",
")  c #4B4657",
"_  c #544A55",
"`  c #5D5D5E",
"'  c #575458",
"]  c #5E514D",
"[  c #674844",
"{  c #734C43",
"}  c #784945",
"|  c #64524A",
" . c #7C5343",
".. c #7A544C",
"X. c #795747",
"o. c #615D5E",
"O. c #6C5B56",
"+. c #755C55",
"@. c #5D625D",
"#. c #68645E",
"$. c #786559",
"%. c #5D5A64",
"&. c #5B5E6A",
"*. c #4D567D",
"=. c #555A78",
"-. c #4D4C67",
";. c #635C68",
":. c #5D6266",
">. c #5A6171",
",. c #626262",
"<. c #6A6165",
"1. c #676772",
"2. c #726E77",
"3. c #88593D",
"4. c #904F38",
"5. c #835544",
"6. c #855944",
"7. c #8A5A44",
"8. c #855A49",
"9. c #8A5D4B",
"0. c #825549",
"q. c #825B52",
"w. c #935647",
"e. c #8D614E",
"r. c #966649",
"t. c #886758",
"y. c #9C6B56",
"u. c #9E7757",
"i. c #A76449",
"p. c #BD6C49",
"a. c #BF704E",
"s. c #A86C53",
"d. c #BE7252",
"f. c #B87659",
"g. c #B06E55",
"h. c #8A776B",
"j. c #8B7B77",
"k. c #8B746A",
"l. c #B07F62",
"z. c #C26E4A",
"x. c #C36C45",
"c. c #C4714D",
"v. c #C8724D",
"b. c #C27151",
"n. c #96846E",
"m. c #9B846D",
"M. c #9A886E",
"N. c #968472",
"B. c #9B8573",
"V. c #9D8973",
"C. c #998879",
"Z. c #A7876E",
"A. c #B88668",
"S. c #A68877",
"D. c #B79278",
"F. c #BC905D",
"G. c #C68C68",
"H. c #C8926B",
"J. c #D79D6D",
"K. c #C99777",
"L. c #D49D74",
"P. c #DC9E73",
"I. c #D39A77",
"U. c #E49E6D",
"Y. c #EC9E68",
"T. c #E39E72",
"R. c #EB9E71",
"E. c #DDA36C",
"W. c #D2A06B",
"Q. c #DEA273",
"!. c #DCA179",
"~. c #DAA679",
"^. c #C9A177",
"/. c #E3A26C",
"(. c #EAA26A",
"). c #E3A373",
"_. c #E3A37A",
"`. c #E4AA76",
"'. c #48568F",
"]. c #536898",
"[. c #6F7286",
"{. c #566AA5",
"}. c #5A7BBC",
"|. c #506BAA",
" X c #607DB7",
".X c #557ECB",
"XX c #597EC7",
"oX c #537FD7",
"OX c #8A7980",
"+X c #7A828B",
"@X c #7D8491",
"#X c #5F86BB",
"$X c #6881BB",
"%X c #7685B6",
"&X c #7885AD",
"*X c #5583CC",
"=X c #5A82CB",
"-X c #5C80C6",
";X c #5482D2",
":X c #5B84D5",
">X c #4E82CF",
",X c #6784C5",
"<X c #5785E1",
"1X c #848793",
"2X c #85818F",
"3X c #A8939A",
"4X c #B39693",
"5X c #AD8F90",
"6X c #868AAB",
"7X c #928FA9",
"8X c #A79BA4",
"9X c #9DABB5",
"0X c #97A8B2",
"qX c #99ACB2",
"wX c #A3A8B3",
"eX c #C29B85",
"rX c #CE9D88",
"tX c #CFA086",
"yX c #A9BBC5",
"uX c #B9BECC",
"iX c #B8C8D5",
"pX c #B7C7D1",
"aX c #BBE5E7",
"sX c #C9DBE7",
"dX c #D4DDE6",
"fX c #C9E2EC",
"gX c #C7E4F2",
"hX c #CBE4F3",
"jX c #CCEAF5",
"kX c #CCEAFA",
"lX c #C8E9F6",
"zX c #D2E9F6",
"xX c #CFE9F1",
"cX c #C0D1DD",
/* pixels */
"                                                                                                                        ",
"                                                            3                                                           ",
"                                , & & & & & & < , d     Q < & & & < @ r                                                 ",
"                          2 & e n c c c c c c c c p 2 q N { G H H H G F w %                                             ",
"                          u 2 p W W W m N D C D D c w j F 7.7.7.9.7.7. .= @                                             ",
"                      1 e x b b W W b M [ ..0.5.5.X. . .6.7.3.7.8.7.7.{ = @                                             ",
"                      . 6 ~ [ D D [ D F H 6.9.7.7.6.7.7.7.6.3.7.8.7.7.{ = @ e                                           ",
"                      @ = { 8.7.6.9.8.5.7.9.7.7.7.7.7.7.7.7.3.6.6.7.9.{ q #                                             ",
"                  y W B z  .9.7.7.7.7.7.7.9.7.7.7.6.7.6.7.7.7.7.6.G z m v                                               ",
"                q O m q.6.6.5.K 3.3.3.7.6.6.8.e.9.6.9.9.9.8.6.6.8.z @ 1                                                 ",
"            & k D F G 7.6.C V M m m m ~ m m ~ u.G.G.G.G.s.7. .h j c                                                     ",
"          b = k [ .. . .{ x E U a I a i x ~ N l.)./.U.P.s.J D = @                                                       ",
"      % q S { { c c V c x x a a a a i x } A.K.L.Q.).).L.K = r                                                           ",
"      $ * C e.} x s a a a a a a a a a P ..W.).).).Q.).P.G @ 1                                                           ",
"      @ $ N 9.} x s a a a a a a a a a P ..W./.).).Q.).P.G @ ,                                                           ",
"        v M N B x a a a a a a a a a a P ..W./.).).Q.).P.G @ ,                                                           ",
"          f & $ a a a a a a a a a a a P ..W./.).).Q.).P.G @ ,                                                           ",
"      q e 9 5 7 I U a x I x r ^ '.*.'.'.OXJ.(._.Q.Q.U.P.6.x p 6 %                                                       ",
"      $ + 5 a s a d p x I Y Y '.>X=X:X;X6XK.!.Q.J.Q.E.Q.e.b c = %                                                       ",
"      # # 5 a x a a x x U *.].|.;X;X;X*X,X&X6XK.)._._.P.e.b n c c p e                                                   ",
"      , e e 5 i a x E a T |.<X$X6X%X%X6X,XoX.X5XeXeXeXD.t._ _ W ! r @ %                                                 ",
"          f 4 4 i i a u Q {.oX7XtXtX^.L.3X-X*X,X,X,X,X,X}.XX].) W r $ %                           u , # # # . # # ,     ",
"            u u u i 7 5 s |..X3X).Q./.(.4X#X*X>X;XXX.X;X>X*X{.-.~ j * ,                     ) ;.2.;.%.:.&.>.%.;.Q X ,   ",
"                y , # @ 9 |.*X3XQ.!.P.U.4X$X=X*X=XXX=X:XXX X].) m w % >                 < < 8 1 &.yXfXsXfXhXdXdX2.> 3   ",
"                    y X 0 ].  3XQ.Q.Q.P.8X=XoX;X=XXX;X=X{.=.-.d t W ' &.        u p p %.+X1X1X@X0XsXjXgXgXlXgXzX[.> 1   ",
"                      % 0   }.5X).).).T.4X$X-X-X=XXX*X}.*.W v @ @ ' wXwX8X8X;.y 3 0 3 1.aXgXjXzXzXhXgXgXgXgXsXsX[.1 1   ",
"                          T T t.P.).U.Y.L.5X4X%X=X.X;X}.=.m c = @ u Y f v Y 1.wXwX9X9XyXfXzXzXgXgXkXgXjXzXpX>._ 1.      ",
"                          2 ; [ eXI.U.U._.Q.!.6X=X=X;X}.=.M c $ + e f u f f +XsXjXjXjXlXlXjXzXzXsXiXpXiXiX0XY >         ",
"                          & # T     eX!.)./.Q.6X.X;X;XXX*.! b $ # 2.pXpXiXpXiXhXlXlXzXjXhXkXkXjX9X) f d d /             ",
"                          & > T ].[.eX).(./.Q.3X6X&X{.].-.! ! _ ' 0XlXlXkXjXlXlXfXyX9X9X0XqXqXqX1XQ < . .               ",
"                          # @ a ) [ G.(./.).).P._.A.[ W M B <.uXsXfXjXkXkXlXkXkXiX) 1 0 0 1 2 2 Q                       ",
"                          X * w m ( t.u.A.!.R.U._.H.y.t.| / 1.cXzX9X@X2X2X@X@X+X1.                                      ",
"                          2 & w b ( M M t.I._.T.Q.Q./.P.e.W 1.iXfX[.< + < % # X 3                                       ",
"                      0 v O.+.$.$.t.$.$.k.D.D.J./.E.).Q.e.b ( %.:.:.                                                    ",
"                      o q k.B.m.m.B.V.N.N.B.m.H.P.L.I.K.e.~ v # #                                                       ",
"                      # q k.m.m.m.n.m.m.B.B.B.S.S.N.t.t.O.' / & <                                                       ",
"                    ( t c j.B.B.B.V.m.m.n.h.j.j.j.2.o.o.%.,.' & %                                                       ",
"                1 2 | j.h.B.V.B.B.V.n.N.h.#.<.<.<.,.o.` ,.,.] % %                                                       ",
"                , @ | C.n.n.m.m.V.N.$.O.] / / ` ,.o.` @.:.:.' f f Q                                                     ",
"                3 # | C.m.M.M.V.B.k.c $ # % , / o.o.,.,.` @.@.#.o.v , 3                                                 ",
"                , # | N.n.B.B.V.B.h.k # 4     p f / o.,.o.` @.@.o.v X ,                                                 ",
"                # @ | C.V.M.m.B.h.k.c %       % # e ' ,.,.,.:.:.o.v % ,                                                 ",
"                % @ [ B.V.m.N.$.c n           # @ e ` ,.,.,.` ` o.v X ,                                                 ",
"                c k X.Z.Z.Z.S.| @ X             0 f _ ' O.+.+.$.$.b @ >                                                 ",
"            2 B l.H.K.L.P.I.tXe.* #                 9 = } s.s.s.y.C $ ,                                                 ",
"          , @ z H.).`.U.U.U._.r.; 2                 , O 5.b.z.c.g.Z O ,                                                 ",
"          3 @ l H.E.E.P.T./.~.9.O 1                 , $ 5.z.z.p.f.Z ; 1                                                 ",
"          3 @ l H./.E.P.I.r.X.O.                    , O 4.v.z.z.b.4.L [ m                                               ",
"          3 @ l H././.).G.h # f                     1 & J g.d.b.x.p.f.y.h #                                             ",
"          3 + l H././.E.H.l 4                           N z Z g.c.v.d.r.g @                                             ",
"          ! 6 A H.Q.P.E.A.k ,                           e O j s.c.p.c.i.h @                                             ",
"      o : t.A.G.E./.T.).F.l @                           0 # j i.c.d.c.i.w #                                             ",
"      X - r.`./.U.U.G.A.u.M $                           9 # j i.c.d.c.i.: #                                             ",
"      X ; r.~.Q.Q.!.8.- t                               9 # j i.c.d.c.i.: #                                             ",
"    ( H K f.)./.).J. .O 2                               9 # j i.c.d.c.i.: #                                             ",
"1 X N I.Q._.T.U.U.L.0.O 2                               9 @ j i.a.z.a.r.g @                                             ",
"X # k ..q.q.q.X.K { [                                   9 # 6 [ } Z } [ & #                                             ",
"% # 2 i a a a 7 < #                                     9 # # i a R a i # #                                             ",
"> # 2 a a I a 7 < #                                     9 # & i E I E 7 $ #                                             ",
"    2 i a I a 7 < %                                       % < i s a s i < #                                             "
};
