/* XPM */
static char *_db03df8032f4f2b9fd3ad5c83d5fa56ww7bASC34dhLyuJa[] = {
/* columns rows colors chars-per-pixel */
"60 60 235 2 ",
"   c None",
".  c #1D131C",
"X  c #1C171A",
"o  c #1E0D19",
"O  c #220E14",
"+  c #250E1D",
"@  c #231215",
"#  c #2A1413",
"$  c #23141C",
"%  c #2A151B",
"&  c #24191D",
"*  c #2C1A1C",
"=  c #2C1A17",
"-  c #351C1C",
";  c #371817",
":  c #32140C",
">  c #3D241C",
",  c #36221D",
"<  c #1C1825",
"1  c #231521",
"2  c #2A1522",
"3  c #241A23",
"4  c #2A1A23",
"5  c #221D2A",
"6  c #2A1B29",
"7  c #331C24",
"8  c #341E2C",
"9  c #361B29",
"0  c #371E33",
"q  c #28172B",
"w  c #2B222C",
"e  c #262128",
"r  c #342323",
"t  c #3C282B",
"y  c #39242A",
"u  c #2B2736",
"i  c #352434",
"p  c #3A2434",
"a  c #352B34",
"s  c #3B2A33",
"d  c #3C253A",
"f  c #3C293C",
"g  c #35253C",
"h  c #3A3136",
"j  c #1B2127",
"k  c #421E1A",
"l  c #42241C",
"z  c #4C271A",
"x  c #542C1F",
"c  c #452B23",
"v  c #4B2A22",
"b  c #4C2C2B",
"n  c #442828",
"m  c #542D26",
"M  c #4B312E",
"N  c #583428",
"B  c #422633",
"V  c #42243C",
"C  c #422C3A",
"Z  c #462C35",
"A  c #4D343A",
"S  c #483639",
"D  c #5B3B34",
"F  c #52333B",
"G  c #533B3A",
"H  c #5D3C3C",
"J  c #563637",
"K  c #653D3A",
"L  c #6D3527",
"P  c #5C413C",
"I  c #6C433B",
"U  c #6A453B",
"Y  c #72493C",
"T  c #764839",
"R  c #3B2543",
"E  c #382A47",
"W  c #3E3545",
"Q  c #372F4F",
"!  c #3A3762",
"~  c #432842",
"^  c #4D3B43",
"/  c #463444",
"(  c #533B41",
")  c #563B46",
"_  c #463E54",
"`  c #613F43",
"'  c #3B4972",
"]  c #4B4647",
"[  c #594445",
"{  c #4B465B",
"}  c #5E5E5F",
"|  c #505050",
" . c #564356",
".. c #6A4845",
"X. c #744C46",
"o. c #7A5242",
"O. c #7D574A",
"+. c #624B55",
"@. c #665959",
"#. c #4A4C6D",
"$. c #544C66",
"%. c #5E5961",
"&. c #4A4D78",
"*. c #4F5476",
"=. c #625F62",
"-. c #5F6062",
";. c #626261",
":. c #6B6469",
">. c #686677",
",. c #756D71",
"<. c #7A6256",
"1. c #854E3B",
"2. c #8C533F",
"3. c #86563D",
"4. c #835545",
"5. c #8B5542",
"6. c #865A45",
"7. c #8A5A45",
"8. c #845A4A",
"9. c #8A5C4A",
"0. c #815649",
"q. c #8A594A",
"w. c #8F604C",
"e. c #976B5A",
"r. c #896758",
"t. c #AA6549",
"y. c #B16744",
"u. c #BD6E4C",
"i. c #B2694B",
"p. c #BF724E",
"a. c #B96E54",
"s. c #A77659",
"d. c #BD7153",
"f. c #B47A5A",
"g. c #A96B56",
"h. c #8A7869",
"j. c #9A7967",
"k. c #896E63",
"l. c #A97B65",
"z. c #B27F65",
"x. c #C26F49",
"c. c #C76C43",
"v. c #C2724E",
"b. c #CB7247",
"n. c #C37252",
"m. c #C66F52",
"M. c #BC845C",
"N. c #9A846E",
"B. c #95826F",
"V. c #978573",
"C. c #9B8672",
"Z. c #9D8975",
"A. c #A98368",
"S. c #B38264",
"D. c #BB8664",
"F. c #BC8B63",
"G. c #B68E6E",
"H. c #B8876A",
"J. c #BA9375",
"K. c #AF8C73",
"L. c #B7A27D",
"P. c #C78A5E",
"I. c #D48D5F",
"U. c #C68B67",
"Y. c #CB936A",
"T. c #DB9D6D",
"R. c #D49668",
"E. c #C89474",
"W. c #DA9D74",
"Q. c #D79B78",
"!. c #D08C65",
"~. c #E39D6D",
"^. c #E39D65",
"/. c #E29E73",
"(. c #E59F7B",
"). c #DDA274",
"_. c #DEA47C",
"`. c #D4A16E",
"'. c #E3A26D",
"]. c #EBA26D",
"[. c #E2A373",
"{. c #EAA474",
"}. c #E3A47A",
"|. c #E7A874",
" X c #4A5784",
".X c #505B8B",
"XX c #56618B",
"oX c #566799",
"OX c #4F6596",
"+X c #777582",
"@X c #6F6983",
"#X c #5879BC",
"$X c #516CAA",
"%X c #6977AB",
"&X c #5D7DC5",
"*X c #557ECB",
"=X c #5B7ECB",
"-X c #5478C1",
";X c #547ED2",
":X c #597ED4",
">X c #617BCC",
",X c #8C7B81",
"<X c #5F80BE",
"1X c #7B85BA",
"2X c #6784BB",
"3X c #7B8394",
"4X c #5C81C3",
"5X c #5582CD",
"6X c #5A81CC",
"7X c #5681C6",
"8X c #5482D3",
"9X c #4B82D1",
"0X c #6483C6",
"qX c #6B90D5",
"wX c #6E86CA",
"eX c #4F86E2",
"rX c #979899",
"tX c #8A8B9D",
"yX c #B9978A",
"uX c #A6959A",
"iX c #BE9B94",
"pX c #929FA5",
"aX c #8D8BAB",
"sX c #95A0A6",
"dX c #C49A89",
"fX c #CA9E93",
"gX c #D5A085",
"hX c #87A5E1",
"jX c #BED3E6",
"kX c #BED7F2",
"lX c #B4C2D2",
"zX c #C6DBEC",
"xX c #CBE6F3",
"cX c #C8E7F6",
"vX c #D7E7F3",
/* pixels */
"                                                                                                                        ",
"                                3 $ $ $ $ $ $ $ $ + $ /                                                                 ",
"                            a S s t t t t t t t B B y s / a e 5                                                         ",
"                          6 $ 7 S ( ( ( ( ( ( ( ( ( ( Z 7 $ $ 4 % * % $ 4 $ 4                                           ",
"                      1 w s S Z G ^ ^ ^ G P X.O.o.o.o.o.Y U Y Y T T Y Y Y T Y D * &                                     ",
"                    w $ % A [ H P [ [ P K Y 4.9.7.7.7.7.7.7.7.7.7.2.9.9.7.7.6.D # $                                     ",
"              a 4 4 @ O ; ..8.4.6.O.O.0.4.6.7.7.5.7.7.7.7.7.7.7.7.3.6.8.7.7.6.D # $                                     ",
"              G b c c v N o.6.7.7.7.7.7.7.7.5.5.7.7.7.7.7.7.7.7.7.3.6.8.7.7.6.D # $                                     ",
"        s @ ; ..8.9.8.8.6.9.4.6.6.7.7.7.9.6.8.8.9.7.7.7.7.7.7.9.6.3.9.8.7.7.8.D % $                                     ",
"    3 Z G D I o.9.7.7.9.0.I D H H H H H ` J ) ) X.f.D.S.D.M.f.w.8.7.w.4.Y N M G                                         ",
"  3 O ; I 9.9.4.4.3.O.8.X.F 0 d R R R R R 0 / F X.R.[.).|.'.P.7.o.3.6.O.H - $                                           ",
"  4 @ ; I 9.4.K N F A A / B p f f d d d B ` l.H.Y./.}.}././.g.m n l > r S                                               ",
"    . t U X...F d V d d V d d f p d p f y U E.'.].~.W.[.[.}.s.- $ $ 4 3                                                 ",
"        y % 7 d d d d f f d V V p g f R g ..E.|.).[.).).'.[.s.- . w                                                     ",
"        1 $ 2 p d d d g f V V V p p Z d g ..!.{.).[.[.[.'.[.s.- . 6                                                     ",
"        1 $ 2 p d d d i d V d g E g d R Q +.!.'.).[.[.[.'.[.s.r 4 a                                                     ",
"        3 $ 2 p d d d i d ~ R Q #.&.#. X X+XQ.].).[.[.[.'.[.s.M s C C a                                                 ",
"        4 $ 2 d d d C p p ~ E !           aXfXQ.Q.[.[.[.'.}.S.G ^ C $ . w                                               ",
"    % 2 8 d d f R ~ B s E &.$X            0X1X1XaX).'.'.'.}.l.P G C % @ a                                               ",
"    1 i i 8 i p 0 0 d C Q OX              4X<X7X2XyXdXdXdXiX,X+.$./ $ @ a                                               ",
"        W $ . * @ 2 9 f Q oX          ;X;X=X0X6X5X7X4X4X4X0X6X-X#X&.< $ s                                               ",
"                  S y 2 f ,XrXuXuXuXaX0X:X:X:X6X6X6X=X=X6X6X=X=X0XXXE t n ^                                             ",
"                    u O l A.).'.].[.yX1X=X;X=X6X6X=X*X*X8X8X6X6X#XOX_ ) n % $                                           ",
"                    < @ l H._.'.].}.L.wX*X6X=X:X*X6X6X=X=X=X6X8X6XoX) F s $ @                                           ",
"                    S > N D.}.[.~.~.L.wX9X8X:X>X&X6X=X=X=X=X&X-X#XXX) G a 1 @                                           ",
"                6 b e.H.P.^.^.{.{.].E.1X5X8X=X=X&X&X;XeXeX5XoX$.{ { J D t @ #                                           ",
"              3 $ k z.}.].'.).gXdXyXrX0X5X6X&X6X5X6X=X#X$XoXXX*.#._ b M h e *                                           ",
"              3 $ l l.).[.'./.fXtX%X<X;X5X7X4X5X5X8X&XoX$.) $.#X9X' X $ W                   5 < 1 $ $ 1 1 1 1 1 5 . $ & ",
"              3 $ > s.[.[.'.].dX>.&. X XXXOX#X5X-X.XXX*.( J  .    ' < @ 0 /   6                                   6 @ $ ",
"              3 $ , S.{.W.[.'.U.@.[ [ S ^ $.%X4X$X] S ^ ^ ) $.    ' e @ 1 q $ $ + $ $ . 5                         e $ $ ",
"              3 $ r S.].T._.[.T.S.S.l.I J  .$.#.{ G S { XXoX#X*X*X                                                X X $ ",
"                $ y s.I.U.Q.T.].[.}.E.0...+.( G P +.%.@XwXqXqXqXqXhX                                              j & $ ",
"                    t c N H.W.~.{.[.T.R.Y.z.Y G :.lXjXjXzXkXkXkXkXcXxXxXxX                                    1 <       ",
"                    . @ > j.E.Y.).'.^.].{.U.U A >.jXcXcXcXcXcXcXcXcXcXcXcXxXxX                                u         ",
"                    $ @ , k.K.H.E.).[.[._.H.Y J ,.zXxXxXxXxXxXxXxXcXxXxXxXvXvX3Xu $ $ $ $ $ $ $ & & & $ . w             ",
"                    1 $ , k.Z.A.K.J.J.J.J.K.r.<.,.rXpXpXpXpXpXpXsXtX+X,.,.+X+X>.                                        ",
"                    1 $ , k.V.B.C.C.Z.Z.N.Z.B.C.h.;.-.-.} } -.-.=.] 4 $ $ 5 <                                           ",
"                    5 $ r k.Z.Z.B.N.N.N.N.N.N.N.h.;.;.;.} ;.;.;.;.] 4 $ 4                                               ",
"                      . h <.h.h.B.N.N.N.N.N.N.N.h.:.;.;.;.;.;.;.;.] $ O 1                                               ",
"                          t = c h.V.V.V.V.V.V.V.h.:.;.;.;.;.} } } ] 4 1 6                                               ",
"                          3 @ c j.J.G.G.G.G.G.G.j.] ] | } ;.} } ;.] $ $ 6                                               ",
"                          # + n F.).).).).).).[.f.r X a @.@.=.=.:.[ $ . 6                                               ",
"                          # + B F.[.[.[.[.[.[.[.f., # v r.e.e.e.e...% 2 w                                               ",
"                          # + B F.[.[.[.[.[.[.[.f.r # m g.d.n.m.a.T ; 2                                                 ",
"                          # + B F.[.[.[.[.[.[.|.S.w @ m g.d.n.n.a.1.; $                                                 ",
"                          N b K U.[.[.[.}.W.U.D.e.M v L i.x.b.v.a.1.: .                                                 ",
"                    5 $ l S.R.R.T.'.[.T._.S.m - M t.i.i.n.c.b.v.a.1.: o                                                 ",
"                    5 . l D.[.'.[.).'.^.{.M.z O n i.d.d.n.u.t.1.X...A                                                   ",
"                    5 . l D.[.'.[.).}.T.W.f.z @ n y.p.d.n.a.2.; % C                                                     ",
"                    5 . > D.[.'.[./.Y.7...P * % v y.p.p.v.n.5.; 1 6                                                     ",
"                    a 7 x D.T.'./.~.f.v @ $ @ @ z y.p.v.x.n.2.; $ 4                                                     ",
"                & b e.D.P.W.W.).|.|.S.l O @ % @ v y.u.v.x.p.2.; 1 e                                                     ",
"              f 4 k e.H.U.T.(.W.M.S.e.S 4 4 @ O v y.u.v.x.p.2.; 1 e                                                     ",
"          4 4 8 d s W Q ) U.|.U.N ; Z       4 @ b y.u.v.x.p.5.; 1 e                                                     ",
"        $ @ % 8 d B f g Z 4.w.O.^ s         $ @ b y.u.v.v.n.5.; $ e                                                     ",
"        w + 2 8 p 0 C s y 7 @ 6             $ $ b t.u.u.d.a.4.; @ e                                                     ",
"        i o $ 2 4 7 7 2 i                   $ $ 7 K I K I ..A $ . e                                                     ",
"          3 2 4 $ @ $ $ a                   $ $ 4 i d d p d 8 1 1 e                                                     ",
"                                            1 $ 2 d d d p d 8 % %                                                       ",
"                                            1 $ 4 d d f f R i 1 1                                                       "
};
