/* XPM */
static char *_8075f91e1ac4dd9a5910e2eae506e2eGqFPbxVNXYItwIK7[] = {
/* columns rows colors chars-per-pixel */
"60 60 247 2 ",
"   c None",
".  c #1E0E14",
"X  c #180E18",
"o  c #1E1416",
"O  c #1E141B",
"+  c #17141C",
"@  c #170D0F",
"#  c #260D18",
"$  c #231315",
"%  c #2B1315",
"&  c #23141C",
"*  c #2A141C",
"=  c #221A1D",
"-  c #2C1A1D",
";  c #291A17",
":  c #331614",
">  c #331B1B",
",  c #361A17",
"<  c #2E1510",
"1  c #2D210E",
"2  c #38231E",
"3  c #1D1523",
"4  c #1D1924",
"5  c #1D0E22",
"6  c #211421",
"7  c #2B1324",
"8  c #241B23",
"9  c #2B1C24",
"0  c #291A2B",
"q  c #321D23",
"w  c #311B29",
"e  c #391E21",
"r  c #391F35",
"t  c #271025",
"y  c #2B232C",
"u  c #2B2428",
"i  c #3B262C",
"p  c #372428",
"a  c #2D2835",
"s  c #3C2434",
"d  c #3B2B34",
"f  c #3C253B",
"g  c #382938",
"h  c #3A333A",
"j  c #43231C",
"k  c #4A281C",
"l  c #401F32",
"z  c #462925",
"x  c #573629",
"c  c #42253C",
"v  c #462936",
"b  c #483438",
"n  c #533432",
"m  c #53343B",
"M  c #533A3C",
"N  c #5B3C3C",
"B  c #573936",
"V  c #532E26",
"C  c #68392B",
"Z  c #643D37",
"A  c #703A29",
"S  c #411B1F",
"D  c #59423E",
"F  c #6D4A3C",
"G  c #694339",
"H  c #734A3D",
"J  c #794A3A",
"K  c #764731",
"L  c #3A2741",
"P  c #383859",
"I  c #31314F",
"U  c #3C3E63",
"Y  c #4C3B44",
"T  c #493A47",
"R  c #533D42",
"E  c #563D47",
"W  c #473656",
"Q  c #452C4B",
"!  c #603C42",
"~  c #3A4356",
"^  c #3A4568",
"/  c #4B434C",
"(  c #474346",
")  c #574448",
"_  c #4C4756",
"`  c #544755",
"'  c #59555C",
"]  c #5B504F",
"[  c #694945",
"{  c #754D43",
"}  c #784E48",
"|  c #795245",
" . c #7C544B",
".. c #7A5646",
"X. c #63585A",
"o. c #6B5551",
"O. c #6E635C",
"+. c #48486A",
"@. c #58566A",
"#. c #47577D",
"$. c #565677",
"%. c #4B4E6B",
"&. c #67636C",
"*. c #686D74",
"=. c #767478",
"-. c #737171",
";. c #665F63",
":. c #8B583E",
">. c #86563E",
",. c #94583E",
"<. c #844C39",
"1. c #B55B37",
"2. c #845543",
"3. c #855945",
"4. c #8B5B44",
"5. c #85554A",
"6. c #855B4A",
"7. c #8A5C49",
"8. c #895344",
"9. c #915D43",
"0. c #995645",
"q. c #835D56",
"w. c #A65D46",
"e. c #97654B",
"r. c #876559",
"t. c #9A6C52",
"y. c #976957",
"u. c #997159",
"i. c #A56448",
"p. c #BD6E4B",
"a. c #BE6C44",
"s. c #BC7345",
"d. c #BE714C",
"f. c #B67647",
"g. c #AA6753",
"h. c #B46D53",
"j. c #A6775A",
"k. c #BC7354",
"l. c #B87758",
"z. c #A1704E",
"x. c #846F65",
"c. c #867569",
"v. c #997268",
"b. c #A87960",
"n. c #B17F6D",
"m. c #C26E4B",
"M. c #C96D4B",
"N. c #C2714D",
"B. c #C47147",
"V. c #C37252",
"C. c #C2785B",
"Z. c #CA6A57",
"A. c #B6825D",
"S. c #998979",
"D. c #97826C",
"F. c #B98867",
"G. c #B08A71",
"H. c #CE8C5D",
"J. c #C88D66",
"K. c #C8936A",
"L. c #DC9D6E",
"P. c #D69869",
"I. c #CB9672",
"U. c #DC9D72",
"Y. c #D49A78",
"T. c #CA8D75",
"R. c #E39D6C",
"E. c #E69C66",
"W. c #E39E74",
"Q. c #E79E79",
"!. c #DCA26D",
"~. c #DFA56A",
"^. c #DEA274",
"/. c #DDA27B",
"(. c #D6A171",
"). c #CEA17D",
"_. c #E3A26D",
"`. c #E6A36A",
"'. c #E2A373",
"]. c #E3A47B",
"[. c #E8A574",
"{. c #3963A1",
"}. c #485786",
"|. c #545D88",
" X c #445D9A",
".X c #576496",
"XX c #54668F",
"oX c #6D768C",
"OX c #5E6CAA",
"+X c #5771A8",
"@X c #5877B9",
"#X c #4D6AAE",
"$X c #6778B8",
"%X c #6771A7",
"&X c #645C87",
"*X c #557CC5",
"=X c #5B7EC3",
"-X c #567ECC",
";X c #5B7DCC",
":X c #5C74C4",
">X c #5B7DD2",
",X c #577ED5",
"<X c #4F78CC",
"1X c #637CC8",
"2X c #687ED3",
"3X c #857C8E",
"4X c #5B82BD",
"5X c #6F84B3",
"6X c #7E8B92",
"7X c #5581CD",
"8X c #5A81CE",
"9X c #5782C4",
"0X c #5482D3",
"qX c #5683D5",
"wX c #4C82D1",
"eX c #6C86C7",
"rX c #8C8E96",
"tX c #A29789",
"yX c #A9919B",
"uX c #B1938B",
"iX c #928DA6",
"pX c #9399A5",
"aX c #8A8EAD",
"sX c #A7A7A8",
"dX c #ABAFB1",
"fX c #A2A59F",
"gX c #CD9789",
"hX c #CFA78C",
"jX c #E2A685",
"kX c #E6B28D",
"lX c #C6B8AF",
"zX c #CEC6BD",
"xX c #E1C1A7",
"cX c #A3B7C0",
"vX c #B9D2DD",
"bX c #B7C9D0",
"nX c #B9D2E1",
"mX c #D3CBC4",
"MX c #CBCBCE",
"NX c #C6DCE8",
"BX c #DCDFE3",
"VX c #CAE4ED",
"CX c #CBE6F5",
"ZX c #CCEAF4",
"AX c #C8E8F7",
"SX c #D1E9F3",
"DX c #D3E0E2",
/* pixels */
"                                                                                                                        ",
"                                          a 8 & & & & & & & & & O + g                                                   ",
"                                      g b d d i i i i i i i i i i i b b d                                               ",
"                                    9 * q v Y Y R R M M N N N N N N b p > * q - * % * * - d                             ",
"                              u 9 s v v b m R Y R M M D {  .| |  . .| H G { { { G G H { [ n p 9                         ",
"                            8 & $ i ) D [ D ) ) ) D Z G | 6.6.6.4.4.4.7.4.4.4.4.4.:.4.7.6.G j 2 i                       ",
"                      9 $ & $ $ % V | 6.4.4.3...3.6.2.>.3.3.3.3.4.4.4.4.4.4.4.4.4.:.2.7.6.2.2.2.{ z $ &                 ",
"                    M M n x V V x G 2.4.4.4.:.>.:.4.4.4.2.2.3.6.4.7.7.7.6.6.6.7.7.:.4.7.6.4.4.4.| z $ &                 ",
"              p % < V | 7.4.4.4.7.7.2.5.5.5.5.6.6.5.5.5.7.4.9.9.9.9.9.9.4.7.7.6.3.:.4.6.6.4.4.4.| z $ &                 ",
"          q z G G K J 3.7.4.4.6.6.{ B B m m m M R m n [ u.F.J.H.H.H.J.J.J.F.j.e.:.:.4.7.6.4.4.4.| z $ &                 ",
"        & % : H 9.9.>.H  . . . .} ! v c s s f s v ! Z } n./.'._.'.^.^.'.'.'.A.J F { H H { H H | G z = 4                 ",
"        O $ : G 7.4.G v v v v v v v c f c Q L s } T.I.I./.].R.R.^.^.(.~.L.L.t.j p > % : , , % > i                       ",
"            v N Z Z m c Q L f f f f f f f f f s  .Y.[.`._.W.Q.[.'.^.^.'._.U.e.: . O 9 9                                 ",
"              w $ % q f Q L f f f f f f f f L f  .Y.[.R.'.W.Q.W.L.L.U.'.'./.y.> 6 4                                     ",
"              6 & $ q s f f f d s f s r r c g d  .Y.W.L.'.^.~._.'.'.^.'.'./.y.> 3 8                                     ",
"              O & & w s f L f s p f W W I W P W q.H.[.U.~./.^._.'.^.'.^.'.^.t.j 9 a                                     ",
"              & & & w f s c c s L +..X$X+X+X+XOXrXhXjXQ._.].'.~.L.U.^.~.'.].j.n b d d y 0                               ",
"              & & & w f f c W +.}. X@XqX0X0X0X8XeXpXyXgXU.Q.'._.'.^.^.~.'.].b.N R R p & O                               ",
"              & & & w f f P |.$X;X*X9X9X9XqX8X-X0X4X$XiXgXgX^.`.'.^.^.L.~./.j.N R M q & = y                             ",
"              ; & 3 I }. X{.<X2X8X7XwXwX9X;X;X-X0X0X0XeXaXaXiXiXiXiXiXiXiXiX=.) Y ( %.}.}.^ u 7                         ",
"              o & 3 P 5X5X5X1X>X8X8X-X=X4X;X>X8X8X8X8X8X8X8X8X7X-X*X0X,XqX*X.X_ M / OX>X8X}.= # *                       ",
"              @ o $ G uXuXyXaX*XwXqX,X1X4X>X,X8X8X8X8X8X8X8X8X8X-X7XqX0XwX9XXX` n / OX>X-X#.= # *                       ",
"              B x C ,.U.^.hXyXrX5XeX>X,X8X0X0X8X8X8X8X8X8X8X8X0X0X8X@X+X.XXX$.E B / OX>X-X#.= t *                       ",
"        4 $ j b.Y.U.P._.^.^././.).yX2X>X9X4X-X8X8X8X8X8X8X8X8X0X0X=X%X$._ / E M M _ OX;X=X#.8 # *                       ",
"        6 $ j j.jX'.L.'.'.P.t...| ] +.^ #.+X-X-X-X-X8X8X8X8X7X@X|.$.@.` Y T %.$.|.|.+.~ U U                             ",
"        - , V j./.'.L.U.'.P.B + O 6 6 # 0 .X8X-X-X-X-X-X*X*X*X.XE R M D ) _ }.@X1X%XI + 3                               ",
"  y 8 [ A.F.l.P.`.`.E.R.`.H.x 3 3 & * % 0 #XqX0X0X8X9X+XXX$.%.) B M ` &X%XOX@X9X=XOXI o *                               ",
"u & & F L.[.R._.'.'.I.A.A.j.) b b d 0 6 w #.+X+X+X+X%X|.%.R N E ` +.}.OX;X,XqXqX7X@XI . % s                             ",
"8 & & F P.'.^.'.^.Y.t.k > d oXsXsX-.0 6 - T / T / _ _ / Y M M $.:X;X*X9X9X*X=X;X-X#XI % % & = = + & & 9 8 + 4 y         ",
"O & & F L.'.^.'.'.^.t., O a 3XdXdX=.9 9 7 b R R R R R R R R R ` |.XX.X@X9X8X-X,X,X@XX.A Z G K K Z A A G b & 8 9         ",
"O & & F U.'.^.'.'.^.t., & r 3XdXsX-.p - > b ) R R R R R R R R M B Y +..X$X1X=X*X4X%Xv.p.l.l.d.s.d.d.p.h.J , $ &         ",
"O & & F L.'.^.'.'.^.t., & 7 T / ( ] O.O.r.x.x.x.x.x.x.x.x.x.x.o.N m T ` @.@.%.%.%.@.g.M.k.l.m.p.k.N.B.d.J : . &         ",
"3 O & F L.'.'.~._.^.j.V z v p $ ; ) c.v.v.S.tXtXtXtXtXtXS.S.D.r.[ ) ) D D D ) E E ) ,.1.w.w.w.w.i.i.i.e.H p 8 y         ",
"u O O F U.'.].!.!.'.L.K.I.G...n m E ) Y X.dXVXNXNXNXNXbXfXS.D.D.D.c.-.O.O.X.X.' ' ] z > > e > e q q q y T               ",
"    = D y.e.z.K.^._.`.`.R.T...B E X.=.oXrXbXZXCXCXAXZXNXbXdXsXdXdXsXfXpXpXrXoX*.    u @ o 9 & . . $ # % d ) /           ",
"        $ < k j.Y./.U.W.W.Y. .b Y =.bXDXMXZXZXCXCXZXZXZXCXVXCXSXSXVXVXVXVXVX        h + O 9 & # & 7 * * & O 8 a         ",
"              o.[ G G G G Z i u w d ( / &.bXAXAXAXAXAXAXAXAXCXAXAXAXCXCXCXCX                            *.6XpXrX' g 9   ",
"                7 & & 6 & o + 4 w 7 @ @ a pXvXvXvXnXvXnXNXNXNXNXAXZXCXCXSXCXCX                          ZXZXSXvX_ & # # ",
"                                    8 + 8 ' =.*.*.=.=.=.S.tXG.dXAXAXAXAXAXAXAXAXAX                      VXZXSXvX_ & *   ",
"                                      8 g T ( ( ] X.;.O.-.c.c.tXlXlXzXmXMXMXmXzXmXMX                    cXpXpXrX@.g     ",
"                                          y & = b X.X.X.;.&.@.r.N.d.C.Y.jXjX].W.].hXmXBX                *.a 4 a         ",
"                                          y O $ B r.y.t.t.t.e.g.d.k.g.>.K J z.Y.].'.kXxXlXrXX.b h L a ~ '               ",
"                                          8 6 % C h.N.m.V.p.m.p.i.g.7.j $ % H I.R.R._.~.Y.v.n 2 z 0 O & y               ",
"                                          8 6 % C h.N.m.V.p.p.,.k k j % . ; | Y.'.].[._.W.Y.T.F.j.n * &                 ",
"                                          8 6 % C h.N.m.V.p.p.<.9 & o 8 8 u [ j.j.b.P.`.R.Q.W._.K.x % &                 ",
"                                          8 6 % C h.N.m.V.p.p.<.7 & 9         q : z j.!.[.Q.R.!.K.x % &                 ",
"                                          8 O % C h.V.m.m.p.k.<.9 & *         6 * p b.^.'.'.'.'.I.B & &                 ",
"                                          z > , C g.k.p.a.d.k.J & & .         6 * p b.'._.(.^.[.J.n $ &                 ",
"                                    g p B | 9.0.i.k.f.s.s.N.V.<.; $ .         3 & 2 j.W.'.(.L._.K.x $ &                 ",
"                                    4 . j 9.V.M.m.m.N.k.w.0.0.H 9 8 s       ) N x F A.E.'.].U._.K.x $ &                 ",
"                                    4 o , ,.d.B.B.N.C.g.V , - p       0 & > { F.I.I.'.E.E.].].].K.x $ &                 ",
"                                    7 o 1 0.Z.p.f.s.V.g.V o O 8       & $ : B r.y.y.y.e.e.7.7.r.r.G                     ",
"                                    7 O 1 0.Z.p.f.s.N.g.V $ &         8 & & q v r s f f s p 9 + 4                       ",
"                                    7 O 1 0.Z.p.f.s.N.g.V $ &         O O & w c f f s f s q - o =                       ",
"                                    7 o 1 0.Z.m.f.s.N.g.V $ &         = = $ 9 c s f f f s r 0 5                         ",
"                                    & $ j 0.p.m.s.d.V.g.V % $         u $ . * q * & 9 & &                               ",
"                                    O # S [ 5.8.8.8.5.} z & &                                                           ",
"                                    6 X t c c c c l r c 7 & 6                                                           ",
"                                    8 6 t r f c c s r c 7 # %                                                           ",
"                                      & * r s s s f f c 7 # *                                                           "
};
