/* XPM */
static char *_28be9952f7d4125b1d3f27421c3845alAO7YU67kLGgohMh[] = {
/* columns rows colors chars-per-pixel */
"60 60 244 2 ",
"   c None",
".  c #1F0D17",
"X  c #1E131B",
"o  c #1C1619",
"O  c #1E110E",
"+  c #25140C",
"@  c #36140E",
"#  c #240E17",
"$  c #231215",
"%  c #2A1415",
"&  c #23141B",
"*  c #2A151B",
"=  c #24181D",
"-  c #2A181D",
";  c #2C1A16",
":  c #321512",
">  c #351918",
",  c #210D0D",
"<  c #3B231D",
"1  c #1C1522",
"2  c #1E1C28",
"3  c #1D0F23",
"4  c #221621",
"5  c #2A1622",
"6  c #241A23",
"7  c #2C1A23",
"8  c #2A1C2A",
"9  c #241A2B",
"0  c #331C22",
"q  c #321D2C",
"w  c #331929",
"e  c #391E37",
"r  c #292328",
"t  c #382629",
"y  c #2A2635",
"u  c #3B2535",
"i  c #3A2D34",
"p  c #3C253B",
"a  c #362637",
"s  c #383239",
"d  c #36312F",
"f  c #1D2438",
"g  c #42241D",
"h  c #4D2619",
"j  c #57271E",
"k  c #482C27",
"l  c #4B322B",
"z  c #573528",
"x  c #42243C",
"c  c #472C36",
"v  c #4B3236",
"b  c #4C343B",
"n  c #4F3B3C",
"m  c #453538",
"M  c #543432",
"N  c #533A3C",
"B  c #5A3B3D",
"V  c #583838",
"C  c #562E2B",
"Z  c #63352B",
"A  c #623B3A",
"S  c #723D2A",
"D  c #421C1D",
"F  c #574139",
"G  c #64443C",
"H  c #6C443A",
"J  c #6A4336",
"K  c #734B3C",
"L  c #7A4937",
"P  c #7E553D",
"I  c #6D4732",
"U  c #3B2945",
"Y  c #2E314C",
"T  c #3F3B63",
"R  c #422743",
"E  c #4E3B44",
"W  c #453C48",
"Q  c #533B42",
"!  c #563A45",
"~  c #473B53",
"^  c #3C405C",
"/  c #484446",
"(  c #564449",
")  c #4B4458",
"_  c #554855",
"`  c #5C585D",
"'  c #4B505C",
"]  c #674744",
"[  c #754C44",
"{  c #66514B",
"}  c #7C5444",
"|  c #7B5649",
" . c #675856",
".. c #755B54",
"X. c #71625B",
"o. c #4B4965",
"O. c #534B65",
"+. c #555475",
"@. c #4A5274",
"#. c #615A66",
"$. c #605276",
"%. c #5A636B",
"&. c #666767",
"*. c #676974",
"=. c #757072",
"-. c #874D38",
";. c #8B583E",
":. c #835C38",
">. c #945738",
",. c #A45F3F",
"<. c #C5733B",
"1. c #825543",
"2. c #865944",
"3. c #8A5A44",
"4. c #855A49",
"5. c #8B5C4A",
"6. c #88564A",
"7. c #955A48",
"8. c #835953",
"9. c #A65C46",
"0. c #88614A",
"q. c #966449",
"w. c #896659",
"e. c #976B58",
"r. c #9A7B5B",
"t. c #AA674B",
"y. c #B2694C",
"u. c #BB6E4C",
"i. c #BC6C45",
"p. c #BB724B",
"a. c #B76E53",
"s. c #B87356",
"d. c #AA6D53",
"f. c #887467",
"g. c #967564",
"h. c #81746B",
"j. c #A67763",
"k. c #B47F63",
"l. c #C36D49",
"z. c #C4724B",
"x. c #C67347",
"c. c #C67152",
"v. c #B3835C",
"b. c #AB805D",
"n. c #9C846D",
"m. c #96826D",
"M. c #958374",
"N. c #9B8572",
"B. c #9C8A7B",
"V. c #8F8174",
"C. c #A4836A",
"Z. c #BA8667",
"A. c #A38878",
"S. c #BA8D74",
"D. c #DFA05E",
"F. c #C38A66",
"G. c #D89B6A",
"H. c #C89575",
"J. c #DA9C72",
"K. c #D59D73",
"L. c #C9916E",
"P. c #E49D6D",
"I. c #E99E6B",
"U. c #E29C72",
"Y. c #E29E78",
"T. c #DDA273",
"R. c #D7A37B",
"E. c #DBA16D",
"W. c #E4A365",
"Q. c #E3A16D",
"!. c #E7A46B",
"~. c #E2A272",
"^. c #E2A279",
"/. c #E9A676",
"(. c #E39D5D",
"). c #485487",
"_. c #545D87",
"`. c #4C5D96",
"'. c #596188",
"]. c #576595",
"[. c #496899",
"{. c #71708E",
"}. c #586BA8",
"|. c #5B72A9",
" X c #5977B7",
".X c #4C6EB4",
"XX c #667CB7",
"oX c #6877A7",
"OX c #5B5E97",
"+X c #5C7DC4",
"@X c #557ECC",
"#X c #5A7ECC",
"$X c #557CC3",
"%X c #567FD2",
"&X c #4F7CCB",
"*X c #607BCC",
"=X c #667CE2",
"-X c #827987",
";X c #7B878D",
":X c #5582BF",
">X c #7A87B4",
",X c #7585AE",
"<X c #5B81C5",
"1X c #5582CC",
"2X c #5B82CB",
"3X c #5483C8",
"4X c #5482D3",
"5X c #5784D5",
"6X c #4A80D8",
"7X c #6682C6",
"8X c #7986C0",
"9X c #9D9285",
"0X c #908D95",
"qX c #A69C97",
"wX c #AE9887",
"eX c #9193A8",
"rX c #A29EB1",
"tX c #9AA6B0",
"yX c #AAABA9",
"uX c #A4ABB7",
"iX c #A7B2BB",
"pX c #D5A787",
"aX c #D3AB93",
"sX c #BCC4BD",
"dX c #D3C4AF",
"fX c #ABAFC3",
"gX c #A9B5C3",
"hX c #B4B8CA",
"jX c #BACCD4",
"kX c #BDD2DA",
"lX c #BBC6CA",
"zX c #BEDCE4",
"xX c #C2CED5",
"cX c #C7D5DB",
"vX c #CCCFC8",
"bX c #C8DCE5",
"nX c #C8E3ED",
"mX c #D3E2E9",
"MX c #C6E4F3",
"NX c #CBE5F2",
"BX c #CBEAF4",
"VX c #CAE9FA",
"CX c #C7E7F8",
"ZX c #D3EAF5",
/* pixels */
"                                                    9 4 4 4 4 4 4 4 6 8 y           8 6 6 X X                           ",
"                                                  2 = - - - - - - = - & 4 s       u * - 7 - - 7 & t                     ",
"                                            8 7 - i m v v v v v v v c v m i 8 7 l G K L K K K K K K l %                 ",
"                                            t q 7 m E E E n N B G A A G G v t > z K 3.3.3.5.2.5.3.1.k $ &               ",
"                                      8 5 u c b b E E E E N B ] | 4.1.} 4.| [ } 1.3.3.;.3.4.2.3.3.} k $ &               ",
"                                      X . 0 ! ] G G G ] G G H } 4.5.3.3.2.2.3.3.3.2.;.;.3.4.2.3.3.} k $ &               ",
"                                      = $ < [ 4.5.2.4.5.4.2.2.3.3.3.3.3.3.3.3.3.3.3.3.;.2.4.2.5.5.| k $ =               ",
"                                    W n l z P 5.5.3.5.5.3.3.3.2.2.2.3.3.3.3.5.2.3.3.;.2.3.2.1.J V N m                   ",
"                                0 # t | 0.:.2.4.P :.:.;.3.5.6.6.7.7.5.0.4.2.5.4.0.4.4.2.2.4.| g , =                     ",
"                            > M G G J P 0.1.A V B B F B Q ! A w.S.v.v.Z.F.F.F.F.k.7.5.1.z k l                           ",
"                          0 : l [ 8.1.} 4.[ c x R p a a x v M e.R.T.T.~.~.Q.P.~.L.;.1.] < , &                           ",
"                      t N ] ] G M v Q b b c x U p p u c w.S.Z.G.^.U.Y.T.~.~.~.T.k.z g t                                 ",
"                    & % M 5.5.H c p p p p p p p p p p c j.^.Q.~.~.~.~.~.T.T.~.~.s.g & o                                 ",
"                    % % l 4.5.H c p p p p p p p p p a c j.^.P.~.~.Q.~.~.T.T.~.~.v.g & o                                 ",
"                      t N ] H V c p p p p p p p p p p c j.^.Q.~.~.~.~.~.T.T.~.~.v.g & o                                 ",
"                        W t > 0 p a p p p p p p p p p c j.^.Q.~.~.Q.~.~.T.T.~.~.v.g X o                                 ",
"                        y r 7 q U U p x u R o.@.@.).).+.A.~.W.W.T.~.~.Q.T.~.~.~.Z.M t t ;                               ",
"                    & * q p p u u a p R U T }.5X1X2X1X,XqXpXT.T.T.T.~.~.J.~.~.~.Z.H n m 6 1 9                           ",
"                    % & q R R x u u ~ +.`.[.&X5X1X2X<XXX>XeX0XwXpXW.W.I.P.P.!.~.Z.H m W @.@.@.) a                       ",
"                    & 7 q e p U U Y @.}.2X4X4X1X@X2X4X6X6X%XXXeXaXR.K.R.R.K.G.G.Z.] E o.|.<X XY # &                     ",
"                        s - 9 Y ].}. X@X5X4X+XXX#X4X4X@X%X6X+XXXeX>X>X>X,X{...| } V E O.|.@X XY * ;                     ",
"                        { m i o.oX8X7X%X1X X2X*X+X3X2X#X%X4X#X#X#X4X%X4X+X].) N B _ ) @.|.2XXXY + %                     ",
"                    3 q 8.Z.L.L.K.pXqX7X*X:X3X4X*X5X1X<X2X2X2X2X1X1X4X4X+X].) E O.oX X X2X%X XY O %                     ",
"                  ( F V e.R./.W.~.^.S.OX`.[.:X1X7X3X$X<X1X1X1X1X1X1X X}.].#.( E o. X5X$X.X`._.^ 9 r                     ",
"            a 6 6 q.G.J.U.I.W.W.J.~.v.t o Y .X=X=X@X@X%X%X#X#X#X7X*X].! Q B V N O.|.2X}.Y X r                           ",
"            r X % q././.J.U./.F.7.q.0.#.$.` @.@.)..X1X1X2X<X X|.]._.O.N E o.+._.]. X@X}.Y + +                           ",
"            m * : q.J.~.T.T.R.w.D 0 / eXhX0Xd O f [.5X%X$X:X X_.o.E B Q ) _.|.7X2X4X5X.XU + -       m 7 = 7 & 7         ",
"        i N ..e.e.F.Q.J.d.L [ ..=.=.;XtXfX0Xi o y ].2X.X[.+.+._ E V ` '.].}.+X2X2X@X#X.Xa + 4 a d / [ -.-.-.-.} H k ;   ",
"      6 $ > j.pXQ.W.W.K.5.> & ) tXuXuXgXfX0Xi X y '.XX}.@./ N Q ! ) '.2X@X@X4X4X@X#X#X}.i > 5 > ; < -.l.x.z.p.s.L @ * = ",
"      4 $ @ j./.I.(.W.R.w.> 1 ) uXuXfXiXuX0Xs 5 9 ) @.O.( n ! $.OX|.$X4X4X%X@X@X@X2X2XXXw.>.7.7.7.2.y.c.z.l.i.s.L : 4 9 ",
"      6 = > g.R.~.I.Q.R.0.: = _ rXiXuXuXyX0Xm 5 5 c b N V n ) _.|.$X X X X+X+X2X2X1X1XXXj.<.l.c.x.a.y.t.9.9.,.t.L @ #   ",
"      r + : j.pXP.!./.R.0.: & ' rXfXfXiXiX0Xs . 5 c B B N n E ( _ _ _ _ O._.|.2X5X4X4XXXj.<.p.s.c.l.Z < < 0 > t m       ",
"      G z I Z.^.Q.F.j.g.G > - W {.-X-X0X-X=.W d i ( { { { { { { { { ] Q ! O.'.].}.}.}.].8.>.3.8.9.>.V r & = 9 r         ",
"2 = l C.H.J.Y.U.G.P * 0 - * $ & r 6 5 = 5 t (  . .h.V.M.M.M.M.M.m.m...N b E ( ) ~ ~ ~ ~ > @ > > : @                     ",
"1 X g Z.~./.Q.P.E.4.t t t t i / *.=.#.6 & t _  .X.&.=.h.V.M.N.N.m.n.f.................{ 0 * 5 a                         ",
"  X k Z.T.~.U.J.R.w.Q Q Q E _ {.xXmXuXs 1 y _ #.&.&.&.&.=.M.N.N.n.n.N.M.N.N.n.n.n.N.N.w.t 4 9                           ",
"      ..K L L L K G B Q =.eXtXgXNXZXxXeX;XtXuXiXiXiXuXtX9XB.n.C.C.N.N.N.N.n.n.n.N.N.N.f.t $ 4                           ",
"        $ # * # & u m E 0XxXbXzXBXMXNXNXZXZXBXNXBXBXZXcXyX9XB.B.A.B.B.B.A.N.m.m.N.B.N.f.k % t                           ",
"                  5 0 7 i ) ' ;XkXZXNXNXNXMXCXCXCXCXCXnXkXjXjXxXxXxXjXjXlXyX9Xm.n.C.n.M.h.X.X.n 7 r                     ",
"                    7 & . 1 y *.fXhXlXkXkXkXnXBXMXMXBXCXCXCXCXVXVXVXCXCXnXlXyX9X9X9X9X9XB.B.f.l $ X                     ",
"                                W y / %.*.;XjXBXZXNXBXnXNXNXMXNXNXNXMXMXZXmXcXcXbXbXcXsXqXM.g.l * 4                     ",
"                                X $ t  .#.=.uXhXhXuXtXtXkXZXnXNXBXBXVXVXNXmXNXVXCXNXNXcXqXM.g.k & 1                     ",
"                                - $ t ` &.` &.&.` s 9 U eXmXBXBXBXMXNXVXNXNXVXVXVXNXmXvXqXN.g.k $ 1                     ",
"                              ! H J ] w.w.w.w.w...t # 7 #.;X;XgXNXZXVXVXNXNXVXVXbXvXdXdXwXS.C.l $ 1                     ",
"                          X % Z t.c.c.c.l.z.c.s.d.j % O 7 4 8 *.bXNXMXCXMXCXVXnXvXaXR.T.G.T.L.z $ 1                     ",
"                          = % Z y.x.z.u.p.i.x.z.t.h , = t       W ` &.*.%.*.*.&.f.R.P.P.W.~.H.V $ X                     ",
"                          4 % Z y.x.z.u.s.u.i.t.5.l = a         6 & = = % = X O z L.P.U.W.~.H.A : t                     ",
"                          4 % Z y.l.i.u.c.t.S j B                         i = $ z H././.G.D.J.Z.b.r.{ i d               ",
"                          4 % Z y.l.i.i.z.7.D . r                           6 r V j.L.H.E.D.G.Y.^.K.J & 4               ",
"                          = % Z y.z.p.i.i.q.g 1 2                                 k g Z F.Q./.U.~.K.H # =               ",
"                        ( M j L a.u.p.p.l.9.> 1 9                                 = $ k F.~.~.T.Q.K.J $ &               ",
"                    X : J d.u.u.l.c.u.p.z.9.g & w                                 6 & k Z.Q.~.T.Q.J.G $ &               ",
"                  y 1 : S u.x.z.u.s.t.L L [ N                                     6 & k F.Q.~.T.Q.J.G $ &               ",
"                  i * @ S y.p.s.a.s.7.> & a                                       6 & k Z.Q.~.T.Q.J.G $ &               ",
"              y s H -.-.9.s.u.z.x.x.7.> = 9                                       6 & k F.Q.Q.~.!.J.J $ &               ",
"            9 X = L a.a.a.a.a.u.i.y.6.g % r                                       6 & k Z.K.G.G.K.H.J % &               ",
"            4 & = k B B B B V M C k M                                             6 & 7 ( ] ] ] ] ] t $ &               ",
"            4 & & q p p p p a q - & 8                                             6 & = u e R R e u 7 $ &               ",
"              & & q p p p p u q - & 6                                             6 & * u x x x p u 0 & &               ",
"                = q p p R R p e 7 &                                               6 4 8 u p u u p u q =                 "
};
