/* XPM */
static char *_8674326588c4a60da0c535734d55ac4kpHIBsFEYk8elblu[] = {
/* columns rows colors chars-per-pixel */
"60 60 236 2 ",
"   c None",
".  c #1C0E18",
"X  c #1E141C",
"o  c #1E1316",
"O  c #1E0D06",
"+  c #281A0E",
"@  c #250E17",
"#  c #241215",
"$  c #2B1313",
"%  c #23131C",
"&  c #2B151C",
"*  c #24191E",
"=  c #2C1A1D",
"-  c #2D1913",
";  c #331C1A",
":  c #351918",
">  c #2D0D12",
",  c #38221C",
"<  c #1E1423",
"1  c #1C1724",
"2  c #171C34",
"3  c #221321",
"4  c #241A22",
"5  c #2C1C24",
"6  c #2B1D2B",
"7  c #271828",
"8  c #331D23",
"9  c #321D2A",
"0  c #35162C",
"q  c #2E1E32",
"w  c #2C232C",
"e  c #26222B",
"r  c #332225",
"t  c #3A2423",
"y  c #33232C",
"u  c #39272D",
"i  c #2B2331",
"p  c #352331",
"a  c #3B2334",
"s  c #362B34",
"d  c #3C243C",
"f  c #3B2A39",
"g  c #3E343D",
"h  c #451E18",
"j  c #43251B",
"k  c #49291D",
"l  c #552F1C",
"z  c #44292A",
"x  c #472826",
"c  c #572D28",
"v  c #58342A",
"b  c #432435",
"n  c #41253B",
"m  c #44293B",
"M  c #482C36",
"N  c #4B3439",
"B  c #483539",
"V  c #543935",
"C  c #523B3C",
"Z  c #583836",
"A  c #4B332E",
"S  c #663C2A",
"D  c #663E34",
"F  c #703F2C",
"G  c #5F423D",
"H  c #63402C",
"J  c #6D493C",
"K  c #674439",
"L  c #724B3D",
"P  c #79493A",
"I  c #3C2642",
"U  c #3B2944",
"Y  c #3C3748",
"T  c #302F54",
"R  c #1A2742",
"E  c #452B41",
"W  c #4D3B44",
"Q  c #473948",
"!  c #523C42",
"~  c #553C4A",
"^  c #463B57",
"/  c #423C67",
"(  c #603B48",
")  c #3D4D79",
"_  c #3E4046",
"`  c #5B4343",
"'  c #574547",
"]  c #494459",
"[  c #534758",
"{  c #5A5359",
"}  c #4D4A4B",
"|  c #624442",
" . c #6B4B46",
".. c #744C44",
"X. c #794D44",
"o. c #7A5347",
"O. c #725753",
"+. c #63625D",
"@. c #786257",
"#. c #4A4868",
"$. c #555565",
"%. c #474C77",
"&. c #56597A",
"*. c #505071",
"=. c #61546E",
"-. c #686D72",
";. c #8A4C38",
":. c #88563D",
">. c #925635",
",. c #CA6D3D",
"<. c #855645",
"1. c #865945",
"2. c #8A5A45",
"3. c #855B4A",
"4. c #8A5B4A",
"5. c #855649",
"6. c #975943",
"7. c #8A5D53",
"8. c #854843",
"9. c #9C654C",
"0. c #96674C",
"q. c #88675A",
"w. c #976754",
"e. c #91684C",
"r. c #A9634B",
"t. c #BA6B4A",
"y. c #BD724D",
"u. c #B7714B",
"i. c #AC6D53",
"p. c #A96B59",
"a. c #BB6E52",
"s. c #A97658",
"d. c #BC7153",
"f. c #B7785A",
"g. c #8C746C",
"h. c #AF7B64",
"j. c #C56D47",
"k. c #C1704C",
"l. c #C47149",
"z. c #C36E52",
"x. c #C37352",
"c. c #BA8457",
"v. c #9A836B",
"b. c #988A79",
"n. c #B28161",
"m. c #BA876A",
"M. c #AB8A72",
"N. c #A48B7D",
"B. c #B58B72",
"V. c #C68C65",
"C. c #DA9B6C",
"Z. c #D79869",
"A. c #C99776",
"S. c #DD9E73",
"D. c #D39B76",
"F. c #CA936C",
"G. c #E49E6D",
"H. c #E69C69",
"J. c #E49E73",
"K. c #E59E75",
"L. c #DCA16C",
"P. c #DBA269",
"I. c #DDA273",
"U. c #D9A478",
"Y. c #E3A26D",
"T. c #EBA266",
"R. c #E2A273",
"E. c #E4A47A",
"W. c #E8A675",
"Q. c #C2875F",
"!. c #3B4D80",
"~. c #555D87",
"^. c #485A8E",
"/. c #615F8A",
"(. c #5A6799",
"). c #53628F",
"_. c #6F7787",
"`. c #5974A9",
"'. c #5976B7",
"]. c #536CAB",
"[. c #6578B8",
"{. c #616CAB",
"}. c #5B7EC3",
"|. c #557ECD",
" X c #5A7ECB",
".X c #557BC3",
"XX c #5B7CD2",
"oX c #557DD4",
"OX c #617AC6",
"+X c #617DD4",
"@X c #827992",
"#X c #5C81BE",
"$X c #758BB8",
"%X c #6C86B9",
"&X c #7C8289",
"*X c #5482C4",
"=X c #5A82C6",
"-X c #5482CC",
";X c #5A81CC",
":X c #5482D3",
">X c #5A82D2",
",X c #5A81DA",
"<X c #4D83D2",
"1X c #6382C9",
"2X c #6E87CA",
"3X c #989391",
"4X c #A3978A",
"5X c #A19B91",
"6X c #B6958B",
"7X c #B5A497",
"8X c #8A8DA9",
"9X c #8D96A4",
"0X c #8291AC",
"qX c #8F90AA",
"wX c #99A7AC",
"eX c #A9B5BB",
"rX c #B1B2AD",
"tX c #AE9BA1",
"yX c #D5A586",
"uX c #E3A680",
"iX c #C49A89",
"pX c #A7B5C3",
"aX c #BCCDD5",
"sX c #BCD3DA",
"dX c #BCCBCE",
"fX c #B7D9E1",
"gX c #C3DBDF",
"hX c #C4CCCD",
"jX c #CADDE5",
"kX c #C7DCE7",
"lX c #C7E4ED",
"zX c #CAE5F3",
"xX c #CAE8F4",
"cX c #CCEAF9",
"vX c #C8E6F6",
"bX c #D2EBF4",
/* pixels */
"                                                                                                                        ",
"                                              4 % * % % * 4 4 4 4 3 p                                                   ",
"                                            p 5 = = = = = = = = 5 & 5 W                                                 ",
"                                      w 4 y M B N N N N N N N N ! N M f y 4 X X < 3 4 X X % X %                         ",
"                                      y r r B ! W ! W C ! ` | | G | | Z z x z z z x z z z A x x C                       ",
"                                7 % 5 B ! C C ! W ! C Z K o.3.5.5.1.1.1.1.1.1.1.1.:.<.3.<.1.2.<.J ; # *                 ",
"                          s g p % # ; ` ..J L  . . . .L X.1.2.2.2.2.2.2.2.2.2.2.2.:.2.3.3.2.2.2.J ; # *                 ",
"                        B 5 & $ $ - k ..3.1.2.4.3.4.4.2.2.2.2.2.2.2.2.2.2.2.2.2.2.:.2.3.3.2.2.2.J ; # *                 ",
"                    5 t | .. .J J J L 1.1.2.2.2.2.2.2.2.2.5.5.2.2.1.2.2.1.2.2.2.2.:.2.3.3.2.2.2.J ; # *                 ",
"                  z ; j J 7.4.4.4.4.3.<.L o.o.X.P o.o.X.5.w.9.r.r.9.0.0.0.9.9.4.3.:.2.2.5.<.X...G t X                   ",
"            X % z K o.5.<.1.2.2.2.4...Z b m E E m m b z ..m.D.C.C.C.D.D.C.Z.V.0.3.1.4.4.5.D : = u                       ",
"            % $ j L 4.5.P P J J  . .` m a d I U I ~ O.o.9.D.E.G.G.R.R.R.R.Y.Q.P K D H K K V u                           ",
"            X # x ..7.o.D z b n n n m a a f f u z 3.A.K.H.H.K.K.K.J.E.E.R.E.h.x & $ $ $ =                               ",
"                  V A M N d d n d n n d d d d d m 7.D.W.C.C.P.P.L.J.R.R.Y.E.n.j % 3                                     ",
"                  % % & p d d I a b m d U I b d m 7.D.R.I.U.L.Y.Y.R.R.I.Y.R.f.j X <                                     ",
"                  % % & p d d d b b b I U d a d m 4.Z.Y.R.U.I.Y.R.R.R.I.Y.R.f.k % 3                                     ",
"                  % % & p d d m b b d ^ / T ^ / #.q.C.H.G.R.I.I.R.R.R.I.L.R.n.v y p                                     ",
"                  % % & p d d d m d ^ (.[.'.'..X{.3XyXY.H.K.R.R.R.J.R.R.Y.R.m.Z B B a 5 4                               ",
"                y 6 6 6 a d d Q *.%.^.'.>X:X-X:X;X$XqX6X6XD.Y.T.Y.L.I.Y.Y.R.m.| Q Q 9 @ %                               ",
"            # % 9 p p a E E U %.OX>X*X*X|.,X;X*X-X:X|.1X0XtXyXY.G.S.I.L.L.S.m...! W 8 $ &                               ",
"                ' u 5 i ^ *.^.].oX,X=X'.OXXX;X*X*X-X|.|.1X2X8XqXqXqX8X0X0XqX@X' C V ; # X                               ",
"                  7 < 2 %.%X$X%XXX,X=X}.+XXX;X=X=X;X-X|.|.|. X X X X X<X<X,X'.] C V s 2 R T                             ",
"                  X # ; q.iX7X9X[.;X-X*X>XXX}.=X;X;X=X=X=X X-X:X:X>X=X=XXX>X`.] Z ~ ~.].].) i r u                       ",
"                 .| v F s.I.U.6X8X8X$X=X X}.:X:X|.;X;X;X;X;X-X:X:XoX|..X].{./.^ ! [ (.>X:X!.7 $ ;                       ",
"            o $ v n.D.C.C.Y.Y.I.D.D.6X$X;X}. X-X}.=X=X;X-X-X-X-X<X-X'.~.] ~ ! V V [ ).#X=X) 1 # 5                       ",
"            < # l n.W.Y.G.R.H.c.1.1.O.$.#.%.'.>X X X-X-X-X-X-X X].)./.=.~ W [ &.~.^.'.;X}.) 1 % *                       ",
"            = - l n.E.I.I.E.S.e.e 1 % % > 7 ^.:XoX|.|. X XOXOX[.$.C C C } ] %.`..X|.:X1X[.%.7 % 5                       ",
"      e e ` s.s.f.C.G.G.W.R.U.w.= @ $ 3 < 1 ^.-X:X-X=X'.`.).%.#.! V Q $.(.`.]. X X'.) T T ]                             ",
"      X % J C.I.I.R.G.W.V.m.B.e.A 9 6 % % 2 ^.'.'.'.'.`.~.#.W C ' ] #.).}.>X>X;X;X'.^ h x '                             ",
"    1 X & J Z.I.I.I.R.D.:.x z V       & $ & Q [ [ [ [ [ [ ! Z ! (.'.'..X-X:X:X-X X[.g.p.9.J 8 8 A                       ",
"    4 % & L C.I.R.S.E.D.K o < i       # $ : z C Z C C ! W W ! ' &.(.`.'..X;XXXXXXX[.g.d.k.>.c c H {                     ",
"      % & L C.R.E.G.W.D.D # 7 d       < & & M C C C C C C ! ! ! C W ] ~.'.1X>X|.|.[.g.y.,.l.f.p.:.t 3 w                 ",
"          | o.P 9.F.J.J.i.2.q.O.t y w % % ; ' @.@.@.@.@.@.@.@.O.| C ~ [ &.~.&.&.&.=.g.x.j.,.z.d.2.: % 6                 ",
"            3 @ c B.U.R.R.R.uXw.: = % % $ , @.b.b.b.b.4Xb.b.v.v.O.! ! C ` ` ` W N Z 7.p.a.t.t.p.5.h & 5                 ",
"            3 # x B.uXJ.G.W.E.s.v A B N u C 3XhXdXdXhXhXrX4Xv.v.g.g.q.q.g.g.O.B 5 = z A c k k c x & @ 7                 ",
"            # ; v s.m.m.c.V.m.w.K W W { } $.pXxXvXvXxXlXaXrX5X4X4X4X4X4X5X4Xg.{ B B 4 . % # # % @ & % 5                 ",
"                  u t ; t t , x C [ [       xXcXvXvXvXvXvXkXkXjXkXkXkXkXgXjXgXaXaXeX} o % & & & X * % . 6 6 w           ",
"                    i 6 i e w u B B s     wXfXzXzXzXzXzXzXzXzXzXvXcXvXvXvXvXvXvXxXgX9X$.Q d p w s _ ] -.{ [ { {         ",
"                                4 o w { { -.pXlXxXxXxXxXxXxXxXxXzXzXzXlXzXlXzXzXzXzXlXlXvX        lXkXkXlXbXjX_.6 @ &   ",
"                                      g s Q -.9X9X9X9X9X9X9X9X9XsXvXvXvXvXvXvXvXvXvXcXcXvXvXvXcXcXvXcXvXbXlXkX_.* & :   ",
"                                      4 % & ` +.+.+.+.+.+.+.+.-.eXkXkXkXkXkXkXkXkXkXbXbXzXvXcXvXzXcXxXlXsXsXaX&Xw &     ",
"                                      7 & - X.p.i.i.i.i.i.i.i.i.N.5X5X5X5X5X5X5X5XwXaXbXcXvXvXlXvXcXbXsX-.Y Q [         ",
"                                      0 % + ;.z.k.k.k.k.k.k.k.k.n.M.M.M.M.M.M.M.M.N.7XeXpXpXpXeXpXpXeXwX$.6 7           ",
"                                      0 % + ;.z.k.k.k.k.k.k.k.k.Z.I.I.I.I.I.I.I.S.F.J t 6 i 9 y s e 6 Y                 ",
"                                      0 % + ;.z.k.k.k.k.k.k.k.k.Z.R.R.R.R.R.R.R.R.A.S O X y u r 5 X 3                   ",
"                                      0 % + ;.z.k.k.k.k.y.y.y.k.Z.R.R.R.R.R.I.I.I.F.H O 1 Y                             ",
"                                7 e A 8.:.;.r.j.l.k.y.d.9.F v D f.Y.R.R.Y.H.T.Y.E.D.H O .                               ",
"                                3 % j r.x.y.z.z.k.j.t.y.6.h # 5 s.Y.I.I.R.Y.G.V.F.B.J = 1                               ",
"                                3 % j r.x.u.a.z.d.k.k.x.6.h $ 5 s.Y.I.I.R.I.n.H A V                                     ",
"                                3 % j r.x.u.a.z.d.r.6.4...: & ; s.R.I.R.R.E.h.x % *                                     ",
"                                3 o j r.k.y.y.k.u.;.h = 7 X & ; s.I.I.L.Y.W.h.x 3 %                                     ",
"                              C G D ;.t.y.x.k.j.x.P $ . . % % 8 s.R.I.I.Y.R.n.j % X                                     ",
"                        Q 4 $ S i.j.j.d.i.d.y.y.i.J & 3 3 % % r s.R.I.R.R.R.n.j % 4                                     ",
"                    s s p y t M ~ ( 8.t.j.d.P l v `       & % 8 s.R.I.R.R.R.n.j % 4                                     ",
"                  % % & 9 n m I T T E 6.r.9.A # =         = % 8 s.R.I.R.R.R.n.j % 1                                     ",
"                  % & 5 9 a a d E b b x : t               % % 8 s.Y.R.W.W.E.n.k # *                                     ",
"                  6 . 3 5 9 9 9 a 9 y f 6                 X % 8 3.s.f.s.h.h.q.t # *                                     ",
"                  6 . % % % % & % % s                     X % & a m b b b m n 3 < 4                                     ",
"                                                          % % % p d d n n a a & & *                                     ",
"                                                          % % % 9 m d E E d a & $ %                                     "
};
