/* XPM */
static char *fc5702284c8441689abf2e66cd803da6afaNZTJle3g6aBLw[] = {
/* columns rows colors chars-per-pixel */
"60 60 234 2 ",
"   c None",
".  c #1E0D1B",
"X  c #180C14",
"o  c #1D1216",
"O  c #1D131C",
"+  c #1B161B",
"@  c #1F0D0F",
"#  c #24120D",
"$  c #230E14",
"%  c #240F1C",
"&  c #2A0F17",
"*  c #231215",
"=  c #23131C",
"-  c #2A141C",
";  c #25181C",
":  c #2A1819",
">  c #351919",
",  c #3F231C",
"<  c #1E1721",
"1  c #1E172B",
"2  c #1C1B31",
"3  c #241522",
"4  c #2B1423",
"5  c #251B23",
"6  c #2B1B23",
"7  c #2B1C29",
"8  c #251728",
"9  c #351D24",
"0  c #361827",
"q  c #3F1E3F",
"w  c #2C222B",
"e  c #28242D",
"r  c #3E2422",
"t  c #32232C",
"y  c #3B232B",
"u  c #382729",
"i  c #332433",
"p  c #3B2335",
"a  c #3C253B",
"s  c #3A2A37",
"d  c #3C3137",
"f  c #44261E",
"g  c #4B281D",
"h  c #532B1F",
"j  c #4C2A25",
"k  c #472827",
"l  c #4A332B",
"z  c #54332D",
"x  c #573428",
"c  c #422534",
"v  c #42243C",
"b  c #462A38",
"n  c #522F34",
"m  c #4B3234",
"M  c #4B343B",
"N  c #48373A",
"B  c #523332",
"V  c #543935",
"C  c #50363A",
"Z  c #543A3C",
"A  c #5A3734",
"S  c #542C24",
"D  c #673B2E",
"F  c #663D36",
"G  c #713E2E",
"H  c #5A413B",
"J  c #4E423B",
"K  c #68443A",
"L  c #774B3B",
"P  c #78543F",
"I  c #6C5234",
"U  c #3D2442",
"Y  c #3A2745",
"T  c #36364A",
"R  c #37355A",
"E  c #4B3C43",
"W  c #4A3A48",
"Q  c #523C44",
"!  c #543A47",
"~  c #45364F",
"^  c #613F41",
"/  c #4A3D61",
"(  c #584646",
")  c #534759",
"_  c #4F4A54",
"`  c #6C4A44",
"'  c #664845",
"]  c #724B43",
"[  c #754B47",
"{  c #755244",
"}  c #7A5244",
"|  c #7A5649",
" . c #685A57",
".. c #705C55",
"X. c #604E50",
"o. c #77645B",
"O. c #5D5E62",
"+. c #484A77",
"@. c #4A5478",
"#. c #575678",
"$. c #534C6A",
"%. c #635F61",
"&. c #756764",
"*. c #6D6B73",
"=. c #8A573E",
"-. c #824D3F",
";. c #85613F",
":. c #C86D3F",
">. c #864F43",
",. c #835543",
"<. c #865A45",
"1. c #8B5A45",
"2. c #855A4A",
"3. c #8A5C4A",
"4. c #895448",
"5. c #945C47",
"6. c #8B5D51",
"7. c #886556",
"8. c #976D52",
"9. c #986A56",
"0. c #97674D",
"q. c #AC6B4B",
"w. c #A7674B",
"e. c #B46C4B",
"r. c #BC6E4A",
"t. c #B96B45",
"y. c #BC714C",
"u. c #B4704A",
"i. c #AA6853",
"p. c #BC6F50",
"a. c #A9795C",
"s. c #A87457",
"d. c #B67154",
"f. c #BC7152",
"g. c #B87A59",
"h. c #AC704F",
"j. c #977867",
"k. c #887269",
"l. c #AA7B65",
"z. c #C46D48",
"x. c #C2724C",
"c. c #C67145",
"v. c #C37552",
"b. c #C06F51",
"n. c #BB895D",
"m. c #9B856E",
"M. c #98846C",
"N. c #9B8573",
"B. c #9C8872",
"V. c #978576",
"C. c #9F9378",
"Z. c #A58669",
"A. c #BB8765",
"S. c #B8886A",
"D. c #BB926C",
"F. c #A38774",
"G. c #B99476",
"H. c #B39278",
"J. c #DF9F5D",
"K. c #C78D69",
"L. c #CC946D",
"P. c #C79669",
"I. c #D89B6D",
"U. c #CC9875",
"Y. c #DD9F72",
"T. c #D49B79",
"R. c #E39E6C",
"E. c #E59F65",
"W. c #E39E73",
"Q. c #E29E79",
"!. c #EC9E72",
"~. c #DDA36C",
"^. c #D4A16F",
"/. c #DDA273",
"(. c #D7A278",
"). c #CEA273",
"_. c #E2A26C",
"`. c #E7A367",
"'. c #E2A373",
"]. c #ECA373",
"[. c #E3A37B",
"{. c #E0A87D",
"}. c #535D8F",
"|. c #465B94",
" X c #485C88",
".X c #57628B",
"XX c #586391",
"oX c #586396",
"OX c #707B81",
"+X c #566AA5",
"@X c #5972A9",
"#X c #5978B9",
"$X c #586FB0",
"%X c #6377B1",
"&X c #5B7CC4",
"*X c #547ECB",
"=X c #5B7DCB",
"-X c #5179C2",
";X c #547ED1",
":X c #4E7DD8",
">X c #607ECE",
",X c #8A7A8E",
"<X c #5A82BA",
"1X c #7F86AD",
"2X c #6C84BE",
"3X c #7688B5",
"4X c #7F92A7",
"5X c #5482CC",
"6X c #5B81CD",
"7X c #5881C3",
"8X c #5582D3",
"9X c #5981D2",
"0X c #5483D9",
"qX c #4F82D0",
"wX c #6786C6",
"eX c #688DD4",
"rX c #5983E0",
"tX c #918F95",
"yX c #B69792",
"uX c #8A88A7",
"iX c #8E92AD",
"pX c #92A0A8",
"aX c #91A0B6",
"sX c #A9AEB9",
"dX c #C49B87",
"fX c #CAA485",
"gX c #D0A080",
"hX c #B8D2DE",
"jX c #B3C3D5",
"kX c #B5D8F0",
"lX c #C6E2EE",
"zX c #CBE9F4",
"xX c #C8E5F2",
"cX c #D3E7F5",
/* pixels */
"                              5 = = = = = = 3 +                                                                         ",
"                            s 6 6 6 6 6 6 6 6 ; t                                                                       ",
"                        5 6 c M E M M M C C C C m y - = = = * o =                                                       ",
"                      d y y M Q Q Q Z H ` ` K ` ` z j B B j j z m N                                                     ",
"                  6 ; y Z Z Z Q Q Q V ` | 2.2.3.3.3.3.3.3.,.,.3.| l : 5                                                 ",
"              6 5 = * k ` { { { { { L P <.<.<.1.<.1.1.1.1.1.=.<.2.L K H k ;                                             ",
"            b > > > > x ,.1.1.1.1.1.1.1.<.<.<.<.3.3.<.<.<.<.1.<.2.1.1.} r * ;                                           ",
"        ; > K { } L L ,.3.3.<.1.1.1.1.1.1.1.1.<.<.<.<.<.2.<.=.<.2.<.1.} r * ;                                           ",
"      C f h L 3.1.1.3.,.] [ [ ] ] ] ] ] ] ] 1.q.q.h.s.8.5.=.=.<.2.<.1.} r * ;                                           ",
"  5 : F 2.<.,.<.3.2.2.` k c c v v v v v b c 6.I.I././.K.0.=.1.2.2.<.3.} r = 5                                           ",
"  = $ A 2.<.<.<.} K ^ ! v a a v p a Y ! 7.7.S././.~._.L.K V B S x x z V N                                               ",
"  * > A | ,.<.2.` n c v a a a p y p v ] P.'.[.'./.~.I.n.g * * * : * @ 6                                                 ",
"      N u r m M M c v v a ~ a U a a q [ I.W.W.Y./.'.'.A.f O 5                                                           ",
"        3 3 i a p p U U a v a a a p q ] P._.W.R.Y.'.[.S.k O 5                                                           ",
"        = - p v v a Y a c c a a y p U [ P.^.[.'.'.'.'.A.k = e                                                           ",
"        = 4 p p c a Y a c a / +.+.+.+.&.).`.R.Y././.'.K.z t d                                                           ",
"        = 4 p a s p a ~ Y R .X#X7X5X=X1XfXW.W.Y././.'.L.K M b 6 =                                                       ",
"        = 4 p a a c p / }.|.#XwX7X*XrXwX4XuXyX'.'./.'.L.K Q M - =                                                       ",
"        = 4 p p p c a @.7XqX*X0X*X*XrX=X<X=XiXT.gXT.T.G.X._ N 6 6                                                       ",
"            3 4 7 c a +.-X0X;X:X0X=X=X6X5X9XwXwXwX2X2X2X#X#X}.M m i = -                                                 ",
"            = O 1 7 7 $.uXuXuXuXuX2X*X8X8X=X6X6X6X6X6X6X9X9X+XQ V i = -                                                 ",
"            e O * # # P gX(././.yX3X5X0X6X&X6X6X6X6X6X6X6X6X+XQ V i = -                                                 ",
"                E 8 $ L Q.].R.`.dX3X*X8X6X=X9X6X6X6X6X6X6X9X+XQ V i = -                                                 ",
"                  d : I I.].~.`.yX3X8X9X6X5X8X5X7X6X9X9X=X#XXX! M s 3 -                                                 ",
"              w H 9.s.n._.!./.`.dX1X6X=X&X5X8X=X&X9X0X#X#.) ~ w 9                                                       ",
"            5 o j L.].~.`.R.fXdXyX3X=X=X=X8X6X=X&X#X$XoX#.) T 3 *                                                       ",
"            w 3 m L._.Y.'.T.tX2XwX6X;X8X8X;X:X0X#X#.) $.+X#X@.1 *                         = = = = = = ; % . 7 8 3 i     ",
"            5 O M P.`.W.R.(.,XoXXXXXXX@X&X6X$XXX#.) C ) @X5X X2 = 9                                     O 3 i < X 5     ",
"            3 % n K._.W._./.7.! Q Q W #.@X&X.XJ V Z W +.$X=X|.2 # - 8 3 ; ; = = = = = 3                       7 3 3     ",
"            6 = z P./.W.R.~.S.l.j.` N _ #.@.) ! W #.XX+X=X>X|.2 o t                                           5 3 =     ",
"              6 Z Z.P.T._.J.'.[.L.1.K ' ' ' F Z _ @XeXeXeXwXXXT T                                               < 5     ",
"                  l g 2.(.`.R.'.W.K.K.U.U.P.8.A ) aXkXkXkXkXhXjXjXhX                                      7 t           ",
"                  o * ' G.P.U.U.L.W.].].].'.9.M ) sXcXzXxXzXxXlXcXzXzX                                    4 3           ",
"                  + ; ( N.m.m.m.H.U./.[.W.Q.9.N ) sXcXxXxXzXzXlXlXzXzX        e O . * ; = ; ; ; ; ; ; <                 ",
"                  o * H N.B.M.m.F.H.D.D.D.G.j.o.&.tXpXpXpXpXtXOX*.OX*._ i i _                                           ",
"                  5 ; ( j.M.M.m.m.m.m.m.m.N.B.F.V.&.%.O.O.O.E ; X ; 6 3 % O e                                           ",
"                      E d l o.B.m.m.N.N.N.N.N.B.V.&. .%.O.%.( ; 5 E                                                     ",
"                        o * ..B.B.V.V.V.V.F.F.Z.N.&.&.&.&.o.' , k (                                                     ",
"                        + ; ..N.m.B.B.B.M.m.M.M.Z.s.d.e.y.u.h.q.w.D * 5                                                 ",
"                          d X. ...j.N.m.M.V.C.H.S.g.x.x.f.r.c.c.f.D : 5                                                 ",
"                            t ; u k.F.Z.m.N.D.E.R.v.t.r.v.y.y.x.d.F * <                                                 ",
"                            5 * f l.U.L.L.L.I.[.T.2.S G q.y.r.x.d.F & =                                                 ",
"                            5 = f A.'.'./.'.Y.K.S.A $ k w.x.x.c.d.K f j                                                 ",
"                            7 = f A.'.'./.'.0.j j - % j w.v.y.:.x.i.w.5.B w                                             ",
"                            7 = f A.'.'./.'.2.; ; 7 i C >.5.5.z.z.p.x.e.S $ 5                                           ",
"                            5 = f A.'.'./.'.2.* ;       t > x e.z.b.z.q.k = .                                           ",
"                            5 . r S./.~.'.Q.3.* ;       3 & A p.z.b.x.i.b ; =                                           ",
"                            m 9 S A.~.W.[.Y.<.* =       3 % A e.r.f.x.w.k = 5                                           ",
"                        i l 7.l.g.Y.W.Q.[._.;.* .       O * z e.y.d.x.q.j * 5                                           ",
"                        = > 8.{._.R.W.T.S.S.| 5 i       j g L t.x.d.t.q.j * 5                                           ",
"                        4 > 9.[._.`.'.a.j r m     5 ; j 5.i.i.c.z.g.f.i.j * 5                                           ",
"                        & 4 8._.Y.'.~.a.0 %       O ; k [ 4.4.>.>.>.L } z                                               ",
"                        & 4 8._.Y.'.~.a.0 %       + O - c b v b c 9 * =                                                 ",
"                        & 4 8._.W.'.~.a.0 *       < < 8 a U U a a 9 = O                                                 ",
"                        - 4 8._./.'.~.a.0 %       = * 4 p p p y y 9 * 5                                                 ",
"                        * 9 8.~.~.'.'.a., *       6 $ & 0 4 ; 6 ;                                                       ",
"                        = > } l.a.l.l.6.> =         7 6 7 ; ; ;                                                         ",
"                        8 % c b b v b c - =                                                                             ",
"                        5 3 7 a Y a i p - ;                                                                             ",
"                        = ; t p v a a p % *                                                                             "
};
