/* XPM */
static char *_24ead0c95a049b9da7baf8e4b5c03a45ANdjTfYm43Iejz3[] = {
/* columns rows colors chars-per-pixel */
"60 60 242 2 ",
"   c None",
".  c #1E0E18",
"X  c #1E131C",
"o  c #1E1215",
"O  c #280E17",
"+  c #231216",
"@  c #2B1415",
"#  c #23141B",
"$  c #29141A",
"%  c #23191E",
"&  c #2A1A1C",
"*  c #261A16",
"=  c #341B1C",
"-  c #391918",
";  c #280C0F",
":  c #1F1623",
">  c #231523",
",  c #241B24",
"<  c #2B1C25",
"1  c #241D29",
"2  c #2B1C29",
"3  c #2B1424",
"4  c #331E23",
"5  c #321C2A",
"6  c #3A1D27",
"7  c #2E1C31",
"8  c #2B242C",
"9  c #292224",
"0  c #342124",
"q  c #3C2425",
"w  c #33242C",
"e  c #3A272C",
"r  c #2C2633",
"t  c #332432",
"y  c #3B2435",
"u  c #3B2C34",
"i  c #3D243B",
"p  c #342C39",
"a  c #3E293A",
"s  c #352838",
"d  c #3B3135",
"f  c #393238",
"g  c #3E2113",
"h  c #47291F",
"j  c #451F3C",
"k  c #442828",
"l  c #532D27",
"z  c #49322D",
"x  c #5A382D",
"c  c #432B32",
"v  c #42253B",
"b  c #432A3B",
"n  c #452737",
"m  c #4C3A3C",
"M  c #493538",
"N  c #533A3C",
"B  c #563A38",
"V  c #502931",
"C  c #643A2B",
"Z  c #683F39",
"A  c #733C30",
"S  c #441F16",
"D  c #5C413D",
"F  c #53423D",
"G  c #6B453A",
"H  c #734B3D",
"J  c #75493B",
"K  c #7A533B",
"L  c #6F422E",
"P  c #3E1F41",
"I  c #3D2641",
"U  c #3B2943",
"Y  c #322741",
"T  c #3D3A47",
"R  c #34344E",
"E  c #353A62",
"W  c #422545",
"Q  c #4C3C44",
"!  c #473845",
"~  c #523C41",
"^  c #5A3740",
"/  c #463B57",
"(  c #623B43",
")  c #3E4244",
"_  c #3F4160",
"`  c #4B4345",
"'  c #53444B",
"]  c #554748",
"[  c #484659",
"{  c #53485A",
"}  c #5E5D5D",
"|  c #585456",
" . c #5E514D",
".. c #6C4A43",
"X. c #6A4843",
"o. c #734D43",
"O. c #734C46",
"+. c #7C5343",
"@. c #775449",
"#. c #6D5E55",
"$. c #625D5E",
"%. c #6D5856",
"&. c #725D55",
"*. c #715F59",
"=. c #62514B",
"-. c #5E625E",
";. c #77655A",
":. c #67635E",
">. c #5C5C63",
",. c #575468",
"<. c #4C5074",
"1. c #665D6A",
"2. c #5C6261",
"3. c #5C646B",
"4. c #636262",
"5. c #666468",
"6. c #686A77",
"7. c #766E7A",
"8. c #73737D",
"9. c #716B76",
"0. c #8A593E",
"q. c #87553F",
"w. c #894B36",
"e. c #845744",
"r. c #855945",
"t. c #8A5A43",
"y. c #845A4A",
"u. c #8B5D4A",
"i. c #875449",
"p. c #985A45",
"a. c #8E594C",
"s. c #95674E",
"d. c #886757",
"f. c #966A57",
"g. c #9C7057",
"h. c #906548",
"j. c #B86C4A",
"k. c #A46B55",
"l. c #B26E55",
"z. c #A7795A",
"x. c #BE7152",
"c. c #B6745A",
"v. c #B06C4F",
"b. c #836D65",
"n. c #8A7B6D",
"m. c #947B6A",
"M. c #8A7C79",
"N. c #947C71",
"B. c #A47362",
"V. c #B37E62",
"C. c #C26E49",
"Z. c #C4714C",
"A. c #C9714B",
"S. c #C27151",
"D. c #B6825B",
"F. c #95836D",
"G. c #9A856D",
"H. c #9C896F",
"J. c #968572",
"K. c #9B8573",
"L. c #9B8973",
"P. c #9B8878",
"I. c #A5856B",
"U. c #B98767",
"Y. c #B08D76",
"T. c #CC956C",
"R. c #D39A6F",
"E. c #D9996C",
"W. c #CB9977",
"Q. c #D49C73",
"!. c #DA9C73",
"~. c #D69C7A",
"^. c #C68F6A",
"/. c #E39E6E",
"(. c #E99E6C",
"). c #E39E72",
"_. c #E09E7F",
"`. c #F09F66",
"'. c #DDA36D",
"]. c #D8A46B",
"[. c #DEA273",
"{. c #DBA37B",
"}. c #D5A27B",
"|. c #E3A26C",
" X c #E8A46D",
".X c #E3A274",
"XX c #E4A678",
"oX c #56648E",
"OX c #556697",
"+X c #757984",
"@X c #636892",
"#X c #5A7AB8",
"$X c #4E6CAE",
"%X c #6C7CAA",
"&X c #535FA4",
"*X c #5B7EC4",
"=X c #5A7FCC",
"-X c #557CC8",
";X c #4E7FDB",
":X c #837B8B",
">X c #6A83BB",
",X c #7986B5",
"<X c #6583A2",
"1X c #5482CE",
"2X c #5A82CC",
"3X c #5C83C6",
"4X c #5482D3",
"5X c #5983D2",
"6X c #5884DD",
"7X c #4D85CF",
"8X c #6685C9",
"9X c #9D939E",
"0X c #8B8A8F",
"qX c #BA9989",
"wX c #A59398",
"eX c #B69794",
"rX c #AE8E8D",
"tX c #868AAB",
"yX c #8C97A6",
"uX c #969CA9",
"iX c #948AA7",
"pX c #94A2A9",
"aX c #97A7B1",
"sX c #C49C87",
"dX c #C7A08E",
"fX c #A9BAC7",
"gX c #B1BCC9",
"hX c #B6C8D2",
"jX c #BDD1DD",
"kX c #BFEBED",
"lX c #C4D5DA",
"zX c #C3CBD7",
"xX c #C5DBE6",
"cX c #D0DFED",
"vX c #CDE4ED",
"bX c #C7E4F1",
"nX c #CBE5F3",
"mX c #CCE9F5",
"MX c #CBEAF8",
"NX c #D1EAF5",
"BX c #D3E8F6",
"VX c #D0E9F3",
/* pixels */
"                                                                                                                        ",
"                                                X X X # > > !       , > # # # # # # :                                   ",
"                                              M q k q q k q M     p < 4 4 0 0 4 4 4 < 8                                 ",
"                                          # = H e.e.e.e.q.e.G = # u N B B N N N N ~ m e # <                             ",
"                                          # = H t.t.y.r.0.t.J x z B ..H ..X.D N Q Q Q b w y !                           ",
"                                          # = H t.t.y.r.0.t.t.r.e.y.r.r.y.y...B N ~ ~ N N N 6 + ,                       ",
"                                          # = H t.t.y.r.0.t.r.t.t.t.t.t.t.u.+.J o.@.o.J o...q + %                       ",
"                                          , 4 X.y.t.r.r.0.t.t.t.t.t.t.t.t.u.u.r.r.u.t.t.u.+.k * e                       ",
"                                              c - x r.t.t.r.t.e.y.r.u.u.t.t.t.t.0.0.0.t.u.r.G G ' 2 <                   ",
"                                              1 + z @.K e.y.u.f.s.s.s.s.y.+.+.+.+.K K K o.+.e.u.G - q ]                 ",
"                                                    = - H t.k.R.E.E.E.U.N n n b b b b ! n V +.t.K +.O.z $ w             ",
"                                                    , 0 B G t.Q.).|..X^.@.O.^ n i I i U W W ( O.O.O.G x k m             ",
"                                                        w @ C T..X.X[.[.~.W.d.n y y i a i i v v v b c G y.X.4 #         ",
"                                                        , + x R..X.X.X.X).].d.P i a i i i i i i i a c G u.H @ $         ",
"                                                        , + C R..X.X.X.X).].d.P i a i i i i i i i i c ..y.X.0 #         ",
"                                                        , + x R..X[..X.X).].d.P i a i i i i i i i i y k z m '           ",
"                                                        9 # C R..X.X.X.X.X].d.W U a U i i i i i i i U 3 $ 8             ",
"                                                    X < c M +.!./.[.!..X X'.0X$X&XOX&X<.e c I j v Y I y t w < <         ",
"                                                    < = z m @.Q.'.[.!.[.W.qXyX5X5X2X7X&XR T U n c i i i a w O +         ",
"                                                < e M M M m e.Q.XX.X.X~.tX>X3X1X1X4X1X*X$XOXE i n i i v i t # +         ",
"                                              > + q ~ Q { ,.9.rXeXeXeXwX2X;X8XiXtXtXiX,X6X-X/ s I v b y 5 t s 2         ",
"  X # # . X X # > r 1.                        % $ 6 Q / @X-X-X8X3X3X5X3X3X3X9XQ.].~._.eX=X$X! t i i y < , p             ",
", X ` 8.8.+X+X+X8.7.9.| ! u                   > $ 6 N [ OX3X4X4X2X*X2X1X1X3XwX/.|.[..XeX*X$XR 2 7 t t s                 ",
", : 6.cXBXnXmXvXNXhX6.1 > 3 3 Q               , # q m [ oX#X*X5X5X*X2X1X2X*XwX)./.{.[.qX3X$Xp $ . # 2                   ",
", X 6.cXbXbXbXbXmXxXfXyXuXuXyX5.w w w 8       8.6.' e t [ <.OX*X5X=X2X1X;X4XuX~.).[.|.eX    r X 1                       ",
", 1 6.zXxXcXbXbXbXbXmXNXNXmXkX<X8 r 8 p >.0X9XuXaX1.$ + d Q <.#X5X-X3X3X>X>XwX).|.[.|.rX$X  u % r                       ",
"    1.[ [ fXBXNXbXMXbXbXBXBXbXhXfXfXfXgX+Xf u t p t $ $ c B ,.#X4X=X=X>XeXqX~.`.(..X[.f.Y R                             ",
"      , T uXgXgXfXfXxXmXmXmXmXmXmXmXmXvXyX) ! f ! u + + c B ,.#X5X=X=X,X}..X.X|./.~.sX&.@ &                             ",
"          T r r r T pXvXMXMXbXnXNXmXmXnXxXhXjXjXlX0X, + M ~ <.#X4X4X=X,XQ.|..X{.dXyX  _ > #                             ",
"            X . 3 ! 0XpXpXpXyXuXuXaXxXbXmXmXMXMXmXfX3.} ' N { oXOX%XiX9X}..X|.|.W.7.oXE : #                             ",
"                    M < % % 9 , X T hXmXMXMXMXMXmXmXxXzX7.B N Q D B.XX.X.X.X'.|.T.O.' b $ #                             ",
"                                    >.+X+X+X+X:X+XpXmXxX6.` =.d.g.^.XX/.(.XXU.g.d.] N k $ X                             ",
"                                    8 X # # & O # 5.lXlX7.Q @.Q..X[.[.)..X~.m.D N ] N e & <                             ",
"                                                  >.>.>.' M y.Q..X'.'.E.Y.Y.m.;.;.b.;.;.;.#.m 9                         ",
"                                                    # + M ~ y.T.R.Q.!.T.I.J.J.J.L.L.H.G.L.n.c o X                       ",
"                                                    < $ ` >.$.d.d.N.Y.I.K.J.J.G.G.G.G.G.G.N.z $ <                       ",
"                                                    # # ' 5.>.$.$.9.M.M.M.n.F.H.F.L.K.K.K.J.F q m                       ",
"                                                    # # ' 4.4.} $.4.5.4.5.:.n.J.F.P.K.K.K.P.n.n.%.0 ,                   ",
"                                                  Q f d | 4.2.-.} $.4.} ' `  .#.;.N.K.G.H.F.F.P.&.& #                   ",
"                                              1 , f } -.-.-.-.4.4.$.$.| , # # $ k b.K.L.H.H.F.P.#.& ,                   ",
"                                              > X u } -.-.} $.4.$.' M f     2 + 0 b.P.K.L.H.F.J.;.& #                   ",
"                                              > # d $.2.2.2.4.4.} f + #       , w b.N.K.J.H.H.P.;.$ +                   ",
"                                              , X d $.} >.4.4.4.} f + #           ] m &.J.H.L.P.&.+ #                   ",
"                                              > o c *.;.#.&.*.| | T , o           X + D K.I.I.I.d.h k                   ",
"                                              > $ x f.k.k.k.i.q 8 T               . $ ..sXW.Q.Q.W.U.I.G 0               ",
"                                              > @ C l.Z.Z.S.p.- #                 < @ K {./.(./.XXXXE.L $ :             ",
"                                              , ; C c.x.j.C.p.= >                 1 O J {. X.X!.[.'.R.L $ ,             ",
"                                              B C w.S.C.C.A.p.- >                   u %.d.k.T.!.'.'.R.G O ,             ",
"                                          % - a.c.j.C.Z.x.x.i.= >                       & S V..X|.|.R.G + ,             ",
"                                          # - p.x.Z.Z.l.q.A Z                           2 k V.'.|.|.R.G O ,             ",
"                                          + - p.x.j.Z.l.l ; 4                           > 6 z.'.[.'.R.J = u             ",
"                                          # = p.Z.x.Z.j.l + <                           + 6 D.'.).|.[.D.z.f.z *         ",
"                                          # = p.Z.x.Z.j.l + 2                           $ k z.T.T./.|.|.XXz.g o         ",
"                                          # = p.Z.x.Z.j.l + 2                               B h +.Q.XX'.XXz.- X         ",
"                                          # = p.Z.x.Z.j.l + <                               9 O Z R..X.X.XD.C l F       ",
"                                          # - p.Z.Z.Z.v.l + 2                               < ; Z Q.|. X)..X!.Q.O.: 1   ",
"                                          # = ..i.i.i.@.k + <                                 4 ..f.s.g.B.B.z.g.B # X   ",
"                                          # + y v j v a % + <                                     $ 4 5 i v v i 5 # #   ",
"                                          # $ w v W W y & + 2                                     X 3 7 i I I i 5 # #   ",
"                                          # $ 5 v i i y 3 # <                                     # 3 5 i I i i 5 #     "
};
