/* XPM */
static char *ca677f44b3de4b1bc780fa977ad8e6b8cwhS4Nb8KA0beTHz[] = {
/* columns rows colors chars-per-pixel */
"60 60 231 2 ",
"   c None",
".  c #1F0E18",
"X  c #1D131C",
"o  c #1D1417",
"O  c #1F0D0C",
"+  c #26100F",
"@  c #220E19",
"#  c #260F17",
"$  c #231215",
"%  c #2B1415",
"&  c #24141C",
"*  c #2A151C",
"=  c #241A1D",
"-  c #2C191E",
";  c #2C1915",
":  c #331B1A",
">  c #3B1B16",
",  c #2A120D",
"<  c #3A221F",
"1  c #1D1924",
"2  c #1E1A27",
"3  c #290D23",
"4  c #241621",
"5  c #2A1622",
"6  c #231A23",
"7  c #2A1C24",
"8  c #231B29",
"9  c #2B1D29",
"0  c #29162C",
"q  c #311C22",
"w  c #331D2B",
"e  c #391F2F",
"r  c #361E35",
"t  c #241F36",
"y  c #1F232F",
"u  c #2D222C",
"i  c #282028",
"p  c #33232E",
"a  c #3B2529",
"s  c #2C2834",
"d  c #352433",
"f  c #3B2435",
"g  c #332B33",
"h  c #3C2A33",
"j  c #3C253A",
"k  c #3D2A3B",
"l  c #36283C",
"z  c #3C323C",
"x  c #2B303D",
"c  c #461D16",
"v  c #48231D",
"b  c #442B2C",
"n  c #4C2824",
"m  c #522821",
"M  c #4D332A",
"N  c #47342D",
"B  c #5D3A2B",
"V  c #55332A",
"C  c #432C33",
"Z  c #42243C",
"A  c #472C38",
"S  c #4A333A",
"D  c #4D393D",
"F  c #473437",
"G  c #5C3C33",
"H  c #55353B",
"J  c #543B3C",
"K  c #5A3B3C",
"L  c #573734",
"P  c #562F30",
"I  c #643B33",
"U  c #68392E",
"Y  c #57403E",
"T  c #68422E",
"R  c #64433B",
"E  c #6A463D",
"W  c #684838",
"Q  c #7A4E3D",
"!  c #75483D",
"~  c #7D533E",
"^  c #2E2749",
"/  c #3B2443",
"(  c #372945",
")  c #3A3548",
"_  c #3C375A",
"`  c #3F3B64",
"'  c #442842",
"]  c #4D3D44",
"[  c #4A3946",
"{  c #533C41",
"}  c #583A44",
"|  c #493F51",
" . c #574246",
".. c #4B4659",
"X. c #534657",
"o. c #5E5D5D",
"O. c #555455",
"+. c #4D414C",
"@. c #664844",
"#. c #784E44",
"$. c #6A5249",
"%. c #7B5143",
"&. c #7A5649",
"*. c #755B58",
"=. c #7B635E",
"-. c #474666",
";. c #5A5962",
":. c #494A71",
">. c #545779",
",. c #574B66",
"<. c #616161",
"1. c #65696B",
"2. c #766B64",
"3. c #76716D",
"4. c #645C65",
"5. c #864D38",
"6. c #89573E",
"7. c #835544",
"8. c #865A45",
"9. c #8A5A45",
"0. c #855A4A",
"q. c #8B5C4C",
"w. c #8A5545",
"e. c #945C4A",
"r. c #855E54",
"t. c #97654C",
"y. c #986A57",
"u. c #916A5B",
"i. c #AB654C",
"p. c #A8664C",
"a. c #BC6E4A",
"s. c #BF724E",
"d. c #A66A54",
"f. c #B76F53",
"g. c #AC7659",
"h. c #BC7252",
"j. c #947A6B",
"k. c #917E73",
"l. c #A77B68",
"z. c #C36E49",
"x. c #C2714C",
"c. c #CA7044",
"v. c #C27353",
"b. c #C87052",
"n. c #C36F52",
"m. c #BD835C",
"M. c #9A846E",
"N. c #96846F",
"B. c #968473",
"V. c #998471",
"C. c #9E8A7C",
"Z. c #A3866F",
"A. c #AD856A",
"S. c #BA8765",
"D. c #A38774",
"F. c #BA8E72",
"G. c #C38E6A",
"H. c #C88B67",
"J. c #CA936C",
"K. c #D59D6B",
"L. c #DC9B6D",
"P. c #D2956E",
"I. c #C18F72",
"U. c #CD9A74",
"Y. c #C79878",
"T. c #D39C73",
"R. c #DB9D73",
"E. c #DC9E7B",
"W. c #D09771",
"Q. c #E49E6C",
"!. c #E49C65",
"~. c #E39E73",
"^. c #EE9F71",
"/. c #DEA16E",
"(. c #DEA373",
"). c #D8A378",
"_. c #E3A26D",
"`. c #E9A26C",
"'. c #E5A362",
"]. c #E2A373",
"[. c #EAA372",
"{. c #E3A479",
"}. c #E5A976",
"|. c #C18354",
" X c #555A84",
".X c #4A568B",
"XX c #59648E",
"oX c #546697",
"OX c #496197",
"+X c #5972A9",
"@X c #5776B8",
"#X c #5172AD",
"$X c #627DBE",
"%X c #5566A0",
"&X c #567ECB",
"*X c #5C7ECB",
"=X c #5C7CC4",
"-X c #567ED4",
";X c #627DC6",
":X c #5F80BE",
">X c #7685B8",
",X c #6283BD",
"<X c #5C81C5",
"1X c #5681CC",
"2X c #5A81CC",
"3X c #5680C7",
"4X c #5581D2",
"5X c #5783D4",
"6X c #4C85DA",
"7X c #6584C5",
"8X c #6B8DD7",
"9X c #4F85E3",
"0X c #97969C",
"qX c #868593",
"wX c #A59499",
"eX c #B0958D",
"rX c #9792A5",
"tX c #8A8AAA",
"yX c #9AA6B5",
"uX c #A6ACB9",
"iX c #A5B2BE",
"pX c #C89C85",
"aX c #D49B86",
"sX c #D5A084",
"dX c #A8B7D1",
"fX c #B2C4CC",
"gX c #A9C4EA",
"hX c #B1CBED",
"jX c #CAE8F6",
"kX c #CAE7F7",
"lX c #D5E8F4",
/* pixels */
"                                                                    9 9 7 7 7 7                                         ",
"                                                                  p @ & & & & & & & & 6                                 ",
"                                              4 & & 7 9 6 1 7 g C h C S C C C C C C C h C p p                           ",
"                                          S - q q - q q 7 q - - a J  .{ { { { { { { { D a * 7                           ",
"                                      = : R Q ~ Q %.Q Q Q %.Q Q %.7.%.%.&.&.@.J D ] ] ] S S F p 4 8                     ",
"                                      $ ; W 9.9.9.0.9.6.9.9.9.9.9.9.9.9.9.9.#.E R @. .R R @.Y q $ 9                     ",
"                                      $ ; W 9.9.8.0.9.6.9.9.9.9.9.9.9.w.9.9.9.8.7.0.0.0.7.0.&.n + O & = p               ",
"                                      $ ; W 9.9.8.0.9.6.9.9.9.9.9.9.9.9.w.w.9.9.9.9.9.9.9.8.7.T V M M M K J             ",
"                                      & - R 0.9.8.0.9.6.8.9.e.9.9.9.9.q.q.0.7.0.9.9.9.8.8.7.8.0.0.0.q.r.#.> % g         ",
"                                          F b V #.8.t.8.0.t.m.m.S.S.H.y.K } H } } H K K K L I %.q.9.9.9.7.E R J C 4     ",
"                                            $ a @.&.7.~ %.t.K._.}.(.].g.H } ' j / / / / / r A @.&.&.~ 7.7.9.q.E > $ 6   ",
"                                                b < > v a I H.~.].{.~.L.G.F.r.A f j f j k j f S [ S S P I %.q.! > $ 7   ",
"                                                  6 7 & & V J.}.].{.~.Q.`.R.u.b f j j f k k j Z Z j Z f H @.#.R b X     ",
"                                                      8 X M G.]./.].].].].].y.k l k l j Z Z j j k j j j j q * a         ",
"                                                      6 $ V G.].].].].(.(.Q.y.k j A f d j Z Z k l j j j f 5 & 4         ",
"                                                      u 7 B G.]./.].].(._.!.y.) ^ j j ( / j Z j d j Z j f 5 & 4         ",
"                                                  z [ k h R J.]./.].].]._.[.D. X.X:.:.:._ / ' Z d f j j f 5 & 4         ",
"                                                7 X 7 S D $.U.]./.].].R.R.sXwX$X        -.( ' f p k j j f 5 & 6         ",
"                                                i # - S D $.Y.{.Q.`._.eXtXtX>X            OX.X) h C ' / j j f w 5 *     ",
"                                                u $ 9 | X.*.eXpXpXsXY.0X<X<X:X                _ k f r d f f p d p 4     ",
"                                                9 . t XX@X@X7X7X,X7X<X3X3X<X;X*X-X            ` / e 5 & - $ X z         ",
"                                               .a p ^ +X2X&X2X1X2X&X2X2X2X5X-X-X*X>XrXrXrXrXqX| w w C 7 7 6 6           ",
"                                            $ q b } -.+X=X2X1X4X4X&X*X*X2X*X-X-X7XwXT.[._.).F.G # u                     ",
"                                          - $ 7 A H X.+X2X2X2X1X&X&X2X3X-X*X*X3X;XwX(.[._.].Y.B $ 1                     ",
"                                          7 $ 8 z J X.+X&X&X*X;X;X;X2X*X=X*X4X6X4X0X).~.Q.{.U.T ; g                     ",
"                                          : % & C I J :.,. X@X5X9X6X*X=X*X*X&X1X7XwX'.^.[._.!.|.g.j.Y d                 ",
"                                            % 8 F L F ....>.oX@X=X&X2X2X1X*X*X2X*XrXpXaXsXR.!.`.{.I.m @ 6               ",
"    & X 2 4 4 4 4 4 4 4 6 1 i                   l $ u OX@XoX-.X.>.@X5X5X1X2X<X1X-X<X>XtXeXE.Q.].(.I.M & 4               ",
"  - & 4 ( 8 4 4 4 4 4 4 6 i                     e o y OX6XXX} L X.oX%X#X&X3X@X#XoXoXoXXXeX[.`.].].G.M $ 6               ",
"  - $ 9                         8 X & o @ & & 0 @ + s OX    X.H D +.] >.&X@XXX..[ ] +.X.l.Q.[.(.].G.M $ 6               ",
"  7 $ X                                               #X&X@XOX X,.] J X. X>.,.{ L 0.y.u.G._.].R.`.J.N $ 6               ",
"  - $ 1                                               8X2X5X5X7X+X.. .Y J ] ]  .R l.E.R.]._.).T.!.J.N X 4               ",
"        2 6                                       kXkXhXgXgXgXgXdXdXiXqX .K r.l.S.J.(.[.`.L.Y.9.T R                     ",
"        y 2 )                                 kXkXjXjXkXkXkXkXkXkXkXkXyX+.G y.R.[._._.].L.W.F.B $ X                     ",
"              s 1 X 6 = = 6 6 6 6 6 6 6 x yXlXlXjXjXjXjXjXjXjXjXjXjXjXyX .G y.E.[.Q._.R.G.F.Z.M $ X                     ",
"                & @ $ & & 5 5 5 5 4 & 5 ) qXuXuXuXuXiXfXfXfXfXfXfXfXfX0X$.$.y.Y.U.U.U.Y.A.Z.j.N $ &                     ",
"                                          l u s 9 9 k 4.1.1.1.1.1.1.1.3.B.j.M.D.Z.D.D.D.M.V.k.N $ &                     ",
"                                              s & & u O.<.<.<.o.o.<.<.2.N.M.M.M.N.V.V.N.B.V.k.N $ 6                     ",
"                                                & . 7 O.<.<.<.<.<.<.<.2.M.M.M.M.M.M.M.N.B.C.k.D o 1                     ",
"                                                4 & u O.<.<.<.<.<.<.<.2.B.B.B.B.B.B.B.V.$.L Y                           ",
"                                                7 & i O.o.o.o.<.o.o.O.2.Z.Z.Z.Z.Z.Z.Z.D.G O &                           ",
"                                                4 . i o.<.;.;.o.O.g i $.U.T.T.T.T.T.T.Y.E * &                           ",
"                                                8 & : *.2.=.=.=.$.; $ W R.].].].].].].K.E 3 %                           ",
"                                                9 * c q.f.f.f.g.8.> % W R.].].].].].].K.E 3 %                           ",
"                                                0 * c e.n.b.b.h.w.> & @.R.].].].].].].K.E 3 %                           ",
"                                                2 # c t.h.v.x.h.w.> 4 @.R.].].].].].].K.E 3 %                           ",
"                                                X O c p.s.x.c.z.i.5.Q ! #.Q g.).(.].]./.g.t.t.G i                       ",
"                                                  = n e.d.a.z.z.v.f.s.5.& , 5.E.L.L.].(._._.T.B $ 2                     ",
"                                                      H n U i.h.v.h.x.5.& , 6.].`._.(.(._.Q.T.B $ 2                     ",
"                                                      0 $ m p.v.v.s.x.5.- : W A.S.P.{.]._._.T.B $ 2                     ",
"                                                      4 & m i.x.z.s.s.5.; & 7 a n t.R.]._._.W.B $ 2                     ",
"                                                      6 & m p.x.x.s.a.5.; * & @ ; 9.~.Q.]./.P.6.I  .                    ",
"                                                      6 & m i.x.x.s.a.5.% % * $ * 0.).}.(.E.E.L.(.G.V $ g               ",
"                                                      6 & m i.x.x.s.a.5.* $ 7     $.0.6.S.].L.d.r.=.n q d S             ",
"                                                      6 & m i.x.x.x.a.5.* &         - : u.R.J.@.^ ^ h A p * & 6         ",
"                                                      6 & m p.x.x.x.z.5.* $              .B B b g Z Z f e 5 & &         ",
"                                                      = $ n q.d.i.i.p.! * &               & w p p Z e f w 5 . u         ",
"                                                      6 X 7 S H P S S h & &                   k & * * & & & . u         ",
"                                                      6 & 5 f f f j j d & &                     7 7 & & 7 9 9           ",
"                                                      6 * 5 f j j j f w & &                                             "
};
