/* XPM */
static char *_85c2c517a9a457aacbdc999f888643ccyrCJS6csRFuZgt6[] = {
/* columns rows colors chars-per-pixel */
"60 60 243 2 ",
"   c None",
".  c #1B0D16",
"X  c #1D1313",
"o  c #1D131B",
"O  c #1E191B",
"+  c #17151A",
"@  c #1E0F0E",
"#  c #240F1C",
"$  c #240E16",
"%  c #241315",
"&  c #2B1315",
"*  c #23141C",
"=  c #2A141C",
"-  c #241A1C",
";  c #2C1B1C",
":  c #281817",
">  c #341C1B",
",  c #361817",
"<  c #2E0E10",
"1  c #3C221E",
"2  c #1D1322",
"3  c #1E1923",
"4  c #181829",
"5  c #1F1E38",
"6  c #241422",
"7  c #2B1423",
"8  c #241A23",
"9  c #2B1B23",
"0  c #251B2B",
"q  c #2C1C2A",
"w  c #26162C",
"e  c #331E24",
"r  c #331D2B",
"t  c #381B2C",
"y  c #3B1A33",
"u  c #281025",
"i  c #2A2229",
"p  c #342224",
"a  c #33222A",
"s  c #3C252A",
"d  c #282734",
"f  c #3C2434",
"g  c #3A2C33",
"h  c #3C253B",
"j  c #3D293C",
"k  c #362534",
"l  c #39383E",
"z  c #431E18",
"x  c #41241C",
"c  c #4A2A1C",
"v  c #50301C",
"b  c #462A27",
"n  c #58342B",
"m  c #41243B",
"M  c #462935",
"N  c #4A3639",
"B  c #54353B",
"V  c #543A3C",
"C  c #583A36",
"Z  c #4E2E2A",
"A  c #673A2E",
"S  c #633C34",
"D  c #683C38",
"F  c #723729",
"G  c #59423A",
"H  c #6B4332",
"J  c #64443D",
"K  c #6A493B",
"L  c #784A39",
"P  c #7E523D",
"I  c #6A412E",
"U  c #3A2843",
"Y  c #373555",
"T  c #353449",
"R  c #3A1F43",
"E  c #412742",
"W  c #4C3B43",
"Q  c #4A3947",
"!  c #523C42",
"~  c #553C47",
"^  c #4A3F56",
"/  c #693D42",
"(  c #3A4664",
")  c #354471",
"_  c #39475E",
"`  c #49434B",
"'  c #53434D",
"]  c #584646",
"[  c #4D4A5A",
"{  c #574954",
"}  c #565457",
"|  c #644243",
" . c #694845",
".. c #734D45",
"X. c #7A4E41",
"o. c #7D564A",
"O. c #795547",
"+. c #6B5552",
"@. c #665C5A",
"#. c #745E5B",
"$. c #655350",
"%. c #76655B",
"&. c #67645C",
"*. c #474766",
"=. c #524A63",
"-. c #55566A",
";. c #575878",
":. c #525179",
">. c #5E6263",
",. c #676867",
"<. c #737075",
"1. c #62566B",
"2. c #854D3C",
"3. c #88573E",
"4. c #9D593E",
"5. c #835643",
"6. c #865945",
"7. c #895A45",
"8. c #8C5B43",
"9. c #855B4A",
"0. c #8A5C49",
"q. c #895645",
"w. c #955A4B",
"e. c #865C57",
"r. c #A45E41",
"t. c #966854",
"y. c #926952",
"u. c #A76749",
"i. c #BB6D4A",
"p. c #B66A4A",
"a. c #BD7245",
"s. c #BB734B",
"d. c #B57546",
"f. c #B86A53",
"g. c #A77558",
"h. c #BC7253",
"j. c #B77958",
"k. c #A86B54",
"l. c #987E72",
"z. c #8C756A",
"x. c #AB7C66",
"c. c #B47C64",
"v. c #A26D61",
"b. c #C26E4A",
"n. c #CA6C45",
"m. c #C2724C",
"M. c #C5734B",
"N. c #C76D55",
"B. c #C37253",
"V. c #AF835D",
"C. c #9A8369",
"Z. c #968374",
"A. c #9E8572",
"S. c #838179",
"D. c #B88465",
"F. c #AB8A73",
"G. c #C4896A",
"H. c #DD9E6C",
"J. c #D5986A",
"K. c #CB9674",
"L. c #D49B74",
"P. c #DC9E72",
"I. c #DA9B7C",
"U. c #C7936E",
"Y. c #E19D6C",
"T. c #E79C66",
"R. c #E59D74",
"E. c #E79E7A",
"W. c #DEA26C",
"Q. c #DDA273",
"!. c #D9A278",
"~. c #E2A36D",
"^. c #EAA26C",
"/. c #E3A373",
"(. c #E5A477",
"). c #D5925F",
"_. c #3A578F",
"`. c #545B88",
"'. c #535D91",
"]. c #54668E",
"[. c #586696",
"{. c #4E6196",
"}. c #7B7584",
"|. c #656C91",
" X c #556AA6",
".X c #5678BA",
"XX c #526EAE",
"oX c #6179BA",
"OX c #6774AD",
"+X c #547CC5",
"@X c #5A7CC4",
"#X c #557ECD",
"$X c #5C7DCD",
"%X c #5C74C0",
"&X c #597DD3",
"*X c #557ED4",
"=X c #4E7BCF",
"-X c #637CC5",
";X c #667DD6",
":X c #857FA9",
">X c #6783B8",
",X c #4E81CC",
"<X c #5682CC",
"1X c #5B81CD",
"2X c #5883C4",
"3X c #5382D3",
"4X c #5B82D2",
"5X c #5482D8",
"6X c #4D83D6",
"7X c #6584C9",
"8X c #918E88",
"9X c #B8988A",
"0X c #AA9396",
"qX c #979BA8",
"wX c #8688B5",
"eX c #A49AAB",
"rX c #97A3AA",
"tX c #98A4B0",
"yX c #A6ACB7",
"uX c #B7BABB",
"iX c #A9ADB0",
"pX c #BAA29A",
"aX c #CB9C88",
"sX c #DBAE92",
"dX c #D8AB8E",
"fX c #E7A881",
"gX c #D7BAAC",
"hX c #E39B80",
"jX c #B7C0BF",
"kX c #E5C7B6",
"lX c #B3BDC6",
"zX c #B6C6C8",
"xX c #B9D4DB",
"cX c #B4CACE",
"vX c #C5D4D8",
"bX c #C5DAE3",
"nX c #CAE3EB",
"mX c #C7E2EC",
"MX c #CAE6F5",
"NX c #CCE9F5",
"BX c #CCE9F9",
"VX c #CAE7F6",
"CX c #E1D8D4",
/* pixels */
"                                                    O + - * * * - - - - - - 0                                           ",
"                                                  N a e a r e e e a a a e a k Q                                         ",
"                              8 % % % % = = = = e M B V C C C V V V V W W W N t = 8 k                                   ",
"                          g N C J S n n C J D C C K ............| C V ! W W ! N M s g g a                               ",
"                      a ; , n o.0.7.8.8.7.0.0.0.0.0.0.7.6.9.9.o.K C C ~ ' ~ V ] V ! N = : -                             ",
"                - : 1 J L L P 6.9.q.3.8.8.8.8.8.7.7.7.8.6.6.6.6.2.P X.o.o.O.o.6.o.O.C & % * - - *                       ",
"                - % > K 7.8.8.6.9.6.8.7.9.6.6.6.0.0.0.7.6.6.q.q.8.8.8.8.3.3.8.8.8.6.K c x x x s b V                     ",
"                - % > K 7.8.7.6.9.6.8.7.9.9.6.7.7.8.8.8.8.3.8.7.7.0.0.7.8.6.q.0.0.0.6.6.5.5.q.9.o.S , % 9               ",
"                - % > K 7.8.7.6.9.8.3.3.8.t.g.j.j.j.j.j.j.j.j.g.o.D C | | | | | | D K 9.7.8.8.0.0.P A n C C             ",
"                8 - s J 9.6.5.5.o.O.5.P 3.g.L././.Q.H.Y.Y./.!.D.o.Z M M f j h f M M B o.o.9.9.9.5.2.8.8.6.b & :         ",
"                      N b 1 x b x 1 b b b 8.P.Y.W.Q.Q.Q.~.Y.(.fXG.c.c.e.M j E E h m M B B B B ! B S 6.8.5.c & : o       ",
"                        X @ : ; : ; X . < L J.H.~.Q.Q./././././.~.~.(.g.M h h j h h h h h h h h m B .... .Z 9 -         ",
"                                    8 O & P L././.Q.P.H.R.(.R./.Y.^.(.v.M U j h j j j j h h U E E f > & p               ",
"                                    3 2 = X.I././.P.P./.~.W.Q./.Y.R.R.g.N j j m h h h h h h h j j a & X -               ",
"                                    d 8 ; P L./././././.~.W.!.Q.H./.H.t.Q U U h R U m f k j U h f a = * -               ",
"                                g N g g b 6.P.(.W.Q.Q.P.W.~.hX~.Y.(.Q.F.|.{.'.'.'.'.*.U k f m h h k 7 * *               ",
"                              * * e N W C y.!.(.W.Q.Q.Q.~.~.E./.I.aXpXqX7X1X3X3X4X2X{.) Y Q m f h k 7 * *               ",
"                              - % ; N ~ V y.!./.H./././.~.~.hXaX0X:X>X7X4X1X5X3X<X<X+XXXOX[.^ j h t = * *               ",
"                            T Y Y T W W ! %.9X9X9X9X9X9X9X9X0XeXwX$X,X3X*X@X$X+X2X,X#X4X7X%X_.) *.Y 0 * :               ",
"                      = u - ( %X#XoX[ N Q ;.oX1X1X1X@X2X1X1X1X1X1X1X1X1X1X#X$X2X2X,X<X7X-X&X+X.X.X`.5 - :               ",
"                      = # - ( @X&XoX[ C ~ `..X6X6X3X<X#X#X1X1X1X1X1X1X1X1X4X&XoXoX$X5X6X=X-XwX0X0X<.7 - .               ",
"                      = u - ( @X&XoX[ C ~ ;. X.X.X2X1X3X3X1X1X1X1X1X1X1X1X4X5X<X$X&X5X2XoXwXpXaXI.g.c , ;               ",
"                      = # - _ @X4XoX[ V V ' =.*.;.|.-X5X5X1X1X1X1X1X1X1X1X1X1X2X4X;XwX0XaXaX!.Q.~.J.j.D.x.J p i         ",
"                        * i *.'.{.].:.[ { ' Q Q { ;.[.XX.X1X1X1X1X1X1X1X3X#X.X X X X}.x.D.D.J.~./.~.~.fXK.I < # 0       ",
"                              5 4 T '..X.X].[ N G V ~ { `.#X3X3X#X#X#X#X#X4X@XY w 0 i e ; b j./.Q./.Q.(.U.H < $ 2       ",
"                              8 X d [.-X-X X`.;.1.' W W =.'.{.XX.X#X3X3X*X3X+XY < < = 2 4 a s.^.Y.Y.Y./.J.u.P O. .      ",
"                              > @ d  X<X3X5X&X;XOX:.Q C C B ~ =.].OX>X@X+X2X.XY = 8 8 = - p g.H.J.J.^.^.^.Y.Y./.g.e - q ",
"          0 3 0 q 6 9 3 + i q & % d XX#X1X1X#X+X@XXXXX X;.V V Q [ -.-.-.-.-.=.k * 4 T z.8X<.$.G I y.K.Q././././.g.e * - ",
"        i 3 + q Z z > p x x 1 p z M  X=X&X#X1X2X@X.X.X.X`.~ V ! ! ! ! ! ! ! W e 7 6 [ eXyXqX` o % H U././.Q.Q./.g.e * O ",
"        9 * ; S w.r.u.u.u.u.u.t.r.t.OX1X3X&X4X-XOX`.*.` ' ! ! ! V V V V V ! N e = = ' eXyXeX^ 2 % H K././.Q.Q./.g.e * O ",
"        - @ & H f.M.M.h.b.b.j.j.b.k.<.].].].[.|.`.=.W B J +.+.+.+.+.+.+.+.+.+.G C V { <.}.<.Q * % H K././.Q.Q./.g.e * O ",
"        0 o & A p.M.s.h.i.b.h.f.n.p.$.^ W W ` ` W W V V +.l.Z.Z.Z.Z.Z.Z.Z.Z.A.A.l.l.#.p o 9 7 = & H K././.Q.Q./.g.e * O ",
"            ' ] C S A S A A D D F A ] { { { ] $.$.+.%.%.z.C.C.8XiXuXzXuXuXzXuXz.+.+.$.M s b O.y.y.g.!./.H./.(./.g.p o - ",
"              ' 9 X o X % * * - . - { ,.>.,.,.<.<.S.8X8X8XA.8XrXcXnXNXMXMXBXxX}.{ ` ' ~ V J x.P.~.~.~.~.W.J.L.K.v.p o i ",
"        d 0 a e & & % # $ # 9 - . i         zXcXcXcXxXvXvXvXvXvXnXNXBXMXMXNXNXzXlXzX8X{ N J D.E.^.^./.(.K.3.v b b       ",
"        [ ` l d i 9 q q q 7 q 0 3           VXMXVXNXNXNXNXNXMXMXNXNXNXNXVXNXMXyXqXrX<.Q g N t.c.c.c.x.x.v. .p -         ",
"  # 6 Q yXbXbXxX                            NXBXBXNXBXVXMXMXBXBXMXMXMXMXMXMXxX-.0 O 8 7 8 + = > ; > > > M               ",
"  & = T lXNXNXMX                        VXBXBXMXMXVXBXBXbXuXuXuXyXtXtXtXqXrX8Xl + + 9 j                                 ",
"  = 6 ` yXbXbXbX                      nXnXnXnXmXmXnXnXnXuXA.C.z.%.&.,.>.} } { k o 8 g                                   ",
"        -.[ [ }.                    gXsXdXsXgXgXsXaXK.U.A.<.,.,.@.@.@.' g k g                                           ",
"        i 3 d -.            uXvXCXkXsX(.R.J.U.G.c.j.m.b.u.#.#.%.%.%.#.] ; X 8                                           ",
"                d 3 w a ; b #.9XdX(.Y./.!.t.Z > c 0.j.h.i.p.p.h.f.f.k.X.> * 8                                           ",
"                - * r J K X.x.I.W.~./.Y.H.y.> $ & S 2.2.4.i.i.B.b.b.h.2., 6 8                                           ",
"                - & Z V.!.I.hXR.~./.I.P.L.y.p + o : & ; A i.i.B.m.b.h.2., 6 8                                           ",
"                - % c V.W.Y.E.^.~.U.9.H K  .      8 - - S i.i.B.m.b.h.2., 6 8                                           ",
"                - % b D.Q.Y.R.(.Q.D.Z # 6 0       9 % % S i.i.m.b.b.h.2., * 6                                           ",
"                - % b D.(./.Q.W.~.U.n & 7 8       = 7 6 C f.h.b.b.B.j.P , % -                                           ",
"                * % x j./.~.Q.Q.^.G.Z # 6         . % : n p.m.a.a.d.j.8.n Z n  .                                        ",
"                - % x V.~.H.!./.T.G.n & =         * * % A f.B.i.s.s.s.i.p.f.w.S > 8                                     ",
"                - % b D././.(./.T.J.t.0.y.o.N           N H H L u.B.b.b.n.M.k.n % 2 d                                   ",
"                8 % c x.L.L.L.J.).Q.L.K.K.0.1 % o         O % , q.h.m.a.a.b.u.v @ 2 0                                   ",
"                      ] N C C D | | |  . .Z ; = *         - O > w.N.a.d.s.N.f.v X 6 y                                   ",
"                      + + 8 a r k h h y m t = * 3         - O > w.N.a.d.s.N.f.v X 6 y                                   ",
"                      i o * r f m h h U E k * - O         - O > w.N.M.d.s.N.f.v X 6 y                                   ",
"                            k r q k r r f e $ % -         - O , w.B.M.d.s.N.f.v X 6 t                                   ",
"                              8 X - - % 7 9 % X a         - % z q.f.h.i.p.p.w.n & % 8                                   ",
"                                                          3 - = B / D D / / / b $ *                                     ",
"                                                          : * = t y y h E h m 7 . 2                                     ",
"                                                          & & # f m f m m h h 7 # 6                                     ",
"                                                            # o h U h h k f f 7                                         "
};
