/* XPM */
static char *_af28634a5da43f3df95dc4810fa41d8IJwKfDEeZhz1iIwv[] = {
/* columns rows colors chars-per-pixel */
"60 60 245 2 ",
"   c None",
".  c #1D0C17",
"X  c #1E141C",
"o  c #1F1316",
"O  c #1E0C0F",
"+  c #250D0D",
"@  c #25120C",
"#  c #260E14",
"$  c #231215",
"%  c #23131C",
"&  c #2A151B",
"*  c #24191D",
"=  c #2D1A1C",
"-  c #2A1615",
";  c #361C1C",
":  c #371A16",
">  c #33160D",
",  c #39221C",
"<  c #2E2011",
"1  c #1E1922",
"2  c #1D1624",
"3  c #1C1E32",
"4  c #241622",
"5  c #2D1622",
"6  c #241A24",
"7  c #2C1B23",
"8  c #2C1D2B",
"9  c #27182A",
"0  c #331C24",
"q  c #381D26",
"w  c #2F1D32",
"e  c #2A2228",
"r  c #33242C",
"t  c #392628",
"y  c #292334",
"u  c #3D2434",
"i  c #3C253B",
"p  c #382836",
"a  c #3C333A",
"s  c #1F212C",
"d  c #45251B",
"f  c #59291C",
"g  c #411D28",
"h  c #422A2E",
"j  c #4B2C2C",
"k  c #482823",
"l  c #552C25",
"z  c #59342B",
"x  c #442B34",
"c  c #442838",
"v  c #4E3A3C",
"b  c #473538",
"n  c #5C3C33",
"m  c #543B3C",
"M  c #5B3C3B",
"N  c #553737",
"B  c #4F2F30",
"V  c #653A2B",
"C  c #613C34",
"Z  c #683937",
"A  c #4C1E19",
"S  c #59433C",
"D  c #67453A",
"F  c #764B3B",
"G  c #704A33",
"H  c #282A44",
"J  c #3B2A43",
"K  c #3B3946",
"L  c #32385A",
"P  c #442643",
"I  c #4C3B44",
"U  c #483947",
"Y  c #533C43",
"T  c #543742",
"R  c #463A58",
"E  c #613E43",
"W  c #3D4257",
"Q  c #49444A",
"!  c #5B4344",
"~  c #53454A",
"^  c #584748",
"/  c #4D4556",
"(  c #554757",
")  c #5B5B5C",
"_  c #4D515D",
"`  c #684846",
"'  c #754D42",
"]  c #7A5344",
"[  c #79584B",
"{  c #655857",
"}  c #6D5346",
"|  c #68635B",
" . c #7A6559",
".. c #4A4968",
"X. c #544C66",
"o. c #54546C",
"O. c #565779",
"+. c #4B5075",
"@. c #655D67",
"#. c #686A75",
"$. c #716B6B",
"%. c #5E625A",
"&. c #89583E",
"*. c #98563C",
"=. c #864B36",
"-. c #B66F3D",
";. c #C67034",
":. c #825544",
">. c #865A45",
",. c #8A5B44",
"<. c #855A49",
"1. c #8B5C4A",
"2. c #8B5648",
"3. c #965B4A",
"4. c #935D54",
"5. c #85584E",
"6. c #A25D48",
"7. c #89695B",
"8. c #996C58",
"9. c #9C7358",
"0. c #9F664F",
"q. c #A7654B",
"w. c #BB6D4C",
"e. c #B96A48",
"r. c #BB724A",
"t. c #A96B55",
"y. c #B56C52",
"u. c #AC7C5C",
"i. c #A77559",
"p. c #B87554",
"a. c #867367",
"s. c #937B6A",
"d. c #977564",
"f. c #8F7769",
"g. c #AA7C65",
"h. c #B17A67",
"j. c #C36E49",
"k. c #C4714B",
"l. c #C57146",
"z. c #C57453",
"x. c #C76D51",
"c. c #B1825A",
"v. c #9B846D",
"b. c #97816C",
"n. c #9C8472",
"m. c #978678",
"M. c #8A8177",
"N. c #AC8266",
"B. c #BB8868",
"V. c #A58771",
"C. c #D2945B",
"Z. c #C48A68",
"A. c #D5996C",
"S. c #CB9876",
"D. c #DC9D74",
"F. c #D49B78",
"G. c #C99370",
"H. c #E39D6D",
"J. c #E29B66",
"K. c #E29E72",
"L. c #E99D73",
"P. c #DEA274",
"I. c #DDA47B",
"U. c #D2A577",
"Y. c #DCA267",
"T. c #E3A26C",
"R. c #E5A368",
"E. c #E2A372",
"W. c #E6A576",
"Q. c #F0A276",
"!. c #E19F5E",
"~. c #545C87",
"^. c #495890",
"/. c #556496",
"(. c #526690",
"). c #787C85",
"_. c #6B6E94",
"`. c #566AA3",
"'. c #5B73A7",
"]. c #5C7BBC",
"[. c #5B77B6",
"{. c #4F6BB0",
"}. c #7779A6",
"|. c #627AB4",
" X c #485FA7",
".X c #547BC5",
"XX c #5D7CC3",
"oX c #557ECC",
"OX c #5A7ECB",
"+X c #5977C9",
"@X c #547FD4",
"#X c #4A7DD2",
"$X c #647CC4",
"%X c #807D87",
"&X c #7A8287",
"*X c #5E81B9",
"=X c #6780B5",
"-X c #5A81C4",
";X c #5482CC",
":X c #5A82CD",
">X c #5682C7",
",X c #5483D4",
"<X c #5A82D2",
"1X c #5482DA",
"2X c #4B83CD",
"3X c #6682CA",
"4X c #898A96",
"5X c #9B949C",
"6X c #908E92",
"7X c #A79484",
"8X c #AA9397",
"9X c #ACA69B",
"0X c #9899A6",
"qX c #8F92A8",
"wX c #A29BAE",
"eX c #9AA5AD",
"rX c #9BACB5",
"tX c #ABAAA6",
"yX c #A6ABB7",
"uX c #B4BAB9",
"iX c #ADB1B3",
"pX c #CB9D83",
"aX c #D5AC89",
"sX c #E4A883",
"dX c #D0BDA6",
"fX c #C3C0B1",
"gX c #ADAEC4",
"hX c #A7B7C5",
"jX c #BABDC1",
"kX c #A498C0",
"lX c #BAC6C9",
"zX c #B8D3DA",
"xX c #B5C5D4",
"cX c #BFD9E2",
"vX c #CAD2D3",
"bX c #C7DCE6",
"nX c #CDE3ED",
"mX c #C6E3EC",
"MX c #C6E5F3",
"NX c #CAE5F3",
"BX c #CBEAF5",
"VX c #CAE9FA",
"CX c #C8E9F8",
"ZX c #D2E9F4",
"AX c #D4E3EB",
/* pixels */
"                                                                                                                        ",
"                      . % % $ % % % r       K 6 % % % % % % % % % % s                                                   ",
"                  t D n C C n n C C M N t p p p h h h x x h h x h u r 7 e                                               ",
"              * $ ; ' ,.,.,.1.,.,.1.] z : & h M S M M M M m m Y Y I x & 7 p                                             ",
"              * $ ; ' ,.,.>.<.>.&.,.>.F D D ' ] ] ] ] ' ` m v I I I U x b c u r                                         ",
"              * $ ; ' ,.,.>.<.>.&.&.,.,.,.>.>.>.>.,.1.<.' D M S ! M M M ! N 0 . %                                       ",
"              * $ ; ' ,.,.>.<.>.&.,.>.,.,.,.,.,.,.,.,.1.>.:.] :.<.:.:.:.[ ` ; $ X                                       ",
"                1 u ` ' F :.>.,.>.&.,.,.&.,.,.,.,.,.>.>.,.,.,.2.4.2.,.1.1.F d , a                                       ",
"                    r $ : F 1.,.,.>.>.<.:.<.:.<.1.1.,.2.2.2.1.,.&.&.&.>.1.>.F [ ` 0 . r                                 ",
"                        t S D V &.2.,.i.u.u.i.i.i.i.i.g.4.` ` ` D D D D D F >.,.F z j N m                               ",
"                          7 + > D 2.,.Z.K.H.H.E.P.Y.U.U.8.j c i i J J P c B ] ,.F :.5.` d + 0                           ",
"                                B z V i.I.E.E.E.P.D.K.E.Z.8.d.} u p i J P P T E E E M n n N M m                         ",
"                                6 $ : 8.P.E.E.P.E.K.K.E.E.E.I.d.x i i i i i i i i i p j ] 1.] k $                       ",
"                                1 X : 9.P.E.P.P.E.E.E.E.E.T.E.i.x i i i i i i i i i i j ] 1.] , $ -                     ",
"                                1 X : 9.P.E.P.P.E.E.E.E.P.T.E.i.x i i i i i i i i i i B ' ] ` x 7                       ",
"                                1 X : 9.P.E.P.P.E.E.T.E.E.T.E.i.x i i i i i i i i i i u q t p                           ",
"                                e 7 , i.E.W.E.P.E.E.E.E.T.T.E.g.R L R R R U i u c i J J 5 7 6                           ",
"                          6 X $ b v M u.E.W.E.P.T.E.E.P.Y.R.I.8X|..X.X.XXX/.J u c i i i p p r 8 & 5                     ",
"                          W L K K b S c.E.T.H.K.L.R.R.I.pX8X8XqX=X-X:X,X,X{.^...R J u u c P i 5 % -                     ",
"                    6 $ y /.*X'...U D h.E.H.E.E.E.R.T.pX8X}.$X<X;X;X:X:X,X,X.X]./.L i i i P u 5 % %                     ",
"                    & & y `..X[.o.I M 1.8.d.m.5X5X5X5X5XqX$X1X1X#X,X,X.XXXOX,X<X[.^.^.+.H 8 7 b                         ",
"                    - + y '.:X[.o.U T M M / ~.].<X,XOXXXXXOX,X@XOX:X;XXX$X-X-X,X@X$X$X`.H 6 t                           ",
"                    = @ y `.OXXX'./._.X.T / ~.].,X,X;X:X:X:X:X:XOX:X:X+X,X;X*XOX3X0X8X7X9.9.7.` u 9                     ",
"                    0 o H /.].+XoX,XXXO.U / O.'..X;X;X;X:X;X-X-X-X>X:X3X>X2X[.$X}.pXE.R.R.W.G.D = e                     ",
"                          K H L `.:X].o.m N ! ( X./.:X<XOXOXOXOX:X.X>X3X@X{.L H ~ G.I.D.T.T.D.Z.u.c.S 9 y               ",
"                          < @ y ^.XX[.~.X.( Q I N O.'.[.].XXOXoXoXoX.X[.{.~.a y S c.Z.C.R.R.J.L.Q.J.C X 6               ",
"        y 2 4 6 6 t       = @ y  X,X<X].[.'.O./ v Y / +./.[.-X:X<X<X(.H e Q 6XkX).N g z N.sXP.P.E.A.n O %               ",
"        N l l l z n )   / 8 @ 7  X<X:X:X:X]./.O.X.^ N U o.(.`.{..X<X^.3 o v wXgXqX) ~ ` 7.i.p.A.H.A.,.n ` {             ",
"  $ > l 0.y.w.w.e.6.j * % 4 $ = ^.OX.XOX<X:X.X[.|.O.v v m ~ / O.[.-X~.3 X U 0XgXyX0XeX6XU 0 f u.P.R.D.F.G.D & 6         ",
"  9 & l t.w.e.k.k.e.G D Z Z V D /.:X:XOX:X,X@X,X<X{.~.O.( m m _ ~./...9 4 U 0XyXhXhXyX0XH X q g.P.!.!.Q.sXF + $         ",
"  % + l t.e.e.j.x.z.t.y.z.x.r.u.}.:X:X:X:XOXOXOXOXoX:X].~./ v m Y U a 5 5 I 5XyXyXyXyX5Xa % , N.W.R.J.E.F.D - 4         ",
"      z D z V V V G q.l.x.w.;.p.}.@X,X,X:X].`.~.O.O.~.O.X.U v m N N x 5 % U 0XyXyXgXgXqXK $ d u.W.R.R.P.pXD @ X         ",
"        e X % X * t *.x.h.t.-.i.}.XXXX].|.'.O./ Y M ! S M M M Y ! ! v = * Q 6XyXyX0XwX4XU % k 8.S.D.T.E.F.F > ,         ",
"                    l f j l f k ..+...o.o.X./ I m [ a.a.a.a.a.a.a.a.| ^ ^ ~ I U U U U U 4 % & j N D c.H.D.Z.u.9.[ t     ",
"                    0 - 5 % + + I ^ ! ! ! ! ! ! !  .v.v.n.m.m.m.M.s.$.| { ^ 7 . $ a a a 6 7 & 7 & t u.T.K.Q.W.F.[ - X   ",
"                          w 9 7 [ f.s.s.f.f.s.s.f.s.v.v.v.n.m.a. .| %.| { ~ 7 X K yXlXeX) b x v b Y N.P.K.Q.Q.P.] $ 1   ",
"                          9 % :  .n.n.v.v.v.v.n.m.n.n.n.n.n.m.M.&X&X&X&X).#._ W #.vXZXxX&X#.@.^ Y E 8.c.u.u.N.N.[ =     ",
"                          8 $ -  .m.m.n.v.v.v.v.v.n.n.n.v.b.m.tXvXbXbXbXbXbXbXbXbXnXNXBXcXbXlX$.I N k ; : : > t         ",
"                          ^ S S a.n.n.v.b.m.7X9XtXtXtXtXtXtXtXlXbXZXBXBXBXMXBXBXBXNXmXzXeXqX4X~ p u 8 4 8 8             ",
"                    6 o t  .m.m.m.v.v.n.m.5XuXbXMXNXNXNXNXNXNXCXCXCXMXMXBXBXmXnXZXnXAXhX_ 9 4 . & %                     ",
"                    6 * , 7.n.7X9XuXuXuXuXjXvXnXMXMXNXCXMXMXMXMXnXNXMXBXBXzXrX0X4X).#.).@.                              ",
"                    1 % , 7.s.6XlXnXNXCXNXnXAXZXCXCXBXBXNXbXZXmXzXbXbXNXbXhX#.) ~ e * 6                                 ",
"                    1 % , 7.n.6XlXnXNXVXVXBXnXNXCXCXNXNXNXNXZXrXo._ #.4X4X&X@.@.( 7 $ %                                 ",
"                    1 % , 7.V.7XfXvXbXNXVXCXNXNXCXVXNXZXmXzXlX%Xr . r ) | | { | { t ; h                                 ",
"                    1 X , i.S.S.aXaXdXvXNXVXCXVXCXCXZXnX4XQ U p $ # l 8.t.t.y.y.t.q.q.:.j 7 e                           ",
"                    1 o d h.W.R.T.T.aXtXuXxXhXhXhXhXyXeX  7 % = o + l t.p.k.l.j.j.z.k.6.A $ X                           ",
"                    e + g h.I.R.H.H.F.} e p r e r p 8 9         7 # l t.k.k.w.p.w.k.k.q.k % 6                           ",
"                  { } D F B.T.!.K.H.D.D $ X e p e 8 8             p ! ] =.*.y.p.e.j.k.q.k % 9                           ",
"              e * j N.U.F.D.!.!.sXsXS.D = 6                           r > f q.z.e.e.j.q.k % 6                           ",
"              9 % j B.W.K.K.R.A.t.2.[ `                               1 $ k q.j.l.r.j.q.k % 9                           ",
"              % $ k B.E.K.E.W.G.C + =                                 2 1 k q.e.r.r.k.q.l - e                           ",
"              * $ k B.T.E.P.T.A.n $ %                                 9 X k e.j.r.w.w.y.*.&.] n 0                       ",
"              * $ k B.T.E.P.T.A.n $ 4                                 0 * z 6.y.q.w.z.w.k.z.q.f + 1                     ",
"              * $ k B.T.E.P.T.A.n $ %                                       B d z q.p.p.z.r.q.f - 2                     ",
"              * $ k B.T.E.P.T.A.n $ 4                                       9 X d q.p.r.r.y.t.V d k ^                   ",
"              * $ k Z.W.T.T.W.F.C $ 4                                       4 $ d q.l.l.k.r.z.y.q.q.N 6 e               ",
"              * $ k 7.g.u.u.g.d.B $ 4                                         t n :.&.*.3.3.4.3.3.3.j % X               ",
"              * $ % c c c c c c 7 $ 4                                             q ; 0 t c c c c c 7 % X               ",
"              * $ - u i P P i u & $ 4                                             9 % 7 w i i i i u 7 % X               ",
"              * % 5 u i i i i u 0 % 4                                             % % 5 w i i i i u 5 % X               "
};
