/* XPM */
static char *_ac444cdca3d453e953b10679c6046c0EbCFDiFkG3VQLgr6[] = {
/* columns rows colors chars-per-pixel */
"60 60 230 2 ",
"   c None",
".  c #1C0E1A",
"X  c #1E0E15",
"o  c #1D131C",
"O  c #1D1817",
"+  c #1B0C08",
"@  c #33170D",
"#  c #250F18",
"$  c #251315",
"%  c #2B1414",
"&  c #23141C",
"*  c #2B141B",
"=  c #2B1A1D",
"-  c #271919",
";  c #321512",
":  c #331A1C",
">  c #361817",
",  c #270E10",
"<  c #362216",
"1  c #1B1524",
"2  c #250F21",
"3  c #231522",
"4  c #2B1523",
"5  c #241A23",
"6  c #2C1B23",
"7  c #271A2A",
"8  c #331D24",
"9  c #341D2A",
"0  c #281E33",
"q  c #3C1D37",
"w  c #1D213E",
"e  c #2D222B",
"r  c #282128",
"t  c #342124",
"y  c #33232B",
"u  c #3B2629",
"i  c #3B2234",
"p  c #3C2B33",
"a  c #3D243B",
"s  c #372937",
"d  c #332C39",
"f  c #421C16",
"g  c #472719",
"h  c #502F1E",
"j  c #432625",
"k  c #452B2B",
"l  c #462928",
"z  c #46322E",
"x  c #593329",
"c  c #422435",
"v  c #42253C",
"b  c #432A3B",
"n  c #472B37",
"m  c #4B343A",
"M  c #49373A",
"N  c #543A36",
"B  c #5B3C34",
"V  c #543B3D",
"C  c #5A3939",
"Z  c #542E2D",
"A  c #6A382B",
"S  c #5C423C",
"D  c #6A4639",
"F  c #734B3B",
"G  c #764837",
"H  c #7C533E",
"J  c #70412E",
"K  c #3B2542",
"L  c #392B47",
"P  c #36304C",
"I  c #452B43",
"U  c #4D3B43",
"Y  c #473646",
"T  c #523C43",
"R  c #543A47",
"E  c #483A55",
"W  c #523F53",
"Q  c #493F61",
"!  c #3E4A73",
"~  c #4D4247",
"^  c #5E4344",
"/  c #53414B",
"(  c #584547",
")  c #564855",
"_  c #504F58",
"`  c #6B4B44",
"'  c #644745",
"]  c #774D43",
"[  c #68534C",
"{  c #7C5444",
"}  c #775347",
"|  c #6C5657",
" . c #7A6659",
".. c #756259",
"X. c #4C4B66",
"o. c #4B557B",
"O. c #56587B",
"+. c #514E6F",
"@. c #61596F",
"#. c #6C7075",
"$. c #726F74",
"%. c #87563D",
"&. c #8C5039",
"*. c #C76E3E",
"=. c #845644",
"-. c #875945",
";. c #8A5A45",
":. c #82564A",
">. c #855B4A",
",. c #8B5C4B",
"<. c #895744",
"1. c #975A48",
"2. c #8A5D52",
"3. c #8A5049",
"4. c #A35845",
"5. c #97634A",
"6. c #9A6A57",
"7. c #8E6651",
"8. c #A86448",
"9. c #B96B4A",
"0. c #BE704D",
"q. c #B7714C",
"w. c #A56B55",
"e. c #B96E54",
"r. c #A67659",
"t. c #BB7153",
"y. c #B37A5A",
"u. c #AB774B",
"i. c #957C68",
"p. c #8B7168",
"a. c #B07B68",
"s. c #C66D48",
"d. c #C1704C",
"f. c #C97149",
"g. c #C36E52",
"h. c #C47553",
"j. c #B88359",
"k. c #95826E",
"l. c #988778",
"z. c #B98564",
"x. c #B68D75",
"c. c #C88C5B",
"v. c #C38966",
"b. c #CD9469",
"n. c #D8986B",
"m. c #C19372",
"M. c #CC9675",
"N. c #D39A74",
"B. c #D89B76",
"V. c #C58E73",
"C. c #E39E6D",
"Z. c #E49D67",
"A. c #E39E72",
"S. c #EA9D73",
"D. c #DDA26C",
"F. c #DEA274",
"G. c #D9A277",
"H. c #E3A26D",
"J. c #E7A168",
"K. c #E2A273",
"L. c #E3A47B",
"P. c #E8A777",
"I. c #EBA15F",
"U. c #3E5687",
"Y. c #545A81",
"T. c #485B93",
"R. c #56669B",
"E. c #546998",
"W. c #767884",
"Q. c #6C728D",
"!. c #586BA5",
"~. c #5774AB",
"^. c #5977B8",
"/. c #4D6BAE",
"(. c #6477B7",
"). c #6972AB",
"_. c #5B7EC4",
"`. c #557ECD",
"'. c #5B7DCB",
"]. c #5877C8",
"[. c #5B7DD3",
"{. c #597ED4",
"}. c #4F7BC6",
"|. c #627DC5",
" X c #627CD2",
".X c #887986",
"XX c #7D878D",
"oX c #5B81BD",
"OX c #7286B7",
"+X c #5581C5",
"@X c #5A81C5",
"#X c #5482CC",
"$X c #5A81CB",
"%X c #5582D2",
"&X c #5983D7",
"*X c #4F84CA",
"=X c #6382C7",
"-X c #6F8BCD",
";X c #86949F",
":X c #918D8B",
">X c #A99598",
",X c #AF948E",
"<X c #A6A49D",
"1X c #8D94AA",
"2X c #A998A1",
"3X c #9AA4AF",
"4X c #B4BAB6",
"5X c #AAB0AF",
"6X c #9EA198",
"7X c #C29A88",
"8X c #D3A486",
"9X c #E4AA80",
"0X c #ADB7C2",
"qX c #BEC6C7",
"wX c #BAC4C7",
"eX c #B9D1DB",
"rX c #BDCBD7",
"tX c #B9D2E2",
"yX c #C3DCE4",
"uX c #CBE4EE",
"iX c #CCE9ED",
"pX c #C6E2E8",
"aX c #C6E5F4",
"sX c #CAE5F4",
"dX c #CBE5F9",
"fX c #CCECFB",
"gX c #CAE8F6",
"hX c #D1EAF6",
"jX c #D1EBF1",
"kX c #C4D0CF",
/* pixels */
"                                                    e & 3 & & & & & & & & & 3                                           ",
"                                                  Y 6 # 6 = = = = = = = = = 6 y                                         ",
"                        o o o o o 5 5 3 o o & 6 u p n m T m m m m m m m m m m n p 6 6                                   ",
"                      m u l k j j j j j l k j u k N ' ' S ^ ' ^ ^ V V U T U T m t 8 e s                                 ",
"              5 & $ l { =.;.=.=.>.=.%.=.-.-.=.=.=.-.-.-.=.=.>.:.] B N M T U U V m V M p 3 & 7                           ",
"              5 & $ l { ;.;.;.>.>.;.%.;.;.;.;.;.;.;.;.;.;.<.;.;.=.F D ` ` ` ` F D ` ` k $ & 5 s Y                       ",
"              - $ $ l { ;.;.;.>.>.;.%.;.;.;.;.;.;.;.;.;.;.<.<.;.;.;.;.>.,.,.,.;.-.>.>.B > % $ $ $ = p                   ",
"              - & $ l { ;.;.;.>.>.;.%.;.;.;.;.;.;.;.;.;.;.;.<.=.<.;.;.;.;.;.;.<.;.%.-.{ D D D D D ` ' k 8 e             ",
"                1 - z ` { =.=.=.-.,.%.=.>.,.5.5.5.,.5.5.5.5.1.5.2.:.{ :.{ %.=.{ { { { >.,.,.,.,.,.2.] g ; t m           ",
"                      u : j D :.,.5.;.>.,.r.b.b.N.M.M.n.n.n.n.m.6.C c n b n I I n n Z D :.,.;.%.;.>.=.{ { ` N t & o     ",
"                        & u N ` ] F G D F 8.n.H.K.K.F.K.H.C.K.G.a.{ ' ' Y K K K K a c V ` } ] F F F G <.,.:.x ; , $     ",
"                              = % ; ; * : G b.K.A.L.L.A.S.S.S.S.Z.n.B.x.} k i p p a i a b b v v n Z B ] 2.>.B > $ 5     ",
"                                    & 1 - F N.P.H.K.K.A.C.D.D.J.Z.C.P.M.} n a a b a a a v v a v a a I V C C C n         ",
"                                    1 o % D b.K.H.K.K.K.H.H.D.F.G.F.L.M.{ b a i a K K a v c a K a a i 4 $ $             ",
"                                    3 & % G b.K.H.K.F.F.K.H.F.G.G.K.H.b.{ v q c a K K a c c a K a a i 4 & &             ",
"                                    y e t F b.K.n.K.K.K.K.D.F.F.K.C.Z.b.2.E P L P P P K i c v v a a i 4 & &             ",
"                              r e p b b z =.N.K.n.K.K.K.K.F.F.K.A.Z.H.8X.XR.~.!.!.~.R.+.L i v a a a i 4 & &             ",
"                              o X 4 Y Y M >.B.K.H.K.F.F.H.J.H.F.B.M.7X2XOX$X&X$X%X&X@XE.! E E I a a i 7 4 5 7           ",
"                              - * 6 Y U T 2.n.C.J.D.D.D.H.J.H.8X2XOXoX$X$X$X+X@X&X{.#X+X}.'.).Q a v v a i i y = $ $     ",
"                              & $ ; Z C C ..>X>X>X>X>X>X,X,X2X1X-X=X`.`.+X+X+X$X[.[._.oX#X&X].T.! Q E i 6 8 n M d       ",
"                            P 1 1 6 Z V Y o.=X%X%X#X+X_.|.|.|.=X$X`.`.#X+X@X@X+X[. X|.@X$X&X{.^.oX  o.w 1 5             ",
"                        u P ! U.U.o.W B T O.=X&X%X@X@X'.{.%X{.`.`.$X$X$X$X+X+X@X'.[.`.+X#X'.(.1X>X>Xp.y o o             ",
"                      : % 0 U.+X$X~.+.R U o.(.].].'.$X%X%X%X%X`.'.$X$X$X$X%X%X#X'.'.+X@XOXOX;X,X8XG.y.x > u U           ",
"                      = % 7 U.$X$XR.X.V N T ) X.o.R.^.#X%X#X#X#X#X$X$X$X$X_.#X%X_.#X$X1X,X7X,XG.K.F.n.v.a.a.>.j - O     ",
"                      & $ 1 ! @X@X~.o.X._ / R U W O.).^.^.}.#X#X#X+X$X+X@X_.$X_.!.R.!..Xz.j.j.n.J.A.C.J.P.G.%.@ $ 1     ",
"                      $ & 7 o.|.&X&X}.^.~.E.X.Y T ( / / X.^.$X$X'.'.'.`.{.{.%X/.P 4 6 t t r z u.C.L.B.D.P.G.%.@ X 3     ",
"                        e Y X.o.T.T.^.'._.~.T.o.@./ M N / Y.R.!.~.^._.$X#X%X#XE.0 # & $ $ . y r.B.K.K.C.K.B.u.G G D ~   ",
"                            Y 4 * L !.'.$X'.'.|.).Y.E M N U Y X.Y.~.oX@X+X+X@XR.w 1 & & * * j r.N.N.n.P.C.H.F.G.F.b.N o ",
"                      M a Y ` { =.| !._.+X#X%X%X}./.R.R.Y.^ N T ) O.O.Y.O.O.O.+.0 $ $ 8   W [ } ] H 5.n.K.K.F.F.F.b.B & ",
"                      g > f &.q.t.a.). X{.{.%X#X#X+X_._.!.) V V U T T T V V T m : % $ 6       6 o $ x V.L.K.F.F.F.b.B & ",
"                d y B %.1.1.9.*.9.i.). X[.[.$X_.^.E.o.X._ / T U U U M V V V V k : * & 5       0 1 o Z V.L.C.A.L.K.b.B & ",
"              e 3 # x w.t.h.f.*.h.i.Q.~.~./.^.(.R.+.W m N ^ ' ' ' ^ ^ ^ ^ ^ ( ~ 8 4 1 r       R m k J b.P.C.n.v.z.y.B & ",
"              y 4 % x w.t.s.f.f.t.w.` / W / / ) / T T T ^ p.i.i.i.k.i.i.i.i.i...u % $ o & $ > i.M.b.n.A.n.B.5.g : i     ",
"              e $ % l ] =.%.&.%.:.} Z c b ( | ..[ [ [ | ..i.k.l.,X<X5X<X<X<X<X:Xm : 8 y t t g r.L.P.K.A.F.8X>.; & 5     ",
"              e & # # * : % , % - $ & $ t (  .l.l.k.k.k.l.l.k.:X5XkXuXiXuXsXuX0X@.M U T m N D z.L.P.C.A.L.B.-.; $ &     ",
"          Y Y & & & & # * # * & o r #.:X:X6X5X4X4X4X4X4X4X4X4XwXeXpXsXaXaXaXgXyX;X    _ / / C F H H H H { } `           ",
"        0 5 7 r 7 5 O o 4 2 4 4 5 _ 4XiXgXsXsXaXaXaXsXfXsXdXhXdXdXdXdXdXdXdXaXaXpX    @.U / M 8 $ & 5 & o 5             ",
"  . d $.3X3X1X3X3X;XXX        ;X3X0XyXsXsXsXsXsXsXsXsXsXsXiXiXiXiXiXiXiXiXiXiXeX;X#.$.~ = y u M                         ",
"* # 5 XXpXiXfXgXdXfXfXfXfXaXfXfXfXgXaXsXsXsXsXsXsXsXsXsXuXtXtXtXtXtXtXtXtXtXeX5X#._ _ ~ 6 o 5                           ",
"* * 5 XXpXiXjXaXsXdXsXdXfXdXsXaXdXfXhXsXsXsXsXsXsXsXsXsXeXXX#.#.#.#.#.#.#.#.$.| u 5 6 d                                 ",
"  5 Y W.1X3X3XeXjXhXdXaXaXsXaXdXhXuXrXwXqXqXqXqXqXqXqXqX4Xp. . . . . . . . . .[ : $ 3                                   ",
"      L 7 5 P 3XiXjXsXsXuXgXaXgXjXkX6X:Xl.l.l.l.l.l.l.l.l.t.0.0.0.0.0.0.0.0.t.1.< $ 4                                   ",
"            _ W.W.W.W.W.$.W.W.W.W.i.x.x.m.m.m.m.m.m.m.m.v.h.d.d.d.d.d.d.d.d.g.4.< O 4 q                                 ",
"              d 3 . o 6 $ & 3 X + h z.F.K.K.K.K.K.K.K.K.n.h.d.d.d.d.d.d.d.d.g.4.< O 4 q                                 ",
"                            d 5 + g z.F.K.K.K.K.K.K.K.K.n.h.d.d.d.d.d.d.d.d.g.4.< O 4 q                                 ",
"                            d o + h z.F.H.C.C.C.K.K.K.K.n.q.8.8.9.0.0.d.d.d.g.4.g < c n                                 ",
"                              . + h z.9XK.Z.J.Z.K.F.F.K.c.N < g J w.t.0.d.d.s.0.8.8.8.G = 5 4                           ",
"                              0 y S p.i.r.z.A.H.K.F.F.H.j.p & @ A 9.d.s.s.d.g.g.q.d.g.G % & 2                           ",
"                                    p 8 < H b.K.K.L.K.K.z.p & ; A e.h.0.0.t.t.g.q.d.g.G % & 2                           ",
"                                    6 3 * F N.P.H.K.K.K.z.j $ % j ' G &.8.t.g.g.q.d.g.G % & 2                           ",
"                                    & 3 * G N.K.C.D.F.K.z.l = & o & $ f &.q.g.0.0.d.g.&.; & 7                           ",
"                                    5 o % G N.K.K.F.F.K.v.k & & & . . ; =.h.d.d.h.t.t.8.&.%.] N t r                     ",
"                                    5 o % G N.K.K.F.F.K.v.z & # & 5 5 t ] w.9.9.e.e.e.d.9.9.8.Z $ 5 d                   ",
"                                    5 o % G N.K.K.F.F.K.v.k & - t       V l f x 9.f.s.1.R Y Y n c i y y e e             ",
"                                    5 o % G N.K.K.K.F.K.v.k & $           6 - p { &.1.C K P L a b b 9 * $ &             ",
"                                    5 $ @ F M.L.P.P.K.H.c.k & &                 y $ : 9 i b I i i i 9 4 & &             ",
"                                    5 & $ m p.6.6.6.6.6.>.u & o                       d 9 6 y 9 9 9 6 4 . 3             ",
"                                    5 3 . 7 b c c i i v i 4 & &                         e . $ * & & & & # 5             ",
"                                    5 - * 8 c a I v a a q 4 & &                                                         ",
"                                      $ % 8 i a I K a v i 4 & &                                                         "
};
