/* XPM */
static char *_4fef06e80b64423fdc885b8757e3723KHJYTCMZGTQagcad[] = {
/* columns rows colors chars-per-pixel */
"60 60 228 2 ",
"   c None",
".  c #1D0F1B",
"X  c #1B0C14",
"o  c #1C1214",
"O  c #1E131D",
"+  c #250D1D",
"@  c #280E17",
"#  c #231215",
"$  c #2C1514",
"%  c #23141C",
"&  c #2A131B",
"*  c #25181E",
"=  c #2D1C1C",
"-  c #281A16",
";  c #321B15",
":  c #32161A",
">  c #31191B",
",  c #381918",
"<  c #2F120F",
"1  c #3C221C",
"2  c #2B201F",
"3  c #1E1522",
"4  c #1B1728",
"5  c #241423",
"6  c #2B1522",
"7  c #241B23",
"8  c #2B1C24",
"9  c #2D1D2B",
"0  c #251C29",
"q  c #331C23",
"w  c #331B2B",
"e  c #371B21",
"r  c #301832",
"t  c #2D222C",
"y  c #272128",
"u  c #3B2221",
"i  c #33232C",
"p  c #38252A",
"a  c #2B2736",
"s  c #3C2334",
"d  c #352933",
"f  c #3E2B33",
"g  c #3C243B",
"h  c #392738",
"j  c #3B3239",
"k  c #44251C",
"l  c #4A2C26",
"z  c #46272A",
"x  c #562D27",
"c  c #5A3629",
"v  c #412435",
"b  c #432A32",
"n  c #42253C",
"m  c #4A2D38",
"M  c #493638",
"N  c #543A36",
"B  c #5D3B33",
"V  c #52323C",
"C  c #533A3C",
"Z  c #5C3D3D",
"A  c #563332",
"S  c #47322D",
"D  c #653A2D",
"F  c #643C32",
"G  c #663D39",
"H  c #55433D",
"J  c #6B443C",
"K  c #68443B",
"L  c #734B3E",
"P  c #77483A",
"I  c #3C1C40",
"U  c #3A2843",
"Y  c #3A324F",
"T  c #402542",
"R  c #4A3B47",
"E  c #513C44",
"W  c #583D47",
"Q  c #453956",
"!  c #523D50",
"~  c #613B41",
"^  c #483561",
"/  c #3D4F7F",
"(  c #4E4547",
")  c #5C4645",
"_  c #544B59",
"`  c #614442",
"'  c #6A4945",
"]  c #774C45",
"[  c #7D5446",
"{  c #7B554A",
"}  c #685753",
"|  c #745C57",
" . c #65495E",
".. c #77635C",
"X. c #5C5A67",
"o. c #464C75",
"O. c #565676",
"+. c #4E4D6C",
"@. c #645D61",
"#. c #5E6165",
"$. c #686263",
"%. c #766563",
"&. c #71727F",
"*. c #88563E",
"=. c #854D39",
"-. c #835645",
";. c #865A45",
":. c #8B5A44",
">. c #855A49",
",. c #8A5C49",
"<. c #845649",
"1. c #965E44",
"2. c #865952",
"3. c #804B47",
"4. c #966448",
"5. c #8A6555",
"6. c #976A57",
"7. c #8D7159",
"8. c #8B644C",
"9. c #A96A4E",
"0. c #B56D4C",
"q. c #BB6E4B",
"w. c #BE6C44",
"e. c #BD714C",
"r. c #B1704C",
"t. c #A66654",
"y. c #B46D54",
"u. c #BD6E51",
"i. c #A7795A",
"p. c #BB7252",
"a. c #B57557",
"s. c #897A74",
"d. c #8F7367",
"f. c #A97962",
"g. c #B37D68",
"h. c #C46D47",
"j. c #C3724C",
"k. c #C77245",
"l. c #C27252",
"z. c #C06F52",
"x. c #B7855C",
"c. c #9B856E",
"v. c #99866D",
"b. c #9B8573",
"n. c #9B8A73",
"m. c #9A8477",
"M. c #A6866A",
"N. c #BC8B66",
"B. c #B78565",
"V. c #BC926A",
"C. c #A38874",
"Z. c #B89372",
"A. c #A9977B",
"S. c #C2845D",
"D. c #C58B67",
"F. c #CA956B",
"G. c #DC9E6C",
"H. c #D6996A",
"J. c #CB9977",
"K. c #DE9E73",
"L. c #D49C78",
"P. c #CA8E6D",
"I. c #E29E6D",
"U. c #E99E6B",
"Y. c #E49E74",
"T. c #E49E7B",
"R. c #DEA366",
"E. c #DDA36C",
"W. c #D3A269",
"Q. c #DDA273",
"!. c #DBA276",
"~. c #CFA17C",
"^. c #E2A36C",
"/. c #E6A366",
"(. c #E3A273",
"). c #EBA174",
"_. c #E3A37A",
"`. c #E6A779",
"'. c #3D5389",
"]. c #555B87",
"[. c #4D5A8B",
"{. c #52618C",
"}. c #5A6A9E",
"|. c #586193",
" X c #797B85",
".X c #596DA7",
"XX c #5973A8",
"oX c #566EB7",
"OX c #5676B7",
"+X c #6F7CAE",
"@X c #5B7CC5",
"#X c #5B7DCC",
"$X c #567CC7",
"%X c #4E7DD8",
"&X c #517ECE",
"*X c #617EC8",
"=X c #837A96",
"-X c #78858B",
";X c #5E82BA",
":X c #7E8BAE",
">X c #6A81BA",
",X c #7886B7",
"<X c #5A81CD",
"1X c #5683C9",
"2X c #5482D3",
"3X c #5A81D2",
"4X c #5583DB",
"5X c #4D83DB",
"6X c #6386CA",
"7X c #6B85CB",
"8X c #5884E0",
"9X c #94959B",
"0X c #B39692",
"qX c #868CAE",
"wX c #8389B1",
"eX c #959CA6",
"rX c #9AA7B0",
"tX c #C49B83",
"yX c #DB9C80",
"uX c #CBA387",
"iX c #A6B8CD",
"pX c #ADD2ED",
"aX c #A8C3D3",
"sX c #C9E5F3",
"dX c #CBEBF4",
"fX c #D3E9F8",
"gX c #C4E5EF",
"hX c #C8D3E0",
/* pixels */
"                                                                                                                        ",
"                                                                        * % % % % * % % % * a                           ",
"                                                        7 7 5 5 5 9 f M f b b b b f f f f f f f t                       ",
"                                                      8 > : : e e : , S Z Z Z Z Z C C E E E m q 6 d                     ",
"                                                7 8 S ' { L P ] [ ] L [ <.{ [ { ] K C E E E C V m b 8 8                 ",
"                                                z k B >.,.*.:.:.:.:.:.:.,.,.>.>.[ J K ` ` ` ` ` ` A & % y               ",
"                                          * # l [ :.:.>.>.*.:.,.:.:.:.:.:.,.,.,.,.:.;.>.;.,.,.:.>.F ; # # # &           ",
"                                          * # l -.:.,.>.>.:.,.>.>.>.,.,.,.,.,.:.:.:.:.:.:.:.:.:.,.P D c c B Z C f       ",
"                                          * # l -.:.,.>.>.:.:.>.,.4.4.4.1.1.;.-.-.-.-.-.-.-.<.<.<.<.,.,.:.,.<.c < >     ",
"                                          * # l -.:.,.>.,.:.*.4.a.P.F.P.D.S.' m V V V V V V V V A K <.>.,.:.,.*.P L A e ",
"                                            8 M K L J L J J J P x.(.(.Q.Q.H.2.G ` T U g g n g s v C ' ] [ ;.;.;.>.2.l # ",
"                                                u $ $ ; $ $ = 1 4.G.G.Q.!.Q.yXF.B.W T s p s g g g n m S K [ :.:.,.>.l < ",
"                                                          7 o $ 4.K.(.Q.Q.Y.Y.^.D.G g g s g g T g g n v V ` ` B N C N   ",
"                                                            3 > 6._.(.Q.G.I.Y.^.D.~ I g g U g n g g T g s g h 9 % 7     ",
"                                                            3 > 6._.(.Q.(.(.K.W.V.~ g s p s g n v g U g g n n w & %     ",
"                                                          j t u 6.(.(.Q.Q.(.Y.E.Z. .^ Q Q Q Y n v f U U v v g w % %     ",
"                                                      8 t f M N i.`.^.Q.Q.I.U.^.uX+XoXOXOXOX{.Y g n n g s s g w % %     ",
"                                                      o % b E Z f.`.^.Q.Q.K.0X9XeX6X8X2X1X6XXX'.o.^ n s h h g w % %     ",
"                                                      * % f E Z f.!.G.Q.Q.L.,X;X;X#X8X$X@X3X<X&X1X{.U v g g g w % %     ",
"                                                & 6 d S b +.}.}.+XqXqXqXqXwX6X2X<X<X*X#X4X%X&X5X&X[.U b s w 8 6         ",
"                                                & % d N E |.3X3X3X<X<X<X<X<X6X#X2X2X$XOX,X,X,X7X>X].U h r 5 %           ",
"                                                & % d N E |.<X<X<X<X<X<X<X<X*X#X2X5X1X,X0XJ.tXtXuX7.; # # o O           ",
"                                                & % d N E |.<X<X<X<X<X<X<X<X<X#X3X2X1X:XtX/.U.).`.6.: o i j j           ",
"                                                & 5 d N E ].*X#X3X3X<X<X<X1X2X<X6X3X&X,X0X/.E.(.(.8.- 7 R               ",
"                                                    f p d Q O.].OX2X3X@X$X1X2X1X@X#X<X:XtX/.E.).(.x.4.2.| M d           ",
"                                                      # * U ! _ |.OX$X$X@X<X2X<X#X#X*XwX0XuXuXY./.E.(._.;.# O           ",
"  t 7 9 8 + 5 % % % % % % % %                         # 3 +.XXXX].+.O..X$X5X%X&X3X2X2X<X7X,X9XL.(.!.I.^.8.7 7           ",
"  O X 7 t . O 7 * * * * * * 7                       p + 4 o.1XOXO.C E O.}..X@X<X@XXX}.}..X.X=X~.I.T.U./.5.5 5           ",
"  % 5                         5 % % % % % 5 % % 3 5 & # 4 / @XOX].R C C H ( XX@X.X+.R E E ! | L.^.Y.U.R.,.& %           ",
"  % 6                                               i o 4 [.#X#XoX[.O._ E E O.].O._ M ' 5.6.f.E.^.Y.(.!.8.: 5           ",
"  O 7                                                 a a O.>X6X6X6X>XO.R Z G ) ) ) B >.P.T._.R./.K.L.F.{ q 8           ",
"        i t                                           iXiXaXpXpXpXpXiX XE K i.N.P.P.B.D.Y.(.I.R.Q.f.c c )               ",
"        5 5                                       dXdXfXsXgXdXsXsXfXhX XR ` D.(.).).).Y.H.L.L.H.J.5.$ o                 ",
"              O % % % % % % % # % % . 3 a         dXdXsXgXsXdXsXsXfXhX&.M ) D._.).).Q.J.Z.c.c.c.b.| = O                 ",
"                                        _       X. X-X-X-X9XrXrXrXrXeXs.....M.Z.V.F.Z.Z.C.b.v.b.b.} $ o                 ",
"                                          7 . + 6 8 % X % M @.#.#.$.$.s.m.C.b.v.v.c.c.c.v.v.v.v.s.} = %                 ",
"                                                    R 8 * ( @.X.X.$.} s.m.b.b.m.m.m.b.v.c.n.7.M S M                     ",
"                                                    ) z 1 H | %.%.%.%.s.b.C.C.m.m.m.v.v.n.n...- o 7                     ",
"                                                7 $ F t.9.9.r.e.0.y.i.f.M.v.c.c.c.C.v.n.c.b...= o y                     ",
"                                                * $ D p.k.k.q.p.q.j.p.B.Z.A.n.v.v.v.b.s.| } } M                         ",
"                                                3 % G a.j.e.q.l.p.q.e.H./.G.M.b.C.C.C.%.p * t                           ",
"                                                % < G a.j.q.e.0.=.x F B._.I.F.F.F.F.J.f.1 # *                           ",
"                                                k k J y.k.j.j.0.D < > 5.N.F.K.(.Q.(.(.B.k % 7                           ",
"                                          t 8 B 4.9.t.e.k.q.p.y.F & # u l c N.(.Q.(.(.B.k % 7                           ",
"                                          % # D q.j.u.h.h.1.:.-.~ h d % % q a.(.Q.(.(.B.k % 7                           ",
"                                          + % A 0.h.l.j.q.J $ =       p % u x.(.Q.(.(.B.k % 7                           ",
"                                          % % V y.l.l.j.l.J + %       8 # u B.Y.(.E.Q.B.u . 5                           ",
"                                          % % A 0.j.u.q.q.G & %       5 % 1 x.(.(.G.Q.B.x u M                           ",
"                                          % # c 0.e.y.e.0.F # %       . X u x.`._.T.Y.K.x.B.7.S t                       ",
"                                          % # c 0.q.p.j.w.=.x x N       9 p 7.M.g.L.Y.I.^.`.i., % 0                     ",
"                                          * # c y.p.a.j.h.y.t.t.F = *       u > x B.(.^.^._.i., 6 3                     ",
"                                              B J G P P P ] 3.] x & O       * + z N.R.(.Y.^.i.w @ $                     ",
"                                                . % q s n g n m q . O       - + z N.R.(.K.^.i.w @ ;                     ",
"                                                O % w s g U U g 9 5 3       - + z N.R.(.K.^.i.w @ ;                     ",
"                                                  % q q i s s s 6 # #       - + z N.R.(.K.^.i.w @ ;                     ",
"                                                      * * * % 6 & X *       - # x N.Q.(.E.Q.i.e # 2                     ",
"                                                                            5 % z 2.6.6.6.6.] , # y                     ",
"                                                                            7 % 6 v s g U g v + 5 t                     ",
"                                                                            - & 6 s s g U h w 5 7 0                     ",
"                                                                            6 + + g g g n s i % *                       "
};
