/* XPM */
static char *result[] = {
/* columns rows colors chars-per-pixel */
"60 60 238 2 ",
"   c #1B0D1B",
".  c #1E131B",
"X  c #1D1318",
"o  c #280E0D",
"O  c #29130F",
"+  c #30120C",
"@  c #230E14",
"#  c #230E1A",
"$  c #2A0D1B",
"%  c #241215",
"&  c #2C1414",
"*  c #23141C",
"=  c #2A141C",
"-  c #23191C",
";  c #2B191D",
":  c #241913",
">  c #351A18",
",  c #3B211B",
"<  c #28261E",
"1  c #1D1624",
"2  c #231621",
"3  c #251A22",
"4  c #2B1B23",
"5  c #291928",
"6  c #341C26",
"7  c #261D33",
"8  c #361F33",
"9  c #2B232B",
"0  c #292127",
"q  c #332125",
"w  c #3C2324",
"e  c #35232C",
"r  c #3B272B",
"t  c #2B2335",
"y  c #3B2335",
"u  c #332B33",
"i  c #3B2B33",
"p  c #3D253B",
"a  c #372838",
"s  c #3D343A",
"d  c #46251D",
"f  c #572A1E",
"g  c #472829",
"h  c #552A22",
"j  c #4E352E",
"k  c #53332C",
"l  c #583424",
"z  c #442A35",
"x  c #41243C",
"c  c #482739",
"v  c #4B353C",
"b  c #4E3A3C",
"n  c #463636",
"m  c #533A3C",
"M  c #563837",
"N  c #552B36",
"B  c #66392A",
"V  c #653B36",
"C  c #411F2C",
"Z  c #5A423A",
"A  c #4B403D",
"S  c #6A463A",
"D  c #75493A",
"F  c #7B442E",
"G  c #2B2B47",
"H  c #3B2442",
"J  c #3E2B45",
"K  c #352645",
"L  c #3C3241",
"P  c #333156",
"I  c #353964",
"U  c #1E2C50",
"Y  c #4C3B43",
"T  c #493B48",
"R  c #543D42",
"E  c #563A47",
"W  c #49344A",
"Q  c #37445C",
"!  c #3B4569",
"~  c #394874",
"^  c #4A4347",
"/  c #574748",
"(  c #4C445D",
")  c #544756",
"_  c #5E5C5D",
"`  c #555356",
"'  c #6D4B44",
"]  c #684745",
"[  c #734D43",
"{  c #794B43",
"}  c #755146",
"|  c #7B5242",
" . c #79564B",
".. c #6A5954",
"X. c #655C59",
"o. c #7A5451",
"O. c #6A564C",
"+. c #5E615C",
"@. c #66625D",
"#. c #73615C",
"$. c #796559",
"%. c #484967",
"&. c #5B5864",
"*. c #4B5776",
"=. c #525574",
"-. c #4E526E",
";. c #625E62",
":. c #615768",
">. c #5D6265",
",. c #636363",
"<. c #66686B",
"1. c #766661",
"2. c #6B6C73",
"3. c #85553E",
"4. c #8D553D",
"5. c #9E623F",
"6. c #855B44",
"7. c #8B5A45",
"8. c #855A4B",
"9. c #8B5C4A",
"0. c #865543",
"q. c #955946",
"w. c #865D51",
"e. c #99674C",
"r. c #986954",
"t. c #9D7156",
"y. c #8A6653",
"u. c #A76449",
"i. c #BB6C4B",
"p. c #A66B57",
"a. c #B66E53",
"s. c #AA7C5B",
"d. c #A67859",
"f. c #BE7353",
"g. c #B67759",
"h. c #B4734E",
"j. c #8B7A6A",
"k. c #967868",
"l. c #837B70",
"z. c #A47C63",
"x. c #B47F62",
"c. c #A65F40",
"v. c #C26C45",
"b. c #C56E48",
"n. c #C3714D",
"m. c #C77249",
"M. c #C27453",
"N. c #B5865B",
"B. c #9A856D",
"V. c #97866E",
"C. c #9B8473",
"Z. c #9B8973",
"A. c #998777",
"S. c #8D8171",
"D. c #B78967",
"F. c #A78873",
"G. c #B98A74",
"H. c #A8886D",
"J. c #C48D69",
"K. c #CB966B",
"L. c #DC9D6C",
"P. c #D6966B",
"I. c #CC9975",
"U. c #D39B76",
"Y. c #DC9D73",
"T. c #D59E7A",
"R. c #D69A77",
"E. c #E39E6C",
"W. c #E59E67",
"Q. c #E59F72",
"!. c #F09B6E",
"~. c #DEA26B",
"^. c #DDA273",
"/. c #D9A279",
"(. c #E3A26D",
"). c #E8A36B",
"_. c #E3A373",
"`. c #E7A677",
"'. c #F2A472",
"]. c #C18A5A",
"[. c #3B5691",
"{. c #455383",
"}. c #525C92",
"|. c #54628C",
" X c #5A6999",
".X c #51699B",
"XX c #62648D",
"oX c #546DAD",
"OX c #526AA8",
"+X c #5D75AB",
"@X c #5A78B8",
"#X c #5174B2",
"$X c #6378BC",
"%X c #6172A7",
"&X c #4F7BC8",
"*X c #557CC4",
"=X c #5A7EC4",
"-X c #547DCB",
";X c #5B7ECB",
":X c #5C77C8",
">X c #577DD5",
",X c #4B7FD6",
"<X c #627DC9",
"1X c #627CD6",
"2X c #957F89",
"3X c #5981BF",
"4X c #7989B1",
"5X c #5A82C5",
"6X c #5581CD",
"7X c #5B81CD",
"8X c #5681C4",
"9X c #4E82D6",
"0X c #5382D2",
"qX c #5A82D1",
"wX c #5484DB",
"eX c #6385C6",
"rX c #6E92CE",
"tX c #948C91",
"yX c #A49A8E",
"uX c #BA988B",
"iX c #AA9693",
"pX c #AFA194",
"aX c #9591A7",
"sX c #A3A7A4",
"dX c #D29C84",
"fX c #D9A191",
"gX c #8CABDA",
"hX c #94AFDB",
"jX c #86B1E2",
"kX c #BBC9CF",
"lX c #C6DCE8",
"zX c #CAE6F5",
"xX c #C9E9FB",
"cX c #C8E6F9",
"vX c #D2ECF7",
"bX c #CDE4EC",
"nX c #C4D3DC",
"mX c None",
/* pixels */
"mXmXmXmXmXmXmXmXmXmXmXmXmXmXmXmXmXmXmXmXmXmXmXmXmXmXmXmXmXmXmXmXmXmXmXmXmXmXmXmXmXmXmXmXmXmXmXmXmXmXmXmXmXmXmXmXmXmXmXmX",
"mXmXmXmXmXmXmXmXmXmXmXmXmXmXmXmXmX3 . . - . * 2 * - * * 9 mXmXmXmXmXmXmXmXmXmXmXmXmXmXmXmXmXmXmXmXmXmXmXmXmXmXmXmXmXmXmX",
"mXmXmXmXmXmXmXmXmXmXmXmXmXmXmXmXq 4 q q q 6 6 q q 6 6 6 9 mXmXmXmXmXmXmXmXmXmXmXmXmXmXmXmXmXmXmXmXmXmXmXmXmXmXmXmXmXmXmX",
"mXmXmXmXmXmXmXmXmXmXmXmXmXs * % w m m ^ R v v b m m M b v e * * = * % * = * & % % i mXmXmXmXmXmXmXmXmXmXmXmXmXmXmXmXmXmX",
"mXmXmXmXmXmXmXmXmXmXmXmXn s r e n Y T Y v b R ] ' ' S S S M k k k k k k k k k k k m R mXmXmXmXmXmXmXmXmXmXmXmXmXmXmXmXmX",
"mXmXmXmXmXmXmXmXmXmXu 4 5 g v m m m R R m m ]  .8.7.7.7.9.6.6.7.7.9.9.6.7.8.6.8.8.] , @ % mXmXmXmXmXmXmXmXmXmXmXmXmXmXmX",
"mXmXmXmXmXmXmXmXu u - % @ j ] }  .} } [ [ [ | 8.9.8.0.7.7.7.7.7.9.9.9.0.7.7.3.7.w.' > % 2 mXmXmXmXmXmXmXmXmXmXmXmXmXmXmX",
"mXmXmXmXmXmXmXr - , ; ; 6 V 8.w.7.7.9.w.9.8.7.9.7.7.7.0.7.q.7.7.q.9.7.7.7.7.e.7.9.S & @ * mXmXmXmXmXmXmXmXmXmXmXmXmXmXmX",
"mXmXmXmXu - g Z } D S S { 0.9.9.7.7.6.7.4.7.q.q.0.7.9.0.0.9.6.6.6.7.6.6.7.7.6.7.8.S & % 4 mXmXmXmXmXmXmXmXmXmXmXmXmXmXmX",
"mXmXmXmXz > h | 9.3.6.e.0.0.{ 0.|  .}  .| D 0.r.q.e.e.e.e.e.e.e.7.7.7.4.6.7.7.D } Z w * * mXmXmXmXmXmXmXmXmXmXmXmXmXmXmX",
"mXt 4 g ' } | 7.7.7.6.9.0.V N c c W c c s z [ G.dXQ.P.E.P.P.U.K.h.4.4.4.7. .S , > r mXmXmXmXmXmXmXmXmXmXmXmXmXmXmXmXmXmX",
"mX2 % , } w.8.{ D } ' ' ] Y x p H x x W ' D e.I._._.Q.Q.!._.`.R.e.F S ] ' S M q . mXmXmXmXmXmXmXmXmXmXmXmXmXmXmXmXmXmXmX",
"mX5 * d [ y.| M r z z g x y p p H p p o.U.T.Y._.Q.^._.^._.(.`.I.D > * - 4 4 s mXmXmXmXmXmXmXmXmXmXmXmXmXmXmXmXmXmXmXmXmX",
"mXmXmXb M M k c y p x x p p p p p p y o.Y._._._._.^._._.^.(._.I.S ; 2 u T mXmXmXmXmXmXmXmXmXmXmXmXmXmXmXmXmXmXmXmXmXmXmX",
"mXmXmXmX* @ ; 8 a W y x p x p p p p p o.Y._._._.^._.^._.~.L.E.R.S & 3 s mXmXmXmXmXmXmXmXmXmXmXmXmXmXmXmXmXmXmXmXmXmXmXmX",
"mXmXmXmX* % 4 8 K H y 8 p y p p p p p o.R.Q._.^.Q._._._.^.E._.R.S % . mXmXmXmXmXmXmXmXmXmXmXmXmXmXmXmXmXmXmXmXmXmXmXmXmX",
"mXmXmXmX* % = y H p H W J W J J H W H o.~.`._._._._._._._._._.I.D ; * mXmXmXmXmXmXmXmXmXmXmXmXmXmXmXmXmXmXmXmXmXmXmXmXmX",
"mXmXmXmX3 . 2 x r u }.oXoXoXoXoXoXoX#X2X(.).~.^.^._._.Q.^.`.E.P.7.j n i 4 2 mXmXmXmXmXmXmXmXmXmXmXmXmXmXmXmXmXmXmXmXmXmX",
"mXmXmXmX2 & 4 P P ! @X1X>X0XqXqXqXqX>XrXuXuXI.^.(.).Q.^.E.E._.U.w.R Y x = & % mXmXmXmXmXmXmXmXmXmXmXmXmXmXmXmXmXmXmXmXmX",
"mXmXmXmX2 o 9 }.&X#X@X;X7X7X7XqX7X7X;X<XeX4XtXdX`._.E.Q.).W._.T.y.E Y r $ % y mXmXmXmXmXmXmXmXmXmXmXmXmXmXmXmXmXmXmXmXmX",
"mXmXmX( I P ! #XwXqX7XqX7X7X7XqX7X7XqX0X,X-X4XaXpXuXuXuXuXG.x.z.0.R Y s K P %.mXmXmXmXmXmXmXmXmXmXmXmXmXmXmXmXmXmXmXmXmX",
"mX7 3 G oXqX#X3XeX<X,X>X7X7X;X;X7XqX7X;X;X7X5X8X5X5X;X7X+X=./ V m ^ I *.mX@X~ 7 = ; mXmXmXmXmXmXmXmXmXmXmXmXmXmXmXmXmXmX",
"mX2 * i 2XaXaXtXtXaXeX-X;XqX6X6X6X6X=X5X<X5X=X8X0X&X&X>X@X%.M R %.=.*.OX6X=X~ 5 % ; mXmXmXmXmXmXmXmXmXmXmXmXmXmXmXmXmXmX",
"mX2 & l J.`.dX!.!.fXaX$X*X8X6X6X6X-X*X7X;XqX6X8X5X=X=X;X+X&.m T |.eX5X9XwX5X{.7 # = mXmXmXmXmXmXmXmXmXmXmXmXmXmXmXmXmXmX",
"mX2 * j K.).(.).'.I.:.I ~ .X5X7XqX,X-X5X8X;X>X>X1X@X|.*.` R m )  X=X9XqXqX;X{.7 . 2 mXmXmXmXmXmXmXmXmXmXmXmXmXmXmXmXmXmX",
"mX- % j J.(.(._.).].S , r -. X@X;X;X;X5X8X;X>X:X<XXX` Y R ) %.T  X0XwX@X%X+X-.7 2 5 mXmXmXmXmXmXmXmXmXmXmXmXmXmXmXmXmXmX",
"mX2   N I.`.^./.`.`.N.N.z.] a U [.;X<X>X>X0XOX*.( ) E E E |.%X%X+X9X,X{.G P ( mXmXmXmXmXmXmXmXmXmXmXmXmXmXmXmXmXmXmXmXmX",
"mXu 5 M H.N.N./.^.`.).~.T.' - 1 ~ ;X>X&X#X%XXX) Y E ) ) =.oX7X<X5X9X*X%.# # 2 mXmXmXmXmXmXmXmXmXmXmXmXmXmXmXmXmXmXmXmXmX",
"mXmXmXmXw , B J./.`.(.`.T.V o - ! <X>X}.( E E M Y -. X#X@X=XwX6X;X0X8X! X - u mXmXmXmXmXmXmXmXmXmXmXmXmXmXmXmXmXmXmXmXmX",
"mXmXmXmX  % g D./.`.(.(.T.e.S Z &.}. X=.T v / ) %.|.@X;X;X0X9X-X-X6X8X%.* - 9 mXmXmXmXmXmXmXmXmXmXmXmXmXmXmXmXmXmXmXmXmX",
"mXmXmXmX1 # h G.^.(.).(._.R.P.I.k.E W Y m ^ &.%X$X@X<X<X=X0X9X;X<X6X5X! * X - 4 2 2 * 4 ; - * 2 2 * * - 2 2 2 * . 2 * . ",
"mXmXmXmXmXmXk  .3.5.K.).E._.E._.J.r.t.6.Z A *.rXjXjXjXhXhXgXgXgXgXrXmXmXmXmXmXmXmXmXmXmXmXmXmXmXmXmXmXmXmXmXmXmX6 q # @ ",
"mXmXmXmXmXmXmX2 # d z./.U.(._._.Q._._.s.V T ;.kXvXzXzXvXzXzXzXxXxXcXmXmXmXmXmXmXmXmXmXmXmXmXmXmXmXmXmXmXmXmXmXmXmXmX4 $ ",
"mXmXmXmXmXmXmXmXmXmX' ' D g.~.).).'.Q.s.m R <.nXvXxXzXzXcXxXxXxXxXxXxXmXmXmXmXmXmXmXmXmXmXmXmXmXmXmXmXmXmXmXmXmXmXmX2 * ",
"mXmXmXmXmXmXmXmXmXmX0 = > y.I.~./.dX/.z./ / 2.kXlXbXlXlXlXlXlXlXzXvXcXmXmXmXmXmXmXmXmXmXmXmXmXmXmXmXmXmXmXmXmXmXmXmX5 . ",
"mXmXmXmXmXmXmXmXmXmX- - : $.F.Z.F.F.G.k.k.j.l.yXyXyXyXyXyXsXyXsXkXbXvXmXmXmXmXmXmXmXmXmXmXmXmXmXmXmXmXmXmXmXmXt t T mXmX",
"mXmXmXmXmXmXmXmXmXmX- * : O.Z.V.C.C.C.C.H.B.V.V.V.S.S.S.S.S.l.S.sXkXkXmXmXmXmXmXmXmXmXmXmXmXmXmXmXmXmXmXmXmXmX7 7 mXmXmX",
"mXmXmXmXmXmXmXmXmXmX3 2 & ..A.Z.B.C.C.C.C.B.B.V.A.S.$.@.@.@.@.,.<.2.>.>.<.@.b - X . 3 . . . . - . . - . - 1 mXmXmXmXmXmX",
"mXmXmXmXmXmXmXmXmXmX3 * ; ..A.V.B.B.C.C.C.C.B.$.#.../ ^ ^ ` >.+.@.+.+._ @.X.A - @ ; r - - ; ; - ; 4 ; ; ; 9 mXmXmXmXmXmX",
"mXmXmXmXmXmXmXmXmXmX3 2 = ..A.V.B.C.C.C.B.B.$.r ; : ; - < ^ <.,.@._ _ @.<.&.^ 1 1 s mXmXmXmXmXmXmXmXmXmXmXmXmXmXmXmXmXmX",
"mXmXmXmXmXmXmXmXmXmX3 * = ..A.V.B.Z.B.C.B.F.$.; % 4 u i A ^ s s ` ,.&.,.+.+.` n s ^ T mXmXmXmXmXmXmXmXmXmXmXmXmXmXmXmXmX",
"mXmXmXmXmXmXmXmXmXmX- * ; ..A.V.Z.Z.C.C.C.A.$.q % 9 mXmXmX9 % & ^ ,.>.+.+.+.>.;.&./ q % % mXmXmXmXmXmXmXmXmXmXmXmXmXmXmX",
"mXmXmXmXmXmXmXmXmXmX- * ; ..A.Z.Z.B.A.y.m A / mXmXmXmXmXmX- % ; / &.>.@.@.+.;.;.,.) 4 % ; mXmXmXmXmXmXmXmXmXmXmXmXmXmXmX",
"mXmXmXmXmXmXmXmXmXmXn , ,  .B.F.Z.H.F...- * 4 mXmXmXmXmXmX0 - q ( &.&...#.,.;.#.#.] ; % 2 mXmXmXmXmXmXmXmXmXmXmXmXmXmXmX",
"mXmXmXmXmXmXmXt q j t.H.D.K.I.I.U.I./.r.4   . mXmXmXmXmXmXmXmXmXs t r } t.p.p.p.p.| > % 3 mXmXmXmXmXmXmXmXmXmXmXmXmXmXmX",
"mXmXmXmXmXmXmX2 o > H.^.`.`.^._.).).).e.; * 3 mXmXmXmXmXmXmXmXmX1   O F f.n.n.n.f.q.f , g mXmXmXmXmXmXmXmXmXmXmXmXmXmXmX",
"mXmXmXmXmXmXmX& $ 6 s.~._._.L.~.).(.(.r.; - 9 mXmXmXmXmXmXmXmXmX7 X + F h.i.m.b.n.f.u.i.q.w 2 2 mXmXmXmXmXmXmXmXmXmXmXmX",
"mXmXmXmXmXmXmX& $ 6 d.^.Q.^.^.^.D.t.d.w.- 3 mXmXmXmXmXmXmXmXmXmXmXu n S [ 3.c.i.n.M.f.M.u.w * . mXmXmXmXmXmXmXmXmXmXmXmX",
"mXmXmXmXmXmXmX> $ 8 d._.E.E././.6., & ; mXmXmXmXmXmXmXmXmXmXmXmXmXmXmXv ; > B u.M.M.a.n.c.w 1 . mXmXmXmXmXmXmXmXmXmXmXmX",
"mXmXmXmXmXmXmX& $ 6 d._._.L.^./.6.& 1 1 mXmXmXmXmXmXmXmXmXmXmXmXmXmXmXmX* = B f.n.n.M.n.c.w #   mXmXmXmXmXmXmXmXmXmXmXmX",
"mXmXmXmXmXmXmX, > g s.^._.L.^./.6.> . 1 mXmXmXmXmXmXmXmXmXmXmXmXmXmXmXmX* @ B a.n.n.n.M.c.d $ 6 mXmXmXmXmXmXmXmXmXmXmXmX",
"mXmXmXmX0 9 R 6.t.p.K._.L.~._.Y.3.+ % mXmXmXmXmXmXmXmXmXmXmXmXmXmXmXmXmX. @ B p.n.b.v.i.i.q.3.{ m r mXmXmXmXmXmXmXmXmXmX",
"mXmXmXmX: % g D.`.`.E.).~.L.L.G.6., # mXmXmXmXmXmXmXmXmXmXmXmXmXmXmXmXmX* > V e.i.i.v.v.v.b.M.p.h O * mXmXmXmXmXmXmXmXmX",
"mXmXmXmX: X g J.^.Y.~.^.K.6.l j / mXmXmXmXmXmXmXmXmXmXmXmXmXmXmXmXmXmXmXmXmXb g d B u.M.M.b.M.u.f $ 2 mXmXmXmXmXmXmXmXmX",
"mXmXmXmXM C B ].`.`.^.~./.D O . mXmXmXmXmXmXmXmXmXmXmXmXmXmXmXmXmXmXmXmXmXmXmX. $ h p.M.i.v.a.p.h $ 2 mXmXmXmXmXmXmXmXmX",
"mX9 = M D.dXR.W.).)._.`.^.D & . mXmXmXmXmXmXmXmXmXmXmXmXmXmXmXmXmXmXmXmXmXmXmXX > h p.M.b.n.M.u.f + & mXmXmXmXmXmXmXmXmX",
"mX2 = j k.F.d.s.g.s.d.t.t.} r mXmXmXmXmXmXmXmXmXmXmXmXmXmXmXmXmXmXmXmXmXmXmXmXX & h { q.q.q.q.{ d = # mXmXmXmXmXmXmXmXmX",
"mX* * 2 a z z z z x 6 & > mXmXmXmXmXmXmXmXmXmXmXmXmXmXmXmXmXmXmXmXmXmXmXmXmXmX* # 4 c c c c c c $ $ X mXmXmXmXmXmXmXmXmX",
"mX2 * 4 r 8 x x p p 5 # * mXmXmXmXmXmXmXmXmXmXmXmXmXmXmXmXmXmXmXmXmXmXmXmXmXmX* 2 $ x H K K H p 5 2 * mXmXmXmXmXmXmXmXmX",
"mX2 * 4 y p p x p p 4 % = mXmXmXmXmXmXmXmXmXmXmXmXmXmXmXmXmXmXmXmXmXmXmXmXmXmX* $ 4 x H J K J p $ % * mXmXmXmXmXmXmXmXmX"
};
