/* XPM */
static char *result[] = {
/* columns rows colors chars-per-pixel */
"60 60 241 2 ",
"   c #1B0E17",
".  c #1E131B",
"X  c #1A1518",
"o  c #1E100F",
"O  c #290C0C",
"+  c #29130D",
"@  c #33130C",
"#  c #230E14",
"$  c #230E1A",
"%  c #280D1A",
"&  c #231315",
"*  c #23141C",
"=  c #2A141C",
"-  c #251A1E",
";  c #2A1718",
":  c #321C1B",
">  c #361816",
",  c #1D1423",
"<  c #1D1A23",
"1  c #1E192E",
"2  c #231522",
"3  c #2B1523",
"4  c #241A24",
"5  c #2B1C24",
"6  c #241D2A",
"7  c #291D2A",
"8  c #2A1628",
"9  c #321C25",
"0  c #331E2B",
"q  c #381C26",
"w  c #231D31",
"e  c #2C222C",
"r  c #2A2329",
"t  c #34242D",
"y  c #3C252D",
"u  c #372829",
"i  c #2A2735",
"p  c #3C2535",
"a  c #342A33",
"s  c #3B2C35",
"d  c #3C243C",
"f  c #3C2C3C",
"g  c #352439",
"h  c #38333B",
"j  c #2E252A",
"k  c #46261B",
"l  c #592E1E",
"z  c #442B2C",
"x  c #482928",
"c  c #572C26",
"v  c #4A312C",
"b  c #59342A",
"n  c #412533",
"m  c #442C33",
"M  c #42253B",
"N  c #442A3A",
"B  c #4B2B3C",
"V  c #4B2537",
"C  c #4E3B3D",
"Z  c #473539",
"A  c #533C3C",
"S  c #583A37",
"D  c #643729",
"F  c #643D33",
"G  c #441F1C",
"H  c #59453F",
"J  c #57433D",
"K  c #69463C",
"L  c #774A38",
"P  c #7A523B",
"I  c #70462C",
"U  c #3B2A42",
"Y  c #372543",
"T  c #393741",
"R  c #333356",
"E  c #292F55",
"W  c #432643",
"Q  c #483A44",
"!  c #533C43",
"~  c #553944",
"^  c #493E56",
"/  c #3D4571",
"(  c #4A4347",
")  c #5A4343",
"_  c #564547",
"`  c #554854",
"'  c #5D5C5C",
"]  c #585658",
"[  c #4F4753",
"{  c #644641",
"}  c #674B46",
"|  c #764D44",
" . c #7E5444",
".. c #7A574A",
"X. c #635D5D",
"o. c #6B5A56",
"O. c #735959",
"+. c #684E51",
"@. c #5E635E",
"#. c #69615B",
"$. c #73645B",
"%. c #484767",
"&. c #5C536B",
"*. c #474C74",
"=. c #49567A",
"-. c #565878",
";. c #504E69",
":. c #625F68",
">. c #5B626B",
",. c #636363",
"<. c #696264",
"1. c #776D70",
"2. c #854C3D",
"3. c #89533A",
"4. c #95573C",
"5. c #B1623F",
"6. c #C1703D",
"7. c #895A45",
"8. c #845A4A",
"9. c #8C5D4B",
"0. c #855644",
"q. c #985B48",
"w. c #865C53",
"e. c #94624B",
"r. c #986547",
"t. c #866254",
"y. c #996C59",
"u. c #856A56",
"i. c #A6674A",
"p. c #B86C4A",
"a. c #BC724C",
"s. c #A96C54",
"d. c #B56D54",
"f. c #BB6F56",
"g. c #A9735A",
"h. c #BD7453",
"j. c #B47758",
"k. c #887465",
"l. c #947B6B",
"z. c #8B7B72",
"x. c #917572",
"c. c #AA7B67",
"v. c #AC717D",
"b. c #A35F48",
"n. c #C46E4A",
"m. c #C4714E",
"M. c #C77446",
"N. c #C46D53",
"B. c #C67254",
"V. c #96826D",
"C. c #948274",
"Z. c #9A8574",
"A. c #9A8875",
"S. c #8C8171",
"D. c #A8836A",
"F. c #B98766",
"G. c #A48874",
"H. c #B1805E",
"J. c #C9956E",
"K. c #DC9D6C",
"L. c #D59669",
"P. c #CC9673",
"I. c #CA9977",
"U. c #D89C77",
"Y. c #C88D67",
"T. c #E39F6C",
"R. c #E99C68",
"E. c #E29D74",
"W. c #E99F74",
"Q. c #DDA46C",
"!. c #DDA273",
"~. c #D8A479",
"^. c #E4A26C",
"/. c #E7A267",
"(. c #E4A472",
"). c #E6A577",
"_. c #D1905F",
"`. c #3A5896",
"'. c #4B5789",
"]. c #445894",
"[. c #5A5D88",
"{. c #556796",
"}. c #526391",
"|. c #5778AE",
" X c #586FB4",
".X c #5C7CBD",
"XX c #5A74B6",
"oX c #4D6EB0",
"OX c #6977AA",
"+X c #6578B4",
"@X c #737CB6",
"#X c #606EA4",
"$X c #7C7B8D",
"%X c #557CC3",
"&X c #5B7ECB",
"*X c #577DC6",
"=X c #5A7ED4",
"-X c #557CD9",
";X c #4C7FCA",
":X c #617DCA",
">X c #6274CB",
",X c #897986",
"<X c #7F868F",
"1X c #5481BD",
"2X c #7384B5",
"3X c #4E81CA",
"4X c #5282CD",
"5X c #5B81CD",
"6X c #5683C5",
"7X c #4C85D5",
"8X c #4A83D7",
"9X c #5D81D2",
"0X c #5582D5",
"qX c #6784C2",
"wX c #968A9D",
"eX c #888E99",
"rX c #A89597",
"tX c #B3968A",
"yX c #948DA4",
"uX c #9892A8",
"iX c #868DAE",
"pX c #A795A2",
"aX c #9EA6B0",
"sX c #ACAEB1",
"dX c #B2A098",
"fX c #C89C8A",
"gX c #D1AA8E",
"hX c #D7BBAA",
"jX c #D0CABE",
"kX c #BBC4CD",
"lX c #B4CFD8",
"zX c #BFE8F0",
"xX c #CFD5D1",
"cX c #C9DCE4",
"vX c #CEDEF4",
"bX c #C6E5E8",
"nX c #C9E8F5",
"mX c #D4E8F7",
"MX c #D2E5EA",
"NX c #D0E0DC",
"BX c None",
/* pixels */
"BXBXBXBXBXBXBXBXBXBXBXBXBXBXBXBXBXBXBXBXBXBXBXBXBXBXBXBXBXBXBXBXBXBXBXBXBXBXBXBXBXBXBXBXBXBXBXa e s t 5 5 7 r BXBXBXBXBX",
"BXBXBXBXBXBXBXBXBXBXBXBXBXBXBXBXBXBXBXBXBXBXBXBXBXBXBXBXBXBXBXBXBXBXBXBXBXBXBXBXBXBXBXBXBXBX( 6 . < 2 , 2 * . 2 a BXBXBX",
"BXBXBXBXBXBXBXBXBXBXBXBXBXBXBXBXBXBXBXBXBXBXBXBXBXBXBXBXBXBXBXBXBXBXBXBXBXBXBXBXBXBXBXi < h BXBXBXBXBXBXBX5 * . 7 BXBXBX",
"BXBXBXBXBXBXBXBXBXBXBXBXBXBXBXBXBXBXBXBXBXBXBXBXBXBXBXBXBXBXBXBXBXBXBXBXBXBXBXBXBXBX] h i h BXBXBXBXBXBXBX* & * 4 BXBXBX",
"BXBXBXBXBXBXBXBXBXBXBXBXBXBXBXBXBXBXBX2 $ $ & * * = * # $ $ . g BXBXBXBXBXBXBXf 4 r ( BXBXBXBXBXBXBXBXBXBX* * * 4 BXBXBX",
"BXBXBXBXBXBXBXBXBXBXBXBXBXBXBXBXe s p t p m y y m m y y n m y p f u r r X 4 t 7 % , i BXBXBXBXBXBXBXBXBXBX= * * 4 BXBXBX",
"BXBXBXBXBXBXBXBXBXBXBXBXBXBXBX< * 9 Z ~ ! ) ! Z C J C A ) ~ ) C y - - - - : 5 9 8 2 6 BXBXBXBXBXBXBXBXBXBX5 2 * BXBXBXBX",
"BXBXBXBXBXBXBXBXBXBXBXe . = y Z Z Z C A A ! C C J }  . .0. .0. . .P K | P L | BXBXBXBXBXBXBXBXBXBXBX< X - BXBXBXBXBXBXBX",
"BXBXBXBXBXBXBXBXBXBXBXr * & y } { K { K { { { { { 0.7.7.7.7.7.7.7.7.9.9.4.3.t.BXBXBXBXBXBXBXBXBXBXBXX . : BXBXBXBXBXBXBX",
"BXBXBXBXBXBXBXBXr * ; & ; + v ....8.8.8.8.0.8.8.8.7.7.7.7.7.7.7.7.7.7.7.7.8.z.sXBXBXBXBXBXBXBXBXBXBX4 * % BXBXBXBXBXBXBX",
"BXBXBXBXBXf m A S S S I I b I 0.7.7.7.7.7.7.7.7.7.7.7.7.7.7.7.7.8.7.t.k.dXsXsXbXmXnXBXBXBXBXBXh f BXBXBXBXBXBXBXBXBXBXBX",
"BXBXBXBXs 5 > b w.w.8.8.7.9.8.0.0.0. .0.0. .8.9.8.q.r.7.e.r.e.e.r.9.y.tXxXnXnXmXMXbXbXnXBXBX6 X * q BXBXBXBXBXBXBXBXBXBX",
"BX6 ; u K L L 3.9.9.9.7.7.8.K V Z N N ~ B B W B S j.P.I.P.L.L.L.L.L.I.gXcXnXvXmXMXbXbXnXnXkXh X * a BXBXBXBXBXBXBXBXBXBX",
"BX  # k | 8.7.0.K | | { K } ~ M d Y Y Y g ~ O.| w.Y.(.!.!.^.^.(.~.hXhXjXcXnXmXvXnXnXlXaXeXeX] i 5 BXBXBXBXBXBXBXBXBXBXBX",
"BX- & > K 8.w.{ V M W M N M d W p p n y v w.J.U.T.R.T.T.T.K.!.gXjXcXcXcXnXzXnXvXmXnXeXe * i BXBXBXBXBXBXBXBXBXBXBXBXBXBX",
"BXBXBXBXv v z n M W d g N n n M U d W g n w.I.(.^.Q.Q.^.^./.(.~.G.,X$XaXbXnXmXnXmXnXeXr * * BXBXBXBXBXBXBXBXBXBXBXBXBXBX",
"BXBXBXBX8 % & 5 M d d W d p p p g m M g d w.L.W.(.!.!.^.^./.^.J...~ ! ,XbXnXzXlXlXkXeXi 7 i BXBXBXBXBXBXBXBXBXBXBXBXBXBX",
"BXBXBXBX7 2 2 5 p p M M U d g d g m p Y W w.L.R.!.!.!.^.^.^.(.F...Q ~ 1.cXmXlX1.T h [ BXBXBXBXBXBXBXBXBXBXBXBXBXBXBXBXBX",
"BXBXBXBXBXf Q g 5 q q M d Y R %.%.%.%./ *.x.U.R.Q.Q.Q.(.Q.).~.J.g.t.t.x.dXaXeX( = $ e BXBXBXBXBXBXBXBXBXBXBXBXBXBXBXBXBX",
"BXBXBXBXBXBXBXBX* # : t Y R *. X%X.X*X=X+XwXgX).!.Q.!.K.(.)./.^.E.U.U.c.) ( ( u = = 2 BXBXBXBXBXBXBXBXBXBXBXBXBXBXBXBXBX",
"BXBXBXBXBXBXBXBXX X X ^ '.].oX;X;XqXuXpXtXfXE.E.U.U.~.^.^./.^.(.T.W.).c.A Q Q G O % r BXBXBXBXBXBXBXBXBXBXBXBXBXBXBXBXBX",
"BXBXBXBXBXBXBXBX+ + < `.-X-X:X2X@XyXtXE.^.R.T.T.^.Q.Q.^.!.I.I.gXJ.L._.s.) Q A m w w R BXBXBXBXBXBXBXBXBXBXBXBXBXBXBXBXBX",
"BXBXBXBXBXBXBXBX+ + 1 `.8XqXuXfXfXfXW.(.).(.(.W././.(.gXpX2X2X1X:.+.K ) A A ! -.oX;X/ u - h BXBXBXBXBXBXBXBXBXBXBXBXBXBX",
"BXBXBXBXBXBXBXBX2 * i 1.yXrXfX~.).R.R.R.).fXtXrXdXtXrXpXiX2X1X|.*.( Q [ -.-.[.|.8X7X%.- . 5 Z BXBXBXBXBXBXBXBXBXBXBXBXBX",
"BXBXBXBXBXBXBXBX- ; x c.U.L.J.~.~.!.K.!.fXrX2X+X&X=X&X=X=X&X+X#X;.~ ~ &.+X&X.X.X;X*X=.6 2   * 3 ; * = = = BXBXBXBXBXBXBX",
"BXBXBXBXBXBXBXBXBXBX+.+.K I o.wXyXwXwXwXiX2X.X;X7X0X=X*XoX'.-.&.! A S &.>X-X%X.X-X-X].e 3 > F 2.3.3.4.3.2.v 5 e BXBXBXBX",
"BXBXBXBXBXBXBXBXBXBXBX- & X E  X3X7X0X=X0X&X&X5X%XXX.X#X-.^ ~ ~ _ ` ` -.=X0X*X@X@X@X-.s q b q.d.B.n.n.m.p.b * * e BXBXBX",
"BXBXBXBXBXBXBXBXBXBXBX* o X / >X=X&X&X6X6X6X6X5X%X*.[ ` { ! Q %.{.|.+X.X8X8X@X,Xc.g.p.i.i.s.f.n.B.B.n.n.p.b * 2 e BXBXBX",
"BXBXBXBXBXBXBXBXBXBXBXBX& u / / *.]. X9X9X.XoX}.[._ C Z ` -.-.}.%X&X:X&X8X4X@Xv.B.M.M.N.B.N.q.F L P L 2.0.b 7 BXBXBXBXBX",
"BXBXBXBXBXBXBXBXBXBXBXBXBXBXBX< . i '.+X+X}.%.C S ~ Q [ -.XX9X0X9X9X&X=X3X&X@X,Xg.d.d.d.d.q.D > = * % 8 % BXBXBXBXBXBXBX",
"BXBXBXBXBXBXBXBXBXBXBXBXBXBXBX* & 7 [ -.-.%.! A ) [.#X{.|.6X0X3X4X1X%X5X6X;X X` D c c c c b { BXBXBXBXBXBXBXBXBXBXBXBXBX",
"BXBXBXBXBXBXBXBXBXBXBXBXBXBXBX2 * ; Z A S A A A ` {.XX XXX.X X X&X9X=X6X3X0XoXi & $ 2 5 * t BXBXBXBXBXBXBXBXBXBXBXBXBXBX",
"BXBXBXBXBXBXBXBXBXBXBXBXBXBXBX* & = v A A A ! ! ! ( ( [ ` { [ ;.{.5X9X5X6XBXBXi X 5 g BXBXBXBXBXBXBXBXBXBXBXBXBXBXBXBXBX",
"BXBXBXBXBXBXBXBXBXBXBXBXBXBXZ _ A ) o.o.o.o.o.O.O.o.O.O.+.~ B [ -.{.}.-.-.=.;.r ; * 8 BXBXBXBXBXBXBXBXBXBXBXBXBXBXBXBXBX",
"BXBXBXBXBXBXBXBXBXBXBX6 - & J V.A.Z.Z.Z.A.Z.Z.Z.Z.A.Z.C.$._ J ! J ~ ) S J ( Z t 3 2 3 BXBXBXBXBXBXBXBXBXBXBXBXBXBXBXBXBX",
"BXBXBXBXBXBXBXBXBXBXBX7 ; ; H z.Z.Z.Z.Z.Z.Z.Z.Z.A.G.V.V.l.k.k.k.k.k.k.$.} ] _ a $   7 BXBXBXBXBXBXBXBXBXBXBXBXBXBXBXBXBX",
"BXBXBXBXBXBXBXBXBXBXBX6 * & H C.Z.Z.Z.Z.Z.Z.Z.Z.Z.G.V.A.C.z.Z.C.z.S.S.1.#.@.] Z t t T BXBXBXBXBXBXBXBXBXBXBXBXBXBXBXBXBX",
"BXBXBXBXBXBXBXBXBXBXBX7 * & H C.Z.Z.Z.Z.Z.Z.Z.Z.Z.A.C.C.z.#.X.,.<.<.X.#.@.@.,.] ' ' Q r 8 i BXBXBXBXBXBXBXBXBXBXBXBXBXBX",
"BXBXBXBXBXBXBXBXBXBXBX5 - & H C.Z.Z.Z.Z.Z.Z.Z.Z.V.$.+.+.` ! h ( ] #.' X.,.' ,.@.:.X.( -   5 BXBXBXBXBXBXBXBXBXBXBXBXBXBX",
"BXBXBXBXBXBXBXBXBXBXBX5 - & H C.Z.Z.Z.Z.Z.Z.A.C.k.v o & - 5 2 e ( ' X.X.,.' ,.@.&.X.( - & - BXBXBXBXBXBXBXBXBXBXBXBXBXBX",
"BXBXBXBXBXBXBXBXBXBXBX7 * & H C.Z.Z.Z.Z.Z.Z.A.A.z.v & - 6 BXBXBXf u i J @.&.,.,.#.@.( - & - BXBXBXBXBXBXBXBXBXBXBXBXBXBX",
"BXBXBXBXBXBXBXBXBXBXBXr - & H C.Z.A.Z.Z.Z.Z.A.A.k.z ; *   BXBXBX3 * X h ' @.,.,.&.@.[ h u u BXBXBXBXBXBXBXBXBXBXBXBXBXBX",
"BXBXBXBXBXBXBXBXBXBXBX2 & ; H C.A.S.A.V.A.G.V.A.l.m * 2 BXBXBXBXe = & a ] <.@.,.#.@.>.] @.( h r , BXBXBXBXBXBXBXBXBXBXBX",
"BXBXBXBXBXBXBXBXBXBXBX2 X ; ) C.V.V.A.S.V.$.} } +.m BXBXBXBXBXBXBXBXh ( h J Z #.@.' @.@.@.] u X * t BXBXBXBXBXBXBXBXBXBX",
"BXBXBXBXBXBXBXBXBXBXBXu : > K Z.G.D.D.D.V...: & . BXBXBXBXBXBXBXBXBXBXBX- X - _ o.#.#.#.#.o.u : q m BXBXBXBXBXBXBXBXBXBX",
"BXBXBXBXBXBXBXBXe : S l.D.F.F.P.I.J.I.~.I.9.> * , BXBXBXBXBXBXBXBXBXBXBX. # :  .y.g.g.i.s.r.r.r.0.| v 0 6 BXBXBXBXBXBXBX",
"BXBXBXBXBXBXBXBX* & k F.).(.^.^.).Q.^.).~.e.@ + 4 BXBXBXBXBXBXBXBXBXBXBX5 = x | e.b.5.m.n.n.M.m.h.0.@ ; * BXBXBXBXBXBXBX",
"BXBXBXBXBXBXBXBX, & k F.!.^.^.(.!.Q.).~.~.e.> $ , BXBXBXBXBXBXBXBXBXBXBXBXBXBXU 8 @ D g.d.m.n.n.B.7.> = * BXBXBXBXBXBXBX",
"BXBXBXBXBXBXBXBX, & k F.Q.^.(.(.!.P.i.7. .| BXBXBXBXBXBXBXBXBXBXBXBXBXBXBXBXBXi . O D s.a.p.M.M.d.0.> 3 8 BXBXBXBXBXBXBX",
"BXBXBXBXBXBXBXBX, X k F.K.^.^.(.).Y.l O = BXBXBXBXBXBXBXBXBXBXBXBXBXBXBXBXBXBXi 4 9 D e.i.5.M.M.a.3.k : - BXBXBXBXBXBXBX",
"BXBXBXBXBXBXBXBX. & k F.!.^.^.(.).Y.b = < BXBXBXBXBXBXBXBXBXBXBXBXBXBXBXBXBXBXBXBXBX} v x l 4.a.a.d.4.b.4.S 7 g BXBXBXBX",
"BXBXBXBXBXBXBXBX< & k H.Q.^.T.(.!.F.b   4 BXBXBXBXBXBXBXBXBXBXBXBXBXBXBXBXBXBXBXBXBXBX2 - @ 7.m.a.m.B.B.p.b   , a BXBXBX",
"BXBXBXBXBXBXBXBX< & k D.~.!.U.K.Q.Y.b o   BXBXBXBXBXBXBXBXBXBXBXBXBXBXBXBXBXBXBXBXBXBX< $ @ 3.h.a.p.a.a.p.b % = a BXBXBX",
"BXBXBXBXBXT J +...7.i.L.).).!.Q.^.F.b +   BXBXBXBXBXBXBXBXBXBXBXBXBXBXBXBXBXBXBXBXBXBX. $ G 0.f.m.N.d.a.5.c   . a BXBXBX",
"BXBXBXBX7 . @  .~.(.R.R.E.(.Q.L.I.D.S - , BXBXBXBXBXBXBXBXBXBXBXBXBXBXBXBXBXBXBXBXBXBX6 * x 0.e.s.d.f.B.n.D > : s BXBXBX",
"BXBXBXBX8 , @  .~./././.gXU.i.l c J BXBXBXBXBXBXBXBXBXBXBXBXBXBXBXBXBXBXBXBXBXBXBXBXBXBXBXBXZ x c I i.h.m.i.i.e.P b 9 t ",
"BXBXBXBX8 * ; { c.c.j.H.c.c.| ; & - BXBXBXBXBXBXBXBXBXBXBXBXBXBXBXBXBXBXBXBXBXBXBXBXBXBXBXBX. & @ c | q.q.q.q.q.F G % # ",
"BXBXBXBX4 * & t N d N B M N a & X - BXBXBXBXBXBXBXBXBXBXBXBXBXBXBXBXBXBXBXBXBXBXBXBXBXBXBXBX* * $ 3 V V V W W B V % $   ",
"BXBXBXBX5 * $ 9 d d W W M p q # * - BXBXBXBXBXBXBXBXBXBXBXBXBXBXBXBXBXBXBXBXBXBXBXBXBXBXBXBX4 2 % 8 W Y Y Y Y U p % % 2 ",
"BXBXBXBX4 * 3 0 p p p d d d 0 3 & 4 BXBXBXBXBXBXBXBXBXBXBXBXBXBXBXBXBXBXBXBXBXBXBXBXBXBXBXBX5 ; # = N U U Y U N t # * * "
};
