/* XPM */
static char *result[] = {
/* columns rows colors chars-per-pixel */
"60 60 234 2 ",
"   c #1E0E17",
".  c #1E131C",
"X  c #1D1619",
"o  c #220E1A",
"O  c #250E16",
"+  c #231316",
"@  c #2C1415",
"#  c #23141C",
"$  c #2A141D",
"%  c #241A1D",
"&  c #2B1A1B",
"*  c #2A1A13",
"=  c #351C1A",
"-  c #381915",
";  c #2E0F0E",
":  c #33211D",
">  c #39221E",
",  c #1C1522",
"<  c #1D1928",
"1  c #121A2D",
"2  c #241522",
"3  c #251A24",
"4  c #2A1C25",
"5  c #241C29",
"6  c #2C1D29",
"7  c #2B1625",
"8  c #311C24",
"9  c #331C2C",
"0  c #3B1E38",
"q  c #271729",
"w  c #2C222C",
"e  c #292229",
"r  c #332226",
"t  c #32242B",
"y  c #3B262D",
"u  c #3A2729",
"i  c #2A2534",
"p  c #3C2435",
"a  c #342B34",
"s  c #3B2B33",
"d  c #3D253B",
"f  c #3B2C39",
"g  c #352635",
"h  c #393338",
"j  c #44221B",
"k  c #552A1C",
"l  c #4C2C26",
"z  c #4C2D2B",
"x  c #442726",
"c  c #4C312B",
"v  c #583429",
"b  c #442B34",
"n  c #44283A",
"m  c #4E3A3C",
"M  c #493739",
"N  c #533C3B",
"B  c #5B3C3C",
"V  c #573637",
"C  c #552F2D",
"Z  c #683C35",
"A  c #6C3A28",
"S  c #5B271C",
"D  c #68453C",
"F  c #774B3B",
"G  c #724B39",
"H  c #59443B",
"J  c #262A4A",
"K  c #3C2541",
"L  c #373348",
"P  c #323856",
"I  c #333E6F",
"U  c #412442",
"Y  c #4C3B44",
"T  c #493946",
"R  c #523C41",
"E  c #573A46",
"W  c #483D56",
"Q  c #683F41",
"!  c #374468",
"~  c #49454C",
"^  c #544445",
"/  c #5D4545",
"(  c #56484A",
")  c #494555",
"_  c #544754",
"`  c #5D5D5D",
"'  c #585457",
"]  c #58504E",
"[  c #684945",
"{  c #734D43",
"}  c #754D49",
"|  c #7C5343",
" . c #7A5647",
".. c #6F4E52",
"X. c #625C5C",
"o. c #6A5755",
"O. c #765A5A",
"+. c #5D615F",
"@. c #64625E",
"#. c #7B675E",
"$. c #7C6857",
"%. c #5C5964",
"&. c #565679",
"*. c #4D4F6B",
"=. c #645D64",
"-. c #5E6261",
";. c #5F646C",
":. c #636262",
">. c #66646A",
",. c #686B75",
"<. c #796C6D",
"1. c #874D3C",
"2. c #89543C",
"3. c #95573B",
"4. c #A8663F",
"5. c #CA6E3E",
"6. c #824B43",
"7. c #845544",
"8. c #845A44",
"9. c #8A5B44",
"0. c #865B49",
"q. c #8A5B4A",
"w. c #885447",
"e. c #995A47",
"r. c #855A52",
"t. c #8B624B",
"y. c #9B654B",
"u. c #846C5A",
"i. c #9B6D55",
"p. c #956A59",
"a. c #9A715F",
"s. c #AB6849",
"d. c #BD6E4D",
"f. c #B56948",
"g. c #BD7346",
"h. c #B87549",
"j. c #A46C54",
"k. c #B86E52",
"l. c #A97657",
"z. c #B87657",
"x. c #835D61",
"c. c #8A776A",
"v. c #927D6D",
"b. c #8B7C72",
"n. c #8E716C",
"m. c #A97566",
"M. c #A05B49",
"N. c #C36E4B",
"B. c #C66D46",
"V. c #C3724B",
"C. c #C26E51",
"Z. c #C36E5B",
"A. c #C47252",
"S. c #BC845F",
"D. c #9A8574",
"F. c #9D8878",
"G. c #98816D",
"H. c #B7866B",
"J. c #A28A75",
"K. c #BF9070",
"L. c #ED9D5E",
"P. c #C88F6C",
"I. c #C9926C",
"U. c #DC9D6C",
"Y. c #D49768",
"T. c #C99573",
"R. c #D59D74",
"E. c #DA9E73",
"W. c #D79D7A",
"Q. c #E39E6D",
"!. c #EB9D67",
"~. c #E59D73",
"^. c #DEA16E",
"/. c #DDA167",
"(. c #DDA274",
"). c #DCA27A",
"_. c #DBA677",
"`. c #E4A26D",
"'. c #EAA36C",
"]. c #E3A272",
"[. c #E9A473",
"{. c #E3A479",
"}. c #E2A97A",
"|. c #4C5886",
" X c #535A89",
".X c #56628B",
"XX c #59689A",
"oX c #4B6194",
"OX c #6E718A",
"+X c #5A6DA7",
"@X c #5872AA",
"#X c #5676B9",
"$X c #4E6AAA",
"%X c #687AB7",
"&X c #6A76A1",
"*X c #5C7CC3",
"=X c #5A7ECB",
"-X c #577BCA",
";X c #587ED5",
":X c #6279C7",
">X c #8C7E88",
",X c #7D808A",
"<X c #7980AF",
"1X c #5581CE",
"2X c #5A81C8",
"3X c #5582D1",
"4X c #5683D6",
"5X c #4C85D1",
"6X c #6283CF",
"7X c #868B97",
"8X c #8C939A",
"9X c #91858E",
"0X c #8B97A3",
"qX c #9194A0",
"wX c #9BAAB5",
"eX c #9AAAB7",
"rX c #A4909F",
"tX c #C8A187",
"yX c #B1B9C6",
"uX c #ABBCC8",
"iX c #B3C9D4",
"pX c #B0C9D4",
"aX c #BCD9E9",
"sX c #C5D0DB",
"dX c #CADCE8",
"fX c #C7E3ED",
"gX c #C6E5F3",
"hX c #CBE6F4",
"jX c #C5ECF5",
"kX c #CCE9F5",
"lX c #CCE9F9",
"zX c #D1EAF4",
"xX c #D0E4EF",
"cX c None",
/* pixels */
"cXcXcXcXcXcXcXcXcXcXcXcXcXcXcXcXcXcXcXcXcXcXcXcXcXcXcXcXcXcXcXcXcXcXcXcXcXcXcXcXcXcXcXcXcXcXcXcXcXcXcXcXcXcXcXcXcXcXcXcX",
"cXcXcXcXcXcXcXcXcXcXcXcXcXcXcXcXcXL 5 3 2 3 3 3 3 7 w cXcXcXcXcXcXcXcXcXcXcXcXcXcXcXcXcXcXcXcXcXcXcXcXcXcXcXcXcXcXcXcXcX",
"cXcXcXcXcXcXcXcXcXcXcXcXcXcXw 6 a cXcXcXcXcXcXwXeXeX0Xf w w cXcXcXcXcXcXcXcXcXcXcXcXcXcXcXcXcXcXcXcXcXcXcXcXcXcXcXcXcXcX",
"cXcXcXcXcXcXcXcXcXcXcXcXcXcX3 2 < cXcXcXcXcXkXkXlXlXuXh   2 cXcXcXcXcXcXcXcXcXcXcXcXcXcXcXcXcXcXcXcXcXcXcXcXcXcXcXcXcXcX",
"cXcXcXcXcXcXcXcXcXcXcXcXcXcX6 2 i ;.8XwXiXkXgXgXgXgXpX%.~ ) ] cXcXcXcXcXcXcXcXcXcXcXcXcXcXcXcXcXcXcXcXcXcXcXcXcXcXcXcXcX",
"cXcXcXcXcXcXcXcXcXcXcXcXcXcXcXcXcXe e i 7XxXkXjXgXkXfXaXaXsX%.# 3 cXcXcXcXcXcXcXcXcXcXcXcXcXcXcXcXcXcXcXcXcXcXcXcXcXcXcX",
"cXcXcXcXcXcXcXcXcXcXcXcXcXcXcXcXcX, # 3 7XxXjXjXjXfXfXjXkXsX%.o o cXcXcXcXcXcXcXcXcXcXcXcXcXcXcXcXcXcXcXcXcXcXcXcXcXcXcX",
"cXcXcXcXcXcXcXcXcXcXcXcXcXcXcXcXcXcXf T ,.7X7XwXfXfXfXxXkXaX0X,.,.>.cXcXcXcXcXcXcXcXcXcXcXcXcXcXcXcXcXcXcXcXcXcXcXcXcXcX",
"cXcXcXcXcXcXcXcXcXcXcXcXcXcXcXcXcXcXcXcXt 2 3 =.sXgXjXkXfXkXjXfXxX9X,   , cXcXcXcXcXcXcXcXcXcXcXcXcXcXcXcXcXcXcXcXcXcXcX",
"cXcXcXcXcXcXcXcXcXcXcXcXcXcXcXcXcXcXcXcXcX# 2 >.sXxXjXkXfXkXgXkXdX,Xe . 5 cXcXcXcXcXcXcXcXcXcXcXcXcXcXcXcXcXcXcXcXcXcXcX",
"cXcXcXcXcXcXcXcXcXcXcXcXcXcXcXcXcXcXcXcXcXcXcX>.>.>.OXiXlXhXlXkXxXyX0XqXOX~ a cXcXcXcXcXcXcXcXcXcXcXcXcXcXcXcXcXcXcXcXcX",
"cXcXcXcXcXcXcXcXcXcXcXcXcXcXcXcXcXcXcXcXcXcXcXcX3   T pXlXhXlXlXlXlXkXzXwXs , q cXcXcXcXcXcXcXcXcXcXcXcXcXcXcXcXcXcXcXcX",
"cXcXcXcXcXcXcXcXcXcXcXcXcXcXcXcXcXcXcXcXcXcXcXcXe   T pXlXgXgXjXlXhXkXkXwXi $ # cXcXcXcXcXcXcXcXcXcXcXcXcXcXcXcXcXcXcXcX",
"cXcXcXcXcXcXcXcXcXcXcXcXcXcXcXcXcXi 3 3 3 4 t 6 $   T pXgXlXhXlXgXhXkXhXwXw   + cXcXcXcXcXcXcXcXcXcXcXcXcXcXcXcXcXcXcXcX",
"cXcXcXcXcXcXcXcXcXcXcXcXcXcXcXs M s y s y y y s b y T OX7X8X8X8X8XuXxXzXwXe + # cXcXcXcXcXcXcXcXcXcXcXcXcXcXcXcXcXcXcXcX",
"cXcXcXcXcXcXcXcXcXcXcXcXcXcXw 4 9 M m R R m m R / [ / [ } [ G { o.b.yXyX,.u : u cXcXcXcXcXcXcXcXcXcXcXcXcXcXcXcXcXcXcXcX",
"cXcXcXcXcXcXcXcXcXcXcX3 # 6 M N M H N ^ R V B [  .w.y.P.Y.Y.Y./.T.a.[ [ [  .8.G x @ 7 cXcXcXcXcXcXcXcXcXcXcXcXcXcXcXcXcX",
"cXcXcXcXcX3 & e 3 e 3 X + = [  .{ F | 7.| |  .| 7.9.y.Y.{.[.`.(._.S.F F | 8.2.q.G D / N a a cXcXcXcXcXcXcXcXcXcXcXcXcXcX",
"cXcXcX( N z l z c l l l l v 7.8.9.9.w.9.q.q.q.y.j.l.S.Y.^./.P.S.H.j.9.9.8.q.q.9.3.t. .l $ 2 cXcXcXcXcXcXcXcXcXcXcXcXcXcX",
"cX2 + > [ r.0.7.8.q.q.0.q.q.w.{ 7.7.F w.r.} | l.R.].`.`.(.I.S.y.y.e.7.8.9.t.w.2.2.9. .l + . 4 cXcXcXcXcXcXcXcXcXcXcXcXcX",
"cX% O - { 0.8.0.9.9.2.t.q.} V z n n n n E U z 8.T.(.{.].^._.R.Y.Y.l.q.0.8.t.8.8.t.q.0.z + # cXcXcXcXcXcXcXcXcXcXcXcXcXcX",
"cXcXcXN M c z V B B B B E R n 0 f U d n ..a.a.z.E.(.`.`./.(./.`.].y.v c C c l c v z M R cXcXcXcXcXcXcXcXcXcXcXcXcXcXcXcX",
"cXcXcXcXq 2 o 9 d n d d n d 0 d n s d b p.).[.~.~.[.^.`.U.(.^.].W.7.O # # & % + # # 6 cXcXcXcXcXcXcXcXcXcXcXcXcXcXcXcXcX",
"cXcXcXcXw 3 9 9 d U 0 b y p K U K n b C p.).~.Q.[.[.].].(.{.^.].).8.@ 3 5 cXcXcXcXcXcXcXcXcXcXcXcXcXcXcXcXcXcXcXcXcXcXcX",
"cXcXcXcXcXcXcXs 7 7 9 p d K U 0 V a.H.H.R.{.Q.Q.{.Q.].].Q.{.E.`.(.8.= % 5 cXcXcXcXcXcXcXcXcXcXcXcXcXcXcXcXcXcXcXcXcXcXcX",
"cXcXcXcXcXcXcXg # + 8 0 0 E O.q.y.I.{.~.Q.`.Q.].{.(.(.].(.{.^.`.(.t.u s s T cXcXcXcXcXcXcXcXcXcXcXcXcXcXcXcXcXcXcXcXcXcX",
"cXcXcXcXcXcXcXg 7 O u m V w.T._.Q.Q.!.Q.E.E.).).(.E.].~.~.{.].].{.i.m T b 7   3 cXcXcXcXcXcXm y u x x x x cXcXcXcXcXcXcX",
"cXcXcXcXcXcXcX6 % + D P.Y.Y.W.E.].Q.'.W.cXcXcXcXtX[.Q.`.(.(.(.U.(.i.V T M $   5 cXcXcXt * = A j.f.f.4.f.e.z 2 3 cXcXcXcX",
"cXcXcXcXcXcXcX4 # , [ !.'._.).!.~.cXcXcXcXcXcXcXcXrXqX0X0X7X<.x.r.{ N T W W cXcXJ q x { w.1.e.k.h.h.g.A.f.x o 2 cXcXcXcX",
"cXcXcXcXcXcXcX6 # . m T.T.cXtXR.cXcXcXcXcXcXcXcXcXcXcX;X-X@X*.W C ^ %.*.|.cXcX&XW v A M.A.V.V.N.A.f.3.3.w.V t cXcXcXcXcX",
"cXcXcXcXcXcXcXcX< < P .XcXcXcXcXcXcXcXcXcXcX2X1X3X3X;X-X*X+X*.Y T  X:X;X=X#X2X%Xm.f.5.f.N.B.f.s.j.w.x & 3 cXcXcXcXcXcXcX",
"cXcXcXcXcXcXcXcXcXcX) a i J cXcXcXcXcXcX-X=X3X3X3X1X@X' ( ~ ^ N E  X*X4X5X2X;X:Xm.B.B.k.z.k.1.k x m cXcXcXcXcXcXcXcXcXcX",
"cXcXcXcXcXcXcXcXcXcXcXcXcX) P L I $X-X-X3X4X2X#XoX&.*.E V E &.XXXX#X*X2X2XD.9Xn.Q A D A Z D Z b cXcXcXcXcXcXcXcXcXcXcXcX",
"cXcXcXcXcXcXcXcXcXcXcXcXcXcX&   1 |.=X-X#X@XXX&._ m R _ *.*.XX*X;X4X1X*X&Xt.2.w.Q 6 1 $ ; & cXcXcXcXcXcXcXcXcXcXcXcXcXcX",
"cXcXcXcXcXcXcXcXcXcXcXcXcXcX3 , i |.%X+X|.) W N M N _ %X:X*X-X=X3X3X2X2XoXe * : cXcXcXcXcXcXcXcXcXcXcXcXcXcXcXcXcXcXcXcX",
"cXcXcXcXcXcXcXcXcXcXcXcXcXcXcXcXcXL J L L m V N N m *.#X1X;X=X=X=X=X1X:XoX1 X * cXcXcXcXcXcXcXcXcXcXcXcXcXcXcXcXcXcXcXcX",
"cXcXcXcXcXcXcXcXcXcXcXcXcXcXcXcXcXX . $ x M N m m R W |..X.X.X.XXX@X*X6X+XI P ! ) cXcXcXcXcXcXcXcXcXcXcXcXcXcXcXcXcXcXcX",
"cXcXcXcXcXcXcXcXcXcXcXcXcXcXcXcXcXr 8 y M ^ / ( / / / / / [ B m ) |.+X#X*X*X@X.XJ 2 7 cXcXcXcXcXcXcXcXcXcXcXcXcXcXcXcXcX",
"cXcXcXcXcXcXcXcXcXcXcXcXcXcX4 % r @.c.c.v.G.G.b.v.v.v.v.v.c.o.N R ( _ _ E _ _ T 7 $ % cXcXcXcXcXcXcXcXcXcXcXcXcXcXcXcXcX",
"cXcXcXcXcXcXcXcXcXcXcXcXcXcX5 + : #.D.D.D.D.D.D.D.D.D.J.G.G.c.#.u.#.u.#.O.] ] ~ 8 O 2 cXcXcXcXcXcXcXcXcXcXcXcXcXcXcXcXcX",
"cXcXcXcXcXcXcXcXcXcXcXcXcXcX5 + : #.D.D.D.D.D.D.D.D.D.D.v.D.v.b.G.G.b.b.<.@.+.' M g f ~ cXcXcXcXcXcXcXcXcXcXcXcXcXcXcXcX",
"cXcXcXcXcXcXcXcXcXcXcXcXcXcX4 + : #.D.D.D.D.D.D.G.D.D.G.b.b.#.@.%.%.-.@.@.@.+.+.` =.' a , 3 f cXcXcXcXcXcXcXcXcXcXcXcXcX",
"cXcXcXcXcXcXcXcXcXcXcXcXcXcX3 + : #.F.D.D.D.D.D.D.D.c.c u M ( @.-.-.+.-.@.@.-.-.` :.X.s + # w cXcXcXcXcXcXcXcXcXcXcXcXcX",
"cXcXcXcXcXcXcXcXcXcXcXcXcXcX5 + e #.D.D.D.D.D.D.F.D.c.r   # s h h ~ +.:.:.@.+.-.` :.X.s + % w cXcXcXcXcXcXcXcXcXcXcXcXcX",
"cXcXcXcXcXcXcXcXcXcXcXcXcXcX5 + : #.D.D.G.F.J.c.$.u.$.a 3 3 #   e ~ ] ] ' %.:.:.` X.` M t t h cXcXcXcXcXcXcXcXcXcXcXcXcX",
"cXcXcXcXcXcXcXcXcXcXcXcXcXcX> * : #.F.F.J.J.J.$.> & r cXcXcXcXcXcXcXe % a ' :.@.` X.@.X.o.o.T e , w cXcXcXcXcXcXcXcXcXcX",
"cXcXcXcXcXcXcXcXcXcXcXw 9 B a.z.S.K.T.T.T.T.T.u.- + 2 cXcXcXcXcXcXcX5 O z p.m.j.j.j.j.j.y.p./ & . % cXcXcXcXcXcXcXcXcXcX",
"cXcXcXcXcXcXcXcXcXcXcX, + v P.{.'.`.].[.'.'.(.j.- + 3 cXcXcXcXcXcXcXcXp Z | F 2.k.V.A.V.B.h.F - $ 4 cXcXcXcXcXcXcXcXcXcX",
"cXcXcXcXcXcXcXcXcXcXcX. $ v T.~.Q.U.^.(.Y.P.P.y.- + cXcXcXcXcXcXcXcXcXcXcXX ; j y.z.Z.C.N.d.2.> = t cXcXcXcXcXcXcXcXcXcX",
"cXcXcXcXcXcXcXcXcXcXcX, + v T.Q.].].^.R.t.x y s cXcXcXcXcXcXcXcXcXcXcXcXcX2 O j e.k.A.C.Z.d.s.4.f.w.= % 2 cXcXcXcXcXcXcX",
"cXcXcXcXcXcXcXcXcXcXcX,   v P./.'.].'.^.{ @ # cXcXcXcXcXcXcXcXcXcXcXcXcXcXcXcXcXZ A A M.Z.C.h.g.C.e.= # # cXcXcXcXcXcXcX",
"cXcXcXcXcXcXcXcXcXcXcX, + v I./.`.].'.R.| @ % 5 cXcXcXcXcXcXcXcXcXcXcXcXcXcXcXcX7 ; - 1.k.C.h.g.A.e.= % 2 cXcXcXcXcXcXcX",
"cXcXcXcXcXcXcXcXcXcXcXw @ B T.'.`.^.^.).F @ % 7 cXcXcXcXcXcXcXcXcXcXcXcXcXcXcXcX< 7 - 1.z.d.g.g.k.e.j * = cXcXcXcXcXcXcX",
"cXcXcXcXcXcXcXcXw t { l.z.H.R.!.L.{._.R.| @ 2 cXcXcXcXcXcXcXcXcXcXcXcXcXcXcXcXcX< # ; 6.z.d.B.5.N.k.e.e.3.z 3 6 cXcXcXcX",
"cXcXcXcXcXcXcXi % * G Y.}._.(.'.U.i.8.t...b cXcXcXcXcXcXcXcXcXcXcXcXcXcXcXcXcXcXcXcXV D { F 3.V.B.A.C.A.f.l # . cXcXcXcX",
"cXcXcXcXcXcXcXi < X } ).^._.}.`.I.C O * cXcXcXcXcXcXcXcXcXcXcXcXcXcXcXcXcXcXcXcXcXcXcXr # @ v h.N.C.C.N.4.l # # cXcXcXcX",
"cXcXcXcXcXcXcXw % @ { R.`././.].T.v @ $ cXcXcXcXcXcXcXcXcXcXcXcXcXcXcXcXcXcXcXcXcXcXcX5 . * A s.d.N.N.d.s.l 2 5 cXcXcXcX",
"cXcXcXcXcXcXcXcX# $ b ..} } } ....8 + # cXcXcXcXcXcXcXcXcXcXcXcXcXcXcXcXcXcXcXcXcXcXcXcXcXcXH V v Z Q Q B f 9 9 t g i cX",
"cXcXcXcXcXcXcXcX# o 8 d 0 U U 0 p $ + # cXcXcXcXcXcXcXcXcXcXcXcXcXcXcXcXcXcXcXcXcXcXcXcXcXcXcX+ O 9 0 g f d d d 9 o # 7 ",
"cXcXcXcXcXcXcXcX# $ 9 p p d d p p 8 # # cXcXcXcXcXcXcXcXcXcXcXcXcXcXcXcXcXcXcXcXcXcXcXcXcXcXcX%   7 K 0 p d K d 9 $ % w "
};
