/* XPM */
static char *result[] = {
/* columns rows colors chars-per-pixel */
"60 60 224 2 ",
"   c #1A0E19",
".  c #1D121B",
"X  c #19121B",
"o  c #230F16",
"O  c #241216",
"+  c #23141C",
"@  c #2B141C",
"#  c #241A1E",
"$  c #2C1B1D",
"%  c #2A1615",
"&  c #321D1D",
"*  c #3B1D19",
"=  c #25120D",
"-  c #38211D",
";  c #1E1825",
":  c #2B1523",
">  c #241A24",
",  c #2B1B24",
"<  c #251C29",
"1  c #2B1D2B",
"2  c #241722",
"3  c #321A25",
"4  c #301F32",
"5  c #2C232B",
"6  c #29242B",
"7  c #342122",
"8  c #3C2223",
"9  c #34232D",
"0  c #39272D",
"q  c #2B2435",
"w  c #352332",
"e  c #3B2434",
"r  c #352933",
"t  c #3A2A33",
"y  c #3C253B",
"u  c #382A3C",
"i  c #3C3138",
"p  c #48261B",
"a  c #492926",
"s  c #542B23",
"d  c #542B27",
"f  c #4E3129",
"g  c #45322F",
"h  c #59352D",
"j  c #412634",
"k  c #44243B",
"l  c #4A2D3B",
"z  c #432B36",
"x  c #4B3439",
"c  c #47363A",
"v  c #533B3D",
"b  c #573938",
"n  c #6C3D32",
"m  c #663824",
"M  c #5D443D",
"N  c #66412F",
"B  c #6F493D",
"V  c #674339",
"C  c #7A4D3D",
"Z  c #73493B",
"A  c #78513D",
"S  c #3A2643",
"D  c #3B3743",
"F  c #4A2D41",
"G  c #473A45",
"H  c #553A42",
"J  c #583742",
"K  c #543A54",
"L  c #4D3F55",
"P  c #613E42",
"I  c #4C4346",
"U  c #48454C",
"Y  c #5A4A4B",
"T  c #4A4956",
"R  c #564B55",
"E  c #4D515B",
"W  c #5A575A",
"Q  c #6C4B44",
"!  c #654745",
"~  c #724B42",
"^  c #744B46",
"/  c #755044",
"(  c #7C5445",
")  c #7B544A",
"_  c #785649",
"`  c #665C5A",
"'  c #765954",
"]  c #6F504B",
"[  c #74675C",
"{  c #636354",
"}  c #534965",
"|  c #5D5C64",
" . c #535464",
".. c #594D72",
"X. c #4D5B79",
"o. c #4D5072",
"O. c #6E5F69",
"+. c #556160",
"@. c #616061",
"#. c #6A6566",
"$. c #686775",
"%. c #7A6566",
"&. c #8B563F",
"*. c #865A45",
"=. c #8A5A45",
"-. c #855C4A",
";. c #8B5B49",
":. c #845545",
">. c #935C46",
",. c #895C57",
"<. c #8D5248",
"1. c #A55F47",
"2. c #96654B",
"3. c #816A5E",
"4. c #896256",
"5. c #966955",
"6. c #88614A",
"7. c #AA6446",
"8. c #BE714E",
"9. c #AD6C53",
"0. c #B36D53",
"q. c #A47458",
"w. c #B56F50",
"e. c #856D62",
"r. c #927D6D",
"t. c #946F61",
"y. c #A47964",
"u. c #C56E49",
"i. c #C2714C",
"p. c #C37453",
"a. c #9B846D",
"s. c #9A846A",
"d. c #968472",
"f. c #9C8773",
"g. c #9A8875",
"h. c #A8866C",
"j. c #B98967",
"k. c #A48977",
"l. c #B79374",
"z. c #C6845E",
"x. c #C8946B",
"c. c #DC9C6D",
"v. c #D79D6A",
"b. c #CA9976",
"n. c #DD9C73",
"m. c #D69B76",
"M. c #C68E6B",
"N. c #E39E6C",
"B. c #E49E74",
"V. c #E79D75",
"C. c #DEA267",
"Z. c #DAA26D",
"A. c #DDA372",
"S. c #D8A278",
"D. c #E3A36C",
"F. c #E8A467",
"G. c #E3A273",
"H. c #E3A279",
"J. c #E4A776",
"K. c #454F83",
"L. c #4D5B8A",
"P. c #575C93",
"I. c #4B5D92",
"U. c #635C81",
"Y. c #51638F",
"T. c #596597",
"R. c #526995",
"E. c #72768B",
"W. c #5868A4",
"Q. c #5778B7",
"!. c #4D71B1",
"~. c #6072B4",
"^. c #535AA9",
"/. c #5A7EC6",
"(. c #537DCD",
"). c #577DC6",
"_. c #5A7ED2",
"`. c #567ED5",
"'. c #4F7DC8",
"]. c #637DCC",
"[. c #657ED7",
"{. c #8E7588",
"}. c #79818D",
"|. c #5882BF",
" X c #7786BB",
".X c #7E81AD",
"XX c #4D83CB",
"oX c #5482CC",
"OX c #5B82CC",
"+X c #5981C6",
"@X c #5483D2",
"#X c #5A85D7",
"$X c #4E87D5",
"%X c #6682C5",
"&X c #82848B",
"*X c #858D98",
"=X c #929796",
"-X c #B79889",
";X c #A2989A",
":X c #8D90A6",
">X c #96A6AE",
",X c #A4B2B9",
"<X c #DA9E83",
"1X c #DDA483",
"2X c #A9B9C4",
"3X c #B1BFCE",
"4X c #BBCBD9",
"5X c #B4C3CC",
"6X c #BCD7E4",
"7X c #C4D5E3",
"8X c #C3DBE5",
"9X c #C9DDEA",
"0X c #C6E2ED",
"qX c #CBE2EF",
"wX c #C6E5F3",
"eX c #CAE6F4",
"rX c #C6E9F4",
"tX c #CBE9F5",
"yX c #CBE9F9",
"uX c #C9E8F8",
"iX c #D1E4F3",
"pX c #D2EAF4",
"aX c #D2EAF4",
"sX c None",
/* pixels */
"sXsXsXsXsXsXsXsXsXsXsXsXsXsXsXsXsXsXsXsXsXsXsXsXsXsXsXsXsXsXsXsXsXsXsXsXsXsXsXsXsXsXsXsXsXsXsXsXsXsXsXsXsXsXsXsXsXsXsXsX",
"sXsXsXsXsXsXsXsXsXsXsXsXsX, + # # + + + + + + @ % + @ + + + @ sXsXsXsXsXsXsXsXsXsXsXsXsXsXsXsXsXsXsXsXsXsXsXsXsXsXsXsXsX",
"sXsXsXsXsXsXsXsXsXsXsXsXsXt 0 9 9 9 9 w 9 8 g h d f f f f f f sXsXsXsXsXsXsXsXsXsXsXsXsXsXsXsXsXsXsXsXsXsXsXsXsXsXsXsXsX",
"sXsXsXsXsXsXsXsXsXsXsX5 . z v v v H J v v M ^ -.=.*.:.-.*.-.A , > sXsXsXsXsXsXsXsXsXsXsXsXsXsXsXsXsXsXsXsXsXsXsXsXsXsXsX",
"sXsXsXsXsXsXsXsXsXsXr r j x v ! Q ~ ~ Q B A :.=.=.=.=.=.=.=.C & # sXsXsXsXsXsXsXsXsXsXsXsXsXsXsXsXsXsXsXsXsXsXsXsXsXsXsX",
"sXsXsXsXsXsXsXsXsX; > x H v b ~ :.;.=.;.*.*.=.=.=.=.=.>.=.>.C & # sXsXsXsXsXsXsXsXsXsXsXsXsXsXsXsXsXsXsXsXsXsXsXsXsXsXsX",
"sXsXsXsXsXsXsXsXsX+ @ V ^ ] ^ ( ;.;.;.;.;.:.*.*.&.*.=.&.&.;.C 3 + sXsXsXsXsXsXsXsXsXsXsXsXsXsXsXsXsXsXsXsXsXsXsXsXsXsXsX",
"sXsXsXsXsXsXsXsXsX& * Z 6.*.&.=.=.=.-.:.;.;.*.=.=.*.=.&.=.=.Z , 1 sXsXsXsXsXsXsXsXsXsXsXsXsXsXsXsXsXsXsXsXsXsXsXsXsXsXsX",
"sXsXsXsXsXsXsX> g V B &.<.=.=.:.*.*.=.=.:.;.:.=.;.=.=.;.Z a - sXsXsXsXsXsXsXsXsXsXeXsXsXsXsXsXsXsXsXsXsXsXsXsXsXsXsXsXsX",
"sXsXsXsXsXsXI & a ( 6.( ) ) ,.) / &.2.&.&.2.>.2.=.( ( ~ b 7 . sXsXsXsXsXsXsXsXsXiXyXtXeXsXsXsXsXsXsXsXsXsXsXsXsXsXsXsXsX",
"sXsXsXsXsX$ x Q A -.( b l l F l j C M.m.x.m.m.M.Z * * & g sXsXsXsXsXsXsXsXsXsXsXiXyXtXtXwXwXtXsXsXsXsXsXsXsXsXsXsXsXsXsX",
"sXsXsXsXg * b ^ ~ ( Q x y y y G ! >.c.H.D.G.H.A.Z o + w sXsXsXsXsXsXsXsXsXsXsXsXsX8XeXeXeXeXeXeXsXsXsXsXsXsXsXsXsXsXsXsX",
"sXsXsX> b ( V l z l l y k S j ,.M.m.H.H.C.A.B.A.B O r sXsXsXsXsXsXsXsXsXsXsXsXsXsXsX0XeXeXeXeXeXeXiXsXsXsXsXsXsXsXsXsXsX",
"sXsX> . h ;.Q k y y y y k S e >.S.G.G.B.C.G.B.A.B + 9 sXsXsXsXsXsXsXsXsXsXsXsXsXsXsXwXeXeXeXeXeXtXpXeXsXsXsXsXsXsXsXsXsX",
"sXsX< O n -.Q j y y y S y u e 5.n.c.D.B.C.G.B.A.B + r sXsXsXsXsXsXsXsXsXsXsXsXsXsXsXiXwXeXeXeXeXeXwXuXeXsXsXsXsXsXsXsXsX",
"sXsXsX, f V J e e y y y e u y ,.n.D.A.B.C.G.B.c.B @ w sXsXsXsXsXsXsXsXsXsXsXsXsXsXsXsXsXeXeXeXeXeXuXeXeXiXsXsXsXsXsXsXsX",
"sXsXsXsXw : , e y y y y y u k ,.S.F.H.B.C.G.H.v.Z o w sXsXsXsXsXsXsXsXsXsXsXsXsXsXsXsXsXqXeXtXeXeXeXeXeXeXeXeXsXsXsXsXsX",
"sXsXsXD y 3 9 k y y y y y u j 2.H.D.H.H.C.A.H.A.) 9 i G sXsXsXsXsXsXsXsXsXsXsXsXsXsXsXsXsXeXtXtXyXeXeXeXeXeXeXsXsXsXsXsX",
"sXsX< . 3 e y e y y y y y S z 4.<Xn.H.B.C.G.B.A.,.v r + > sXsXsXsXsXsXsXsXsXsXsXsXsXsXsXsXeXtXeXeXeXeXeXeXeXeXsXsXsXsXsX",
"sXsX# + 4 u S y y y y y y o.Y.W.:X-XA.G.C.B.B.n.4.v 0 # , sXsXsXsXsXsXsXsXsXsXsXsXsXsXsXsXeXeXeXyXeXeXeXeXeXqXsXsXsXsXsX",
"sXsX6 > w u y w y y e F S W.@X$X/.:Xm.A.Z.S.n.c.,.J t > q sXsXsXsXsXsXsXsXsXsXsXsXsXsXsXsXtXeXwXeXeXeXeXeXeXwX4XsXsXsXsX",
"sXsXsXsXc 1 , : : : q K.R.Q.XX$X(.].].:X X.X%.) ! H W P.L.i $ sXsXsXsXsXsXsXsXsXsXsXsXsXsXeXtXqXeXeXeXeXeXeXeX9X9XsXsXsX",
"sXsXsXsXsX. + > + o < I.$X@XOX@X(.(.(.(.@XQ.T v I T Y.#X^.> = sXsXsXsXsXsXsXsXsXsXsXsXsX9XeXtXeXeXyXeXeXeXeXeXeXeX7XsXsX",
"sXsXsXsXsXsXsXsXsX: 1 I.OX(.(.(./././.@X@XQ.} K P.~.Q.OXI.> + sXsXsXsXsXsXsXsXsXsXsXsXsXqXtXrXeXeXeXeXeXeXeXeXtXeX7XsXsX",
"sXsXsXsXsXsXsXsXsX# q T. X X%X%XXX(.+X/.'.T.R U P.[.oXOXI.. , sXsXsXsXsXsXsXsXsXsXsXsXeXwXrXeXtXtXeXeXeXeXyXeXwXqX3XE.sX",
"sXsXsXsXsXsXsXsXsXO 8 h.S.Z.b.=XOX`.].~...L H G T.+X'.`.P.; # sXsXsXsXsXsXsXsXsXsXsXqXeXwXwXtXeXeXeXeXeXeXeXwXeXiX*X5 r ",
"sXsXsXsXsXsXsXsXsX+ * j.J.G.G.;X@X/.W.Y.H v E  .W.%X!.!.X.D 5 sXsXsXsXsXsXsXsXsXsXsXqXeXeXeXeXyXeXeXeXeXwXeXeXyXeX&X+ % ",
"sXsXsXsXsXsXsXsXsX+ - j.J.D.A.;X/.T.T L b I T.]._._.K.< i sXsXsXsXsXsXsXsXsXsXsXpX0XtXeXeXeXeXeXeXeXeXeXeXeXeXyXtX}.% + ",
"sXsXsXsXsXsXsXsXsX# 3 j.G.B.N.k.P...b K ..X.Q.#X(.`.U.h n Y sXsXsXsXsXsXsXsXsX*X0XrXuXrXeXeXeXeXeXeXeXeXeXeXeXuXtX&X+ # ",
"sXsXsXsXsXsXsXsXsX+ a j.G.S.N.5.L K v Y Q.@XQ.oX(.`.{.0.=.& + sXsXsXsXsXsXsX+ T 4XuXuXeXeXeXeXwXeXeXeXtXeXeXeXuXyX&X+ + ",
"sXsXsXsXsXsXsXsXsXsXz ( 6.j.B.z.5.%...X.+X$X|.+X`.`.{.p.&.% % sXsXsXsXsXsXE E.:X0XeXyXeXwXeXeXeXeXeX9XiXeXyXeX>XE.$.sXsX",
"sXsXsXsXsXsXsXsXsXsXsX2 $ q.B.B.G.<X].`.[.[.`._._._.r.w.=.3 % sXsXq > 2 2 $.iXtXwXeXtXtXuXeXeXuXwXwXeXiXiXeX7X| ; sXsXsX",
"sXsXsXsXsXsXsXsXsXsXsX. $ q.F.G.G.S.-X-X-X=X%X#X#X$X| b d 3 @ @ G }.=X*X:X,XeXeXwXtX0XtXtXtXwXrXrXtX4XE.$.$.#.| sXsXsXsX",
"sXsXsXsXsXsXsXsXsXsXsX0 $ q.Z.S.G.G.S.H.F.b.:X%X%X%Xo.3 % o o o 6 ,XpXrXtXeXeXeXeXtX0XaX8X7X9X8X0X0X>Xu X . . sXsXsXsXsX",
"sXsXsXsXsXsXsXsXsX9 g { [ h.l.l.S.V.G.J.D.S.b.l.l.-Xh.q.5.b g z I ,X0XrXwXwXtXtXqXeXtX7X}.E W R T  .| sXsXsXsXsXsXsXsXsX",
"sXsXsXsXsXsXsXsXsX. - %.f.s.s.j.m.B.G.S.Z.S.Z.A.A.F.J.J.y.P G v Y ,XtXtXrX8X6X6X4X6X7X4X|     . X ; sXsXsXsXsXsXsXsXsXsX",
"sXsXsXsXsXsXsXsXsX. - e.a.a.s.h.h.h.j.h.h.j.n.V.J.D.A.J.j.V H v R 5XyXrXtX>XU U G G U T sXsXsXsXsXsXsXsXsXsXsXsXsXsXsXsX",
"sXsXsXsXsXsXsXsXsX. & e.f.f.g.g.d.d.g.sXsXy.l.b.b.b.b.b.t.n x x U =X5X5X5X&X# # .     ; sXsXsXsXsXsXsXsXsXsXsXsXsXsXsXsX",
"sXsXsXsXsXsXsXsXsX# & [ k.f.f.a.a.f.f.d.#.{ [ %.[ [ [ [ ` , 2 & # r u u i D sXsXsXsXsXsXsXsXsXsXsXsXsXsXsXsXsXsXsXsXsXsX",
"sXsXsXsXsXsXsXsXsX. - 3.f.s.s.f.h.r.[ ` Y R @.@.+.+.W @.R r 9 # + 5 1 2   sXsXsXsXsXsXsXsXsXsXsXsXsXsXsXsXsXsXsXsXsXsXsX",
"sXsXsXsXsXsXsXsXsX# & e.f.d.g.d.d.' 7 , # 6 R [ W @.@.@.@.W Y > > sXsXsXsXsXsXsXsXsXsXsXsXsXsXsXsXsXsXsXsXsXsXsXsXsXsXsX",
"sXsXsXsXsXsXsXsXsX. & e.f.d.d.a.g.' $ $ r c G G W @.@.@.@.@.W , . sXsXsXsXsXsXsXsXsXsXsXsXsXsXsXsXsXsXsXsXsXsXsXsXsXsXsX",
"sXsXsXsXsXsXsXsXsX. & e.f.a.a.a.g.[ # 9 sXsX5 # U @.@.@.@.@.W , # sXsXsXsXsXsXsXsXsXsXsXsXsXsXsXsXsXsXsXsXsXsXsXsXsXsXsX",
"sXsXsXsXsXsXsXsXsX# 7 e.f.a.f.3.Y Y i sXsXsX, , I @.@.@.@.@.W , + sXsXsXsXsXsXsXsXsXsXsXsXsXsXsXsXsXsXsXsXsXsXsXsXsXsXsX",
"sXsXsXsXsXsXsXsXsX+ 7 e.k.d.g.! O r sXsXsXsX, 2 I @.@.@.@.@.W , . sXsXsXsXsXsXsXsXsXsXsXsXsXsXsXsXsXsXsXsXsXsXsXsXsXsXsX",
"sXsXsXsXsXsXsXsXh 5.2.M.x.M.b./ = > sXsXsXsXsXsXi i Q 5.5.5.*.- . sXsXsXsXsXsXsXsXsXsXsXsXsXsXsXsXsXsXsXsXsXsXsXsXsXsXsX",
"sXsXsXsXsXsXsX; f b.G.H.G.D.S._ % > sXsXsXsXsXsX, + N i.u.8.7.* X sXsXsXsXsXsXsXsXsXsXsXsXsXsXsXsXsXsXsXsXsXsXsXsXsXsXsX",
"sXsXsXsXsXsXsXX f b.G.G.c.=.M ! sXsXsXsXsXsXsXsX< + n i.u.8.7.* X sXsXsXsXsXsXsXsXsXsXsXsXsXsXsXsXsXsXsXsXsXsXsXsXsXsXsX",
"sXsXsXsXsXsXY - N x.H.G.c.N O sXsXsXsXsXsXsXsXsX< + n 8.i.8.1.p 8 sXsXsXsXsXsXsXsXsXsXsXsXsXsXsXsXsXsXsXsXsXsXsXsXsXsXsX",
"sXsXsXsXsX3 ^ h.j.G.D.G.A.N # sXsXsXsXsXsXsXsXsX, + n i.i.8.8.1.;.h 7 sXsXsXsXsXsXsXsXsXsXsXsXsXsXsXsXsXsXsXsXsXsXsXsXsX",
"sXsXsXsX1 = B Z.D.F.c.x.j.Y > sXsXsXsXsXsXsXsXsXsX, Q >.7.u.u.i.0.s o sXsXsXsXsXsXsXsXsXsXsXsXsXsXsXsXsXsXsXsXsXsXsXsXsX",
"sXsXsXsX3 O B b.A.D.x.N 8 sXsXsXsXsXsXsXsXsXsXsXsXsXx * m w.u.8.9.d o sXsXsXsXsXsXsXsXsXsXsXsXsXsXsXsXsXsXsXsXsXsXsXsXsX",
"sXsXsXsX! h >.S.A.J.x.p . sXsXsXsXsXsXsXsXsXsXsXsXsXsX% d 0.p.u.9.s + sXsXsXsXsXsXsXsXsXsXsXsXsXsXsXsXsXsXsXsXsXsXsXsXsX",
"sXsX4 @ 4.b.Z.D.N.D.x.p + sXsXsXsXsXsXsXsXsXsXsXsXsXsXo d 0.u.u.9.s O sXsXsXsXsXsXsXsXsXsXsXsXsXsXsXsXsXsXsXsXsXsXsXsXsX",
"sXsX! Z q.H.G.A.v.9.5.b   sXsXsXsXsXsXsXsXsXsXsXsXsXsX+ d 0.u.u.9.s + sXsXsXsXsXsXsXsXsXsXsXsXsXsXsXsXsXsXsXsXsXsXsXsXsX",
"< * q.1XB.D.J.J.h.p 9 sXsXsXsXsXsXsXsXsXsXsXsXsXsXsXsX@ d 9.p.u.7.s % sXsXsXsXsXsXsXsXsXsXsXsXsXsXsXsXsXsXsXsXsXsXsXsXsX",
"2 $ ' 5.5.5.5.=.-.M sXsXsXsXsXsXsXsXsXsXsXsXsXsXsXsXsXO a n <.<.^ p o sXsXsXsXsXsXsXsXsXsXsXsXsXsXsXsXsXsXsXsXsXsXsXsXsX",
"2 . q t e j 4 = $ sXsXsXsXsXsXsXsXsXsXsXsXsXsXsXsXsXsX+ : l k k k : + sXsXsXsXsXsXsXsXsXsXsXsXsXsXsXsXsXsXsXsXsXsXsXsXsX",
"# 2 9 e k y 4 + # sXsXsXsXsXsXsXsXsXsXsXsXsXsXsXsXsXsX+ : S S S F : 2 sXsXsXsXsXsXsXsXsXsXsXsXsXsXsXsXsXsXsXsXsXsXsXsXsX",
"+ + w k k k 4 @ 2 sXsXsXsXsXsXsXsXsXsXsXsXsXsXsXsXsXsX+ 2 u S S u @ + sXsXsXsXsXsXsXsXsXsXsXsXsXsXsXsXsXsXsXsXsXsXsXsXsX"
};
