/* XPM */
static char *result[] = {
/* columns rows colors chars-per-pixel */
"60 60 231 2 ",
"   c #1E0D16",
".  c #1D121C",
"X  c #1E1214",
"o  c #1D150E",
"O  c #250D1B",
"+  c #270E19",
"@  c #241214",
"#  c #2A1315",
"$  c #23131C",
"%  c #2B151C",
"&  c #231A1D",
"*  c #2C1A1D",
"=  c #2D1816",
"-  c #311415",
";  c #321C16",
":  c #331B1B",
">  c #381818",
",  c #37231C",
"<  c #1E1824",
"1  c #241521",
"2  c #2A1523",
"3  c #251A23",
"4  c #2B1B24",
"5  c #241C2B",
"6  c #2C1C2A",
"7  c #2F1229",
"8  c #341E23",
"9  c #341B28",
"0  c #32192F",
"q  c #2B212B",
"w  c #2A2126",
"e  c #35232B",
"r  c #382729",
"t  c #2B2431",
"y  c #2B2835",
"u  c #332532",
"i  c #3B2436",
"p  c #3B2B34",
"a  c #3C253B",
"s  c #3D2C3D",
"d  c #332A39",
"f  c #3B333C",
"g  c #43231C",
"h  c #50261E",
"j  c #411E20",
"k  c #432C2C",
"l  c #442627",
"z  c #57352D",
"x  c #442D35",
"c  c #47273B",
"v  c #4D3435",
"b  c #4D343C",
"n  c #463437",
"m  c #533434",
"M  c #52343A",
"N  c #543B3E",
"B  c #593939",
"V  c #4D362C",
"C  c #653B2E",
"Z  c #401A18",
"A  c #58423B",
"S  c #6D443D",
"D  c #6D4A3D",
"F  c #674738",
"G  c #75493A",
"H  c #7A533E",
"J  c #69412B",
"K  c #3C2443",
"L  c #3A2A44",
"P  c #31324D",
"I  c #343D67",
"U  c #331E43",
"Y  c #442A43",
"T  c #522F42",
"R  c #493A43",
"E  c #533B43",
"W  c #573B47",
"Q  c #5C3851",
"!  c #603E41",
"~  c #3A405C",
"^  c #394670",
"/  c #564548",
"(  c #4B4757",
")  c #534857",
"_  c #53535D",
"`  c #5E5A59",
"'  c #484750",
"]  c #684A46",
"[  c #734B42",
"{  c #7C5343",
"}  c #785548",
"|  c #655857",
" . c #705752",
".. c #66615F",
"X. c #78665A",
"o. c #494966",
"O. c #595964",
"+. c #434C78",
"@. c #514B67",
"#. c #645A6C",
"$. c #7B6964",
"%. c #656A73",
"&. c #6A6C70",
"*. c #8C5A3F",
"=. c #86563E",
"-. c #8B513A",
";. c #844F41",
":. c #815544",
">. c #8B5543",
",. c #855B44",
"<. c #8B5A45",
"1. c #845A4A",
"2. c #8B5B4A",
"3. c #81554A",
"4. c #955C47",
"5. c #885852",
"6. c #905F53",
"7. c #A15D4C",
"8. c #97644A",
"9. c #846657",
"0. c #966556",
"q. c #98745D",
"w. c #9D714E",
"e. c #B86B48",
"r. c #BF7046",
"t. c #BB724D",
"y. c #A87459",
"u. c #BD7354",
"i. c #B67255",
"p. c #AB6A54",
"a. c #877365",
"s. c #937A6B",
"d. c #927B71",
"f. c #897870",
"g. c #A57864",
"h. c #C36E4D",
"j. c #C3714B",
"k. c #C37451",
"l. c #B78A5D",
"z. c #96846E",
"x. c #9A866E",
"c. c #978572",
"v. c #9A8672",
"b. c #9A8972",
"n. c #9A8779",
"m. c #AA876A",
"M. c #BC8968",
"N. c #B89169",
"B. c #B29077",
"V. c #C48A5E",
"C. c #C58A6A",
"Z. c #CA9369",
"A. c #D39C6D",
"S. c #DC9D6C",
"D. c #D3956B",
"F. c #C79975",
"G. c #D49D74",
"H. c #DB9D74",
"J. c #D19D7A",
"K. c #DB9C7A",
"L. c #D28F61",
"P. c #E39D6D",
"I. c #E89C67",
"U. c #E39F74",
"Y. c #E29D7B",
"T. c #D6A06C",
"R. c #DBA46C",
"E. c #DEA373",
"W. c #D4A27B",
"Q. c #D7A277",
"!. c #CDA07F",
"~. c #E3A26C",
"^. c #E6A26B",
"/. c #E2A372",
"(. c #E4A27A",
"). c #E9A277",
"_. c #535E8C",
"`. c #4F5C86",
"'. c #536594",
"]. c #70708A",
"[. c #546AA7",
"{. c #5874AB",
"}. c #5677B9",
"|. c #4F6DB2",
" X c #6174AD",
".X c #557ECD",
"XX c #597DC6",
"oX c #577ED0",
"OX c #607FC5",
"+X c #837B91",
"@X c #79828A",
"#X c #6A87BC",
"$X c #7386BA",
"%X c #7580A4",
"&X c #5881CB",
"*X c #5481D3",
"=X c #5983D2",
"-X c #4E84D4",
";X c #6A8BC2",
":X c #908C95",
">X c #AE958F",
",X c #B89B88",
"<X c #AD9797",
"1X c #868BAC",
"2X c #8287AA",
"3X c #8D9AA5",
"4X c #979BA5",
"5X c #828DB0",
"6X c #98A3AC",
"7X c #99A8B3",
"8X c #A4B1BC",
"9X c #C89A83",
"0X c #DBA281",
"qX c #E1A482",
"wX c #A9BAC4",
"eX c #B8BAC8",
"rX c #B9CCD4",
"tX c #BDDBE4",
"yX c #BEE7EE",
"uX c #C2D4DE",
"iX c #C6D9E6",
"pX c #C8DEF1",
"aX c #C5E2ED",
"sX c #CAE6F4",
"dX c #C4EAF3",
"fX c #CCEAF5",
"gX c #CEE5FA",
"hX c #CAE9F8",
"jX c #D1EAF8",
"kX c #CEF0F6",
"lX c None",
/* pixels */
"lXlXlXlXlXlXlXlXlXlXlXlXlXlXlXlXlXlXlXd 2 $ $ $ $ $ 3 lXlXlXlXlXlXlXlXlXlXlXlXlXlXlXlXlXlXlXlXlXlXlXlXlXlXlXlXlXlXlXlXlX",
"lXlXlXlXlXlXlXlXlXlXlXlXlXlXlXlXlXlXlX2 $ & $ % % 2 $ t lXlXlXlXlXlXlXlXlXlXlXlXlXlXlXlXlXlXlXlXlXlXlXlXlXlXlXlXlXlXlXlX",
"lXlXlXlXlXlXlXlXlXlXlXlXlXlXlXlXlX& p x n x x x x v p f p 6 & 6 w & 4 % t lXlXlXlXlXlXlXlXlXlXlXlXlXlXlXlXlXlXlXlXlXlXlX",
"lXlXlXlXlXlXlXlXlXlXlXlXlXlXlXlXy & r n E E N N B B W m , # # - # = - # r lXlXlXlXlXlXlXlXlXlXlXlXlXlXlXlXlXlXlXlXlXlXlX",
"lXlXlXlXlXlXlXlXlXlXlXlXlXlXlX4 r n E E M M B ] } { } } [ S [ [ [ D S S ] n u lXlXlXlXlXlXlXlXlXlXlXlXlXlXlXlXlXlXlXlXlX",
"lXlXlXlXlXlXlXlXlXlXlXlXlXlX: ; k / B W N N A D 1.<.2.2.2.2.2.1.2.<.>.<.1.k   t lXlXlXlXlXlXlXlXlXlXlXlXlXlXlXlXlXlXlXlX",
"lXlXlXlXlXlXlXlXlXlX6 3 5 q A F H { { { { { { :.2.*.=.2.<.<.<.<.>.:.*.*.{ l $ lXlXlXlXlXlXlXlXlXlXlXlXlXlXlXlXlXlXlXlXlX",
"lXlXlXlXlXlXlXlXlXlX* ; = 8 H 1.,.<.<.2.<.,.1.>.*.2.2.<.<.<.<.<.<.2.<.4.{ l & lXlXlXlXlXlXlXlXlXlXlXlXlXlXlXlXlXlXlXlXlX",
"lXlXlXlXlXlXlXlXw v F G D ] ,.<.<.>.<.<.>.2.5.2.*.<.<.,.<.,.,.1.,.,.*.4.} V @ lXlXlXlXlXlXlXlXlXlXlXlXlXlXlXlXlXlXlXlXlX",
"lXlXlXlXlXlXlX< # z 1.<.<.,.<.2.5.3.3.1.3.5.5.2.8.<.<.*.8.8.<.1.<.<.<.:.} v 3 lXlXlXlXlXlXlXlXlXlXlXlXlXlXlXlXlXlXlXlXlX",
"lXlXlXlXlXlXlX< # z 2.<.*.,.*.,.[ M M b M c B 0.C.D.D.Z.Z.C.y.<.<.<.H h r lXlXlXlXlXlXlXlXlXlXlXlXlXlXlXlXlXlXlXlXlXlXlX",
"lXlXlXlXlXlXlXlX$ v { ,.1.1.{ { B c a a L c M y.E.^.~.~./.G.y.=.=.{ F = @ lXlXlXlXlXlXlXlXlXlXlXlXlXlXlXlXlXlXlXlXlXlXlX",
"lXlXlXlXlXlXlXlXlXp e x v T R b c a K a R g.l.D.E.~.^.S.E.T.{ 8 r r r lXlXlXlXlXlXlXlXlXlXlXlXlXlXlXlXlXlXlXlXlXlXlXlXlX",
"lXlXlXlXlXlXlXlXlXlX1 2 i a a a c a a a T C.^.U.E.~.U.U.~.T.C O o . w lXlXlXlXlXlXlXlXlXlXlXlXlXlXlXlXlXlXlXlXlXlXlXlXlX",
"lXlXlXlXlXlXlXlXlXlX1 2 i a a a a a a a T M.^.U.E.~.P././.S.[ O o lXlXlXlXlXlXlXlXlXlXlXlXlXlXlXlXlXlXlXlXlXlXlXlXlXlXlX",
"lXlXlXlXlXlXlXlXlXlX1 4 i a a a a a a a M M.^./.R.~./.U.^.P.! O = lXlXlXlXlXlXlXlXlXlXlXlXlXlXlXlXlXlXlXlXlXlXlXlXlXlXlX",
"lXlXlXlXlXlXlXlXlXlX1 2 a a a a a a a a T M.I.U.E.P.~.E./.T.S + @ lXlXlXlXlXlXlXlXlXlXlXlXlXlXlXlXlXlXlXlXlXlXlXlXlXlXlX",
"lXlXlXlXlXlXlXlXlXlX1 2 c a a a a a a Y Q C.~.E.^.S./.K.H.A.! 2 @ lXlXlXlXlXlXlXlXlXlXlXlXlXlXlXlXlXlXlXlXlXlXlXlXlXlXlX",
"lXlXlXlXlXlXlXlXlXlX$ O i c K a a K I '.{.9X/.J.U.H.^.S.R.T.G O o lXlXlXlXlXlXlXlXlXlXlXlXlXlXlXlXlXlXlXlXlXlXlXlXlXlXlX",
"lXlXlXlXlXlXlXlXlXlXt 2 0 i a c c Y I }.#X,XS.S.Y.Y.^.U./.H.[ 7 w lXlXlXlXlXlXlXlXlXlXlXlXlXlXlXlXlXlXlXlXlXlXlXlXlXlXlX",
"lXlXlXlXlXlXlXlXlXlXlXlX9 2 9 K +.[.|.=XXX#X5XF./.W.U.Y./.R.5.W p 3 y lXlXlXlXlXlXlXlXlXlXlXlXlXlXlXlXlXlXlXlXlXlXlXlXlX",
"lXlXlXlXlXlXlXlXlXlXlXlX. @ i P _.$X$X#X$XXXlX>XJ.K.L.F.Z.l.9.) p . w lXlXlXlXlXlXlXlXlXlXlXlXlXlXlXlXlXlXlXlXlXlXlXlXlX",
"lXlXlXlXlXlXlXlXlXlXlXlX. 4 +.[.:X9XK.J.,X2XoX#X;X X] ] ]  ._.lX~ $ 3 lXlXlXlXlXlXlXlXlXlXlXlXlXlXlXlXlXlXlXlXlXlXlXlXlX",
"lXlXlXlXlXlXlXlXlXlXlXlX1 $ +.lX>XU.~./.W.1XoX&XoX'.E N ( @._.lX^ $ 1 lXlXlXlXlXlXlXlXlXlXlXlXlXlXlXlXlXlXlXlXlXlXlXlXlX",
"lXlXlXlXlXlXlXlXlXlXlXlX1 $ lXlX>X~.E.~.Q.2X&X&XOX[./ / '.{.}.=X^ 1 3 lXlXlXlXlXlXlXlXlXlXlXlXlXlXlXlXlXlXlXlXlXlXlXlXlX",
"lXlXlXlXlXlXlXlXlXlXlXlXk j lXlX>X/./.E.E.1X&X#X X_.W ) {.*X-X*X+.1 & lXlXlXlXlXlXlXlXlXlXlXlXlXlXlXlXlXlXlXlXlXlXlXlXlX",
"lXlXlXlXlXlXlXlXlXlX4 m 6.p.+XlX,X/./.E.T.2X.X+.) ( m ) {.*X*X*X+.3 3 lXlXlXlXlXlXlXlXlXlXlXlXlXlXlXlXlXlXlXlXlXlXlXlXlX",
"lXlXlXlXlXlXlXlXlXlX@ h i.u.].'.:XW.J.E.A.3X$XO.M Q W @.}.oX}.[.^ 1 3 lXlXlXlXlXlXlXlXlXlXlXlXlXlXlXlXlXlXlXlXlXlXlXlXlX",
"lXlXlXlXlXlXlXlXlXlX@ h i.t.B & ( $X3XJ.P.W.W.5.E @.{.}.XX}.I 5 e lXlXlXlXlXlXlXlXlXlXlXlXlXlXlXlXlXlXlXlXlXlXlXlXlXlXlX",
"lXlXlXlXlXlXlXlXlXlX4 m 6.8.l X P lX1XJ.I.E.E.s.@._.&X.X&XXXI $ > lXlXlXlXlXlXlXlXlXlXlXlXlXlXlXlXlXlXlXlXlXlXlXlXlXlXlX",
"lXlXlXlXlXlXlXlXlXlXlXlXl > + X ~ lX3XK.I.H.H.:X{.XX=XoX*XXXI O > lXlXlXlXlXlXlXlXlXlXlXlXlXlXlXlXlXlXlXlXlXlXlXlXlXlXlX",
"lXlXlXlXlXlXlXlXlXlXlXlXO O 4 w ( [.+XG.P.E.E.<XoXoX=XXX[.'.o.5 lXlXlXlXlXlXlXlXlXlXlXlXlXlXlXlXlXlXlXlXlXlXlXlXlXlXlXlX",
"lXlXlXlXlXlXlXlXlXlXlXlX1 $ c V N ) $.H.)././.<XlX&XoX|.P 5 lXlXlXlXlXlXlXlXlXlXlXlXlXlXlXlXlXlXlXlXlXlXlXlXlXlXlXlXlXlX",
"lXlXlXlXlXlXlXlXlXlXlXlX$ & / ] ] ] 9.N.0X/.(.<XlX%X[.`.5 X lXlXlXlXlXlXlXlXlXlXlXlXlXlXlXlXlXlXlXlXlXlXlXlXlXlXlXlXlXlX",
"lXlXlXlXlXlXlXlXlXlXlXlX& w X.z.d.d.s.m.m.S.I.Q.qXg.] R = @ lXlXlXlXlXlXlXlXlXlXlXlXlXlXlXlXlXlXlXlXlXlXlXlXlXlXlXlXlXlX",
"lXlXlXlXlXlXlXlXlXlXlXlX3 & X.z.v.n.b.z.n.G.^.P.qXg./ / r r ' lXlXlXlXlXlXlXlXlXlXlXlXlXlXlXlXlXlXlXlXlXlXlXlXlXlXlXlXlX",
"lXlXlXlXlXlXlXlXlXlXlXlX. 4 X.b.z.b.x.b.n.W.(.W.).N.....O._ f * 8 lXlXlXlXlXlXlXlXlXlXlXlXlXlXlXlXlXlXlXlXlXlXlXlXlXlXlX",
"lXlXlXlXlXlXlXlXlXlXlXlXn v 9.b.b.b.z.b.m.l.N.F.I.C.a.X...O.d % 4 lXlXlXlXlXlXlXlXlXlXlXlXlXlXlXlXlXlXlXlXlXlXlXlXlXlXlX",
"lXlXlXlXlXlXlXlXlXlX3 n a.c.n.b.z.z.b.b.n.$.$.B.R.R.T.M.9.` y $ % . t lXlXlXlXlXlXlXlXlXlXlXlXlXlXlXlXlXlXlXlXlXlXlXlXlX",
"lXlXlXlXlXlXlXlXlXlX$ r d.b.b.b.b.z.z.X.X.` / a.N.D./.A.z.a.N w 8 e d lXlXlXlXlXlXlXlXlXlXlXlXlXlXlXlXlXlXlXlXlXlXlXlXlX",
"lXlXlXlXlXlXlXlXlXlX$ k s.b.c.x.b.z.X., ; 4 3 / } x.W./.D.F.1.M b N p 6 . 3 < lXlXlXlXlXlXlXlXlXlXlXlXlXlXlXlXlXlXlXlXlX",
"lXlXlXlXlXlXlXlXlXlXX k s.b.x.x.v.b.X.# + 9 t R / 9.J./.~.E.8.B E N R / ( ( ' _ lXlXlXlXlXlXlXlXlXlXlXlXlXlXlXlXlXlXlXlX",
"lXlXlXlXlXlXlXlXlXlX$ V s.b.c.x.z.n.$.= 4 lXlXP & D G./.~.R.<.m E b #.eXiXiXuX@X3 1 1 3 lXlXlXlXlXlXlXlXlXlXlXlXlXlXlXlX",
"lXlXlXlXlXlXlXlXlXlX$ r d.b.c.c.a.X.| 4 4 lXlXlX= J y.l.m.B.X./ / / %.iXjXdXhX6X) ) ' R lXlXlXlXlXlXlXlXlXlXlXlXlXlXlXlX",
"lXlXlXlXlXlXlXlXlXlX# r f.z.z.n.F & w lXlXlXlXlXlXlX4 r ` ....` ` ` &.aXkXhXhXpXiXtXtXrXL o # X 4 lXlXlXlXlXlXlXlXlXlXlX",
"lXlXlXlXlXlXlXlXlXF C H m.N.N.B.D @ w lXlXlXlXlXlXlX. *  .0.5.$.X.9.f.6X7XtXhXhXsXdXdXuX]._ _ ) O.lXlXlXlXlXlXlXlXlXlXlX",
"lXlXlXlXlXlXlXy 4 } D.J.Q.A.A.G.H - 3 lXlXlXlXlXlXlX$ , 8.t.e.i.i.t.2.k d 7XkXjXkXsXdXsXiXiXuXuX6Xd . $ 3 lXlXlXlXlXlXlX",
"lXlXlXlXlXlXlX< $ ,.S.^.S.H.^.E.:.# 3 lXlXlXlXlXlXlXlXm { -.e.h.j.k.8.> e &.6X6X6X8XaXfXjXjXjXkXwXO._ _ _ O.lXlXlXlXlXlX",
"lXlXlXlXlXlXlX5 . { S.^.P./.^.qX3.# 5 lXlXlXlXlXlXlXlXlX4 : ;.u.j.t.0.Z # q q 4 2 ) rXkXfXjXpXsXaXiXiXiXuX%.. @ @ < lXlX",
"lXlXlXlXlXlXlX< $ H E.^.U.S.M.g.} 8 lXlXlXlXlXlXlXlXlXlX. # ;.u.r.j.7., $ e t O O ' 6X6X6X6XrXaXjXjXsXkXuX3XO._ ) ' lXlX",
"lXlXlXlXlXlXlXy @ { G.).).D.z ; lXlXlXlXlXlXlXlXlXlXlXlX$ - >.u.r.h.7., 3 lXlXlXlXlXy 6 5 5 @XjXkXdXdXyXdXyXtXyXaX8Xt . ",
"lXlXlXlXlXlX| ] F w.S.U.).D.z . lXlXlXlXlXlXlXlXlXlXlXlX$ # =.u.r.j.7.; . lXlXlXlXlXlX6 6 t ].4X4X3X7XiXjXjXgXhXsXwXy < ",
"lXlXlXlXlXr g g.G.P.^.U.(.S.z   lXlXlXlXlXlXlXlXlXlXlXlXO - ;.u.j.h.4.; & lXlXlXlXlXlXlXlXlXlX5 2 2 i 8XhXhXhXjXhXwXw < ",
"lXlXlXlX| ] G u./.I.~.G.g.q.m $ lXlXlXlXlXlXlXlXlXlXlXlX. - ;.u.j.h.7.; & lXlXlXlXlXlXlXlXlXlX1 2 2 $ lX@X3X3X3X3X%.d < ",
"lXlXlX& m B.Q.U.U.^./.m.g % lXlXlXlXlXlXlXlXlXlXlXlXlXlX$ > -.i.k.k.4.g $ lXlXlXlXlXlXlXlXlXlXlXlXlXlX1 1 2 6 4 2 q lXlX",
"lXlXf 9 M 0.i.D.^.V.w.9.v lXlXlXlXlXlXlXlXlXlXlXlXlXlXlX. - C >.4.>.G > $ lXlXlXlXlXlXlXlXlXlXlXlXlXlXlX& 1 $ $ $ lXlXlX",
"y 3 4 i K c m g.Q.<.> 9 lXlXlXlXlXlXlXlXlXlXlXlXlXlXlXlX$ + i c c c c + $ lXlXlXlXlXlXlXlXlXlXlXlXlXlXlXlXlXlXlXlXlXlXlX",
"3   4 s K Y Y  .q.} x lXlXlXlXlXlXlXlXlXlXlXlXlXlXlXlXlX1 O i K U K c + $ lXlXlXlXlXlXlXlXlXlXlXlXlXlXlXlXlXlXlXlXlXlXlX",
"$ $ 6 i a K i 9 # x lXlXlXlXlXlXlXlXlXlXlXlXlXlXlXlXlXlX% $ u L L L i O & lXlXlXlXlXlXlXlXlXlXlXlXlXlXlXlXlXlXlXlXlXlXlX",
"lX6 u p p c i 7 7 lXlXlXlXlXlXlXlXlXlXlXlXlXlXlXlXlXlXlXlX# e x L x i + % lXlXlXlXlXlXlXlXlXlXlXlXlXlXlXlXlXlXlXlXlXlXlX"
};
