/* XPM */
static char *result[] = {
/* columns rows colors chars-per-pixel */
"60 60 241 2 ",
"   c #1D1216",
".  c #1D131C",
"X  c #1B171D",
"o  c #1D0D10",
"O  c #29140E",
"+  c #240D12",
"@  c #240E1B",
"#  c #2B0E15",
"$  c #241214",
"%  c #2B1415",
"&  c #23141C",
"*  c #2A141C",
"=  c #241B1D",
"-  c #2C191C",
";  c #2B1916",
":  c #321414",
">  c #34141C",
",  c #311B1D",
"<  c #391917",
"1  c #33130E",
"2  c #3D201F",
"3  c #35201B",
"4  c #27201C",
"5  c #1D1421",
"6  c #1D1A27",
"7  c #241522",
"8  c #251A23",
"9  c #2B1C23",
"0  c #261C2A",
"q  c #2B1725",
"w  c #331C23",
"e  c #341B2A",
"r  c #391E36",
"t  c #271C30",
"y  c #25212B",
"u  c #2C232B",
"i  c #282027",
"p  c #34232C",
"a  c #3A242B",
"s  c #3A2424",
"d  c #2C2533",
"f  c #342431",
"g  c #3C2335",
"h  c #332A34",
"j  c #3C243B",
"k  c #3D2A3C",
"l  c #382836",
"z  c #3B3238",
"x  c #47291E",
"c  c #52261C",
"v  c #4A2B25",
"b  c #4A2C2B",
"n  c #442828",
"m  c #512B26",
"M  c #57372A",
"N  c #41253B",
"B  c #432836",
"V  c #45323A",
"C  c #4B3439",
"Z  c #4A3736",
"A  c #543B3D",
"S  c #5C3B3C",
"D  c #563736",
"F  c #503031",
"G  c #653B2B",
"H  c #633838",
"J  c #773C31",
"K  c #4C4139",
"L  c #59403B",
"P  c #64433E",
"I  c #6A4536",
"U  c #774839",
"Y  c #7D553D",
"T  c #3B2943",
"R  c #3B2644",
"E  c #352C57",
"W  c #353650",
"Q  c #382B5A",
"!  c #412943",
"~  c #4B3D4A",
"^  c #473A44",
"/  c #533C42",
"(  c #563C48",
")  c #4B3C53",
"_  c #4A3354",
"`  c #3E465F",
"'  c #494449",
"]  c #574546",
"[  c #494552",
"{  c #554959",
"}  c #515357",
"|  c #624144",
" . c #6A4B44",
".. c #6A534C",
"X. c #68544D",
"o. c #7D5342",
"O. c #7A574B",
"+. c #75534D",
"@. c #746453",
"#. c #554865",
"$. c #595967",
"%. c #4C5578",
"&. c #4D5171",
"*. c #685163",
"=. c #5E6170",
"-. c #64666A",
";. c #626A73",
":. c #73737B",
">. c #6C6E78",
",. c #88593D",
"<. c #864630",
"1. c #845543",
"2. c #845A43",
"3. c #8A5B44",
"4. c #8D5648",
"5. c #845A4A",
"6. c #8B5B4A",
"7. c #895645",
"8. c #8B5548",
"9. c #A35A44",
"0. c #8E654E",
"q. c #88634C",
"w. c #896956",
"e. c #9A6C54",
"r. c #9D735B",
"t. c #956D4B",
"y. c #A6664C",
"u. c #BB6C4C",
"i. c #A36753",
"p. c #B46B54",
"a. c #A47358",
"s. c #B87656",
"d. c #BD7248",
"f. c #897368",
"g. c #997668",
"h. c #907674",
"j. c #AA7B67",
"k. c #B67A65",
"l. c #C56C4A",
"z. c #C6724B",
"x. c #C47759",
"c. c #C26C54",
"v. c #B7815C",
"b. c #A9825B",
"n. c #9A846C",
"m. c #998368",
"M. c #968472",
"N. c #9B8573",
"B. c #9A8775",
"V. c #A98767",
"C. c #B98667",
"Z. c #AE8F71",
"A. c #E19F5F",
"S. c #C78D66",
"D. c #C8936B",
"F. c #DD9E6D",
"G. c #D69968",
"H. c #CB9876",
"J. c #DC9D73",
"K. c #D59D76",
"L. c #C68C7D",
"P. c #E29E6C",
"I. c #E99D68",
"U. c #E39E73",
"Y. c #E79E79",
"T. c #DDA36D",
"R. c #DAA46A",
"E. c #DDA373",
"W. c #DCA37B",
"Q. c #D9A675",
"!. c #EBA265",
"~. c #E3A26D",
"^. c #EAA26D",
"/. c #E5A264",
"(. c #E3A273",
"). c #E3A379",
"_. c #E7A675",
"`. c #3D568B",
"'. c #4C5C8B",
"]. c #535B8A",
"[. c #4E5A92",
"{. c #57669C",
"}. c #536590",
"|. c #767786",
" X c #596AA5",
".X c #5A73A7",
"XX c #5977B7",
"oX c #516EAC",
"OX c #6B7AB2",
"+X c #5B7EC5",
"@X c #557DC6",
"#X c #587CD4",
"$X c #4D77C2",
"%X c #907988",
"&X c #7385B6",
"*X c #5C81BF",
"=X c #4B82C7",
"-X c #5482CC",
";X c #5683C8",
":X c #4C83DA",
">X c #5485D5",
",X c #5786DB",
"<X c #908D93",
"1X c #B69789",
"2X c #AD958B",
"3X c #8B89A9",
"4X c #9494A1",
"5X c #9BACB6",
"6X c #9AA4AD",
"7X c #A4AEB8",
"8X c #A3AFB8",
"9X c #B6A29A",
"0X c #C89B88",
"qX c #D39E86",
"wX c #D19D90",
"eX c #C7A796",
"rX c #CCA58A",
"tX c #C3B6AC",
"yX c #C9C1BB",
"uX c #ACB9C4",
"iX c #B5B7C6",
"pX c #B7C7CD",
"aX c #B8CAD8",
"sX c #BBD3DA",
"dX c #A9C1CA",
"fX c #BAD7E1",
"gX c #C9D7DE",
"hX c #C9CACA",
"jX c #C6DAE6",
"kX c #C4DFF0",
"lX c #C6E2ED",
"zX c #CAE4EC",
"xX c #C5E4F2",
"cX c #CAE6F4",
"vX c #CDE9F5",
"bX c #CDE9F9",
"nX c #C8E7F6",
"mX c #D1E5F4",
"MX c #D3EAF7",
"NX c #D5E2EE",
"BX c None",
/* pixels */
"BXBXBXBXBXBXBXBXBXBXBXBXBXBXBXBXBXBXBXBXBXBXBXBX.   & $ * - & = $ $ -   8 BXBXBXBXBXBXBXBXBXBXBXBXBXBXBXBXBXBXBXBXBXBXBX",
"BXBXBXBXBXBXBXBXBXBXBXBXBXBXBXBXBXBXBXBXBXBXBXBX0 9 - % % - 7 - w ; - 7 h BXBXBXBXBXBXBXBXBXBXBXBXBXBXBXBXBXBXBXBXBXBXBX",
"BXBXBXBXBXBXBXBXBXBXBXBXBXBXBXBXBXBXBXBXBXX 9 l p V Z C C / ^ V V C C C V k 0 7 5 7 7 & & & 7 BXBXBXBXBXBXBXBXBXBXBXBXBX",
"BXBXBXBXBXBXBXBXBXBXBXBXBXBXBXBXBXBXBXBXBX9 - a V A / A A S S / P P P S S b x < w < x w n < s BXBXBXBXBXBXBXBXBXBXBXBXBX",
"BXBXBXBXBXBXBXBXBXBXBXBXBXBXBXBXBXBXd t e C Z C / / A A / A P O.2.5.2.,.5.5.o.o.1.1.1.o.o.o.U B 7 f BXBXBXBXBXBXBXBXBXBX",
"BXBXBXBXBXBXBXBXBXBXBXBXBXBXBXBXBXh 7 & e ] | ] | ] | | | H o.5.5.2.3.3.,.3.3.3.3.3.3.3.3.3.,.M w b ] BXBXBXBXBXBXBXBXBX",
"BXBXBXBXBXBXBXBXBXBXBXBXBXBXd = - $ $ * b ,.,.,.3.,.,.2.,.1.1.5.3.,.,.,.,.3.3.,.3.3.3.3.3.3.1.5.5.O.D , & 0 BXBXBXBXBXBX",
"BXBXBXBXBXBXBXBXBXBXBXBXBXBXA b b b m F H 7.6.4.4.4.4.8.6.6.3.5.,.3.3.4.1.8.8.3.3.1.3.3.3.3.3.,.4.5.D : $ u BXBXBXBXBXBX",
"BXBXBXBXBXBXBXBXBXBXBX= $ x P 5.6.6.1.5.4.3.3.4.3.3.3.3.3.7.6.6.6.1.3.6.4.4.6.5.1.3.8.3.3.6.3.,.3.5.M > + 8 BXBXBXBXBXBX",
"BXBXBXBXBXBXBXBXBXBX/ / D M Y 3.3.4.4.4.1.| | | | | | ( | I 1.j.C.s.v.v.C.s.C.k.a.3.2.5.3.3.3.3.3.6.M % X y BXBXBXBXBXBX",
"BXBXBXBXBXBXBXBX& % v O.q.2.5.7.6.6.6.6. .N g B N R j k b m 8.0XqX(._.(.T.E.(.).k.2.1.1.0.2.2.2.5.5.D - = 0 BXBXBXBXBXBX",
"BXBXBXBXBXBXBXBX$ # n O.5.o.I H H / H / C N N N r j N +.g.e.C.W.(.U.I.P.U.E.(.J.e.M M m M x v v v F Z BXBXBXBXBXBXBXBXBX",
"BXBXBXBXBXBXBXBX7 - Z ..O. .D g r r j j T k j N r g F r.J.).Q.(.~.~.P.P.U.E.W.Q.2.O O + , $ = &   = BXBXBXBXBXBXBXBXBXBX",
"BXBXBXBXBXBXBXBXBXBX] V n n n g N R T T R k k j N N B a.U.^.~.T._.U.P.U.U.(._.W.q.; - i BXBXBXBXBXBXBXBXBXBXBXBXBXBXBXBX",
"BXBXBXBXBXBXBXBXBXBXBX= # * e N N ! N N j g j r ! j n g.E.P.U.U._.U.U._.F.F.~.).0.% . p BXBXBXBXBXBXBXBXBXBXBXBXBXBXBXBX",
"BXBXBXBXBXBXBXBXBXBXBX7 * q r j R j N B j j N N R j B r.J.~.(.E.Y.U.^.^.U.K.~.Q.w.O   d BXBXBXBXBXBXBXBXBXBXBXBXBXBXBXBX",
"BXBXBXBXBXBXBXBXBXBXBX5   & p k N g g k R T _ E E E ) g.K.^.P.~.P.J.(.(.(.U.F.G.0.3 i z BXBXBXBXBXBXBXBXBXBXBXBXBXBXBXBX",
"BXBXBXBXBXBXBXBXBXBXBX5 . & p a B g r ! _ BXBXBXBXBX|.1X).U.U.^.P.T.W.W.U.I.^._.r.Z V V g 8 8 BXBXBXBXBXBXBXBXBXBXBXBXBX",
"BXBXBXBXBXBXBXBXBXBXBXk 9 a p w r ! _ E ` BXBXBXBXBXBXBX0X0X0XqX^.~.Q.W.W.I.I.E.r.L ] V w + & BXBXBXBXBXBXBXBXBXBXBXBXBX",
"BXBXBXBXBXBXBXBXBXBXBXBXBXBXh 5 6 ` BXBXBXBXBXBXBXBXBXBXBXBX4XqX^.!.R.Q.W._.I.U.e.L ~ V , + & BXBXBXBXBXBXBXBXBXBXBXBXBX",
"BXBXBXBXBXBXBXBXBXBXBXBXBXBX0 5 5 ) BXBXBXBXBXBXBXBXBXBXBXBXBX2XL.L.j.j.a.s.k.j.@.=.].` 7 + * BXBXBXBXBXBXBXBXBXBXBXBXBX",
"BXBXBXBXBXBXBXBXBXBXBXBXBXBX0 % : 5.W.E.E.E.J.wXBXBXBXBXBXBXBXBXXX X&.K K ) ( ( $..XXX[.0 + @ BXBXBXBXBXBXBXBXBXBXBXBXBX",
"BXBXBXBXBXBXBXBXBXBXBXBXBXBX8 $ 1 t.E.~.!.!.I.K.BXBXBXBXBXBXBXBX:XoX{ M D #.].%.{.;X>X[.t   7 BXBXBXBXBXBXBXBXBXBXBXBXBX",
"BXBXBXBXBXBXBXBXBXBXBXBXBXBX0 & : 0.W.Q.E.W.J.eXBXBXBXBXBXBXBX=X#X X#.D ' }.BXBX=X>X#X{.d $ * BXBXBXBXBXBXBXBXBXBXBXBXBX",
"BXBXBXBXBXBXBXBXBXBXBXBXBXBX0 & > 0.W.(.U.U.U.wX3XBXBX;X;X;X.X%.#.*./ Z ' '.BXBX-X>X#X{.y + : BXBXBXBXBXBXBXBXBXBXBXBXBX",
"BXBXBXBXBXBXBXBXBXBXBXBXBXBX8 & > 0.Q.(.U.(.U.qX3XBX:XXXXXXX'.' / ' ^ K ' ].>X=X+X+XXX[.E & : BXBXBXBXBXBXBXBXBXBXBXBXBX",
"BXBXBXBXBXBXBXBXBXBXBXBXBXBX4 & > 0.T.~.U.R.~.qX3X:X#X'.&.&.} M M ' =.}.{.$X>XXX`.E W ` =.BXBXBXBXBXBXBXBXBXBXBXBXBXBXBX",
"BXBXBXBXBXBXBXBXBXBXBXBXBXBX4 & > 0.Q.~.E./.P.0X3X&XOX{ A ~ _ ] K &. XBXBX=X@X@X&.6 @ f BXBXBXBXBXBXBXBXBXBXBXBXBXBXBXBX",
"BXBXBXBXBXBXBXBXBXBXBXBXBXBX= & > 0.Q.~.Y.J.I.).1X9X1X8.D ~ #. XXXBXBX-X-X=X#X+X%.5 o p BXBXBXBXBXBXBXBXBXBXBXBXBXBXBXBX",
"BXBXBXBXBXBXBXBXBXBXBXBXBXBX- 7 w 5.S.S.D.J.I.!.~.(.G.e.{ [ $.-X,X>X;X@X>X#X#X+X'.t p C :.BXBXBXBXBXBXBXBXBXBXBXBXBXBXBX",
"BXBXBXBXBXBXBXBXBXBXBXBXBXBXBXBXBXV s s o.H.U.U.^.(.H.<XXX$XXX>X#X@X>X@X-X-X:X-Xf.9.y.7.a s , BXBXBXBXBXBXBXBXBXBXBXBXBX",
"BXBXBXBXBXBXBXBXBXBXBXBXBXBXBXBXBX8 X X I G.U.(.(.(.K.2X3X3X&X X XXX*X;X;X;X#X+X%Xc.z.9.< * $ BXBXBXBXBXBXBXBXBXBXBXBXBX",
"BXBXBXBXBXBXBXBXBXBXBXBXBXBXBXBXBXu = & I G.Q.Q.Q._.T.Q.rXrXm.] [ &..XBXBXBXBX*X%Xk.u.9.< $ 8 BXBXBXBXBXBXBXBXBXBXBXBXBX",
"BXBXBXBXBXBXBXBXBXBXBXBXBXBXBXBXBX] K Z O.H.D.H.Q.Q.U.~._._.s.G D [ =.].'.'.].%.*.8.1.1.D 9 6 BXBXBXBXBXBXBXBXBXBXBXBXBX",
"BXBXBXBXBXBXBXBXBXBXBXBXBXBX0 $ 3 X.h.N.M.B.n.V.H.).Y.U.Q.W.a.D A T ) ) ~ ] ' K F # + B BXBXBXBXBXBXBXBXBXBXBXBXBXBXBXBX",
"BXBXBXBXBXBXBXBXBXBXBXBXBXBXX & ; +.B.N.M.M.m.V.K.U.P.(._.).a.G A ~ |.%X%X-.] K V * $ * BXBXBXBXBXBXBXBXBXBXBXBXBXBXBXBX",
"BXBXBXBXBXBXBXBXBXBXBXBXBXBX. & ; ..N.N.n.n.V.V.D.T._.T.T.W.j.L Z $.pXMXgX&X-.-.' = = u BXBXBXBXBXBXBXBXBXBXBXBXBXBXBXBX",
"BXBXBXBXBXBXBXBXBXBXBXBXBXBX5 & ; ..N.N.M.M.n.n.Z.Z.Z.b.w.w.h.2X4X5XfXzXgXdX5X6X:.[ z ^ ^ h BXBXBXBXBXBXBXBXBXBXBXBXBXBX",
"BXBXBXBXBXBXBXBXBXBXBXBXBXBX. & - ..M.B.B.B.B.B.n.B.B.X.Z C |.gXMXvXnXnXzXMXMXzX5X>.-.} 8 & 7 BXBXBXBXBXBXBXBXBXBXBXBXBX",
"BXBXBXBXBXBXBXBXBXBXBXBXBXBX. & * ..N.N.V.h.B.V.n.n.M.L s u :.jXvXvXxXnXvXvXzXvXaXdXuX<Xh & 7 BXBXBXBXBXBXBXBXBXBXBXBXBX",
"BXBXBXBXBXBXBXBXBXBXBXBXBXBX0 & * ..N.N.m.m.n.B.f.h.f.L 4 u ;.pXjXfXlXbXxXxXnXbXxXlXNX8X' y u BXBXBXBXBXBXBXBXBXBXBXBXBX",
"BXBXBXBXBXBXBXBXBXBXBXBXBXBX0 & $ | B.B.n.N.n.f.K n Z { BX-.-.} W ;.gXMXvXnXxXbXnXlXNXzX8X8X7X} = u BXBXBXBXBXBXBXBXBXBX",
"BXBXBXBXBXBXBXBXBXBXBXBXBXBXz s , ..B.M.M.N.N.f.x $ & BXBXBXBX0 . [ uXaXaXjXcXcXnXxXxXMXlXvXjX;.V T [ BXBXBXBXBXBXBXBXBX",
"BXBXBXBXBXBXBXBXBXBXBXy X z @.f.f.h.N.M.N.n.B.f.3 $ = BXBXBXBXBXBXBX[ h [ 5XcXcXvXnXxXvXcXcXkXaXaXiX|.d 7 0 BXBXBXBXBXBX",
"BXBXBXBXBXBXBXBXBXBXBXX X 3 @.Z.Z.V.Z.V.N.@.@.X.3 ; i BXBXBXBXBXBXBX& . y <XuXuXsXnXxXnXbXMXzXnXxXmX4X' ' ~ BXBXBXBXBXBX",
"BXBXBXBXBXBXBXBXBXBXBX= @ x V.Q.R.U.K.K.a.s s i BXBXBXBXBXBXBXBXBXBXBXBXBXh t h :.gXcXxXMXvXzXcXkXcXlXsXjX6Xk & 7 BXBXBX",
"BXBXBXBXBXBXBXBXBXBX+.P P U C.W.Y.Y._.~.a., . & BXBXBXBXBXBXBXBXBXBXBXBXBX8 . X -.9XyXhXmXmXvXcXxXbXvXzXjX8X=.} $.-.BXBX",
"BXBXBXBXBXBXBXBX8 ; I Z.H.G._._._.qXW._.t., = 0 BXBXBXBXBXBXBXBXBXBXBXBXBX8 & % I C.k.1XhXzXvXbXvXvXxXxXvXNXsXgXpX$.8 8 ",
"BXBXBXBXBXBXBXBX7 # G H.)./.A./.E.k.e.t.O.z BXBXBXBXBXBXBXBXBXBXBXBXBXBXBX8 = : J l.l.S.eXtXtXjXMXcXmXmXmXbXxXmXsX'   * ",
"BXBXBXBXBXBXBXf * : G H.).E.T._.H.o.> & 8 BXBXBXBXBXBXBXBXBXBXBXBXBXBXBXBXy X ; U p.u.u.s.u.x.tXMXcXkXkXnXbXbXbXpX} & @ ",
"BXBXBXBXBXBX! ..q.3.i.J.E.G.~._.H.U O & t BXBXBXBXBXBXBXBXBXBXBXBXBXBXBXBXBXBXBXL H J <.u.u.l.0XeX9X<X:.|.|.|.|.-.V   X ",
"BXBXBXBXO $ w 3.Q.).U.!.~.~.R.Q.D.Y 1 $ 8 BXBXBXBXBXBXBXBXBXBXBXBXBXBXBXBXBXBXBXBX% O c y.s.z.z.c.s.U < # + * @   = X 6 ",
"BXBXBXBX4 X # q.Q.E.U.~.~.S.,.I  .X.BXBXBXBXBXBXBXBXBXBXBXBXBXBXBXBXBXBXBXBXBXBXBXq # c p.x.z.l.d.s.I O 7 6 BXBXBXBXBXBX",
"BXBXBXBXK ; < 3.T._.J.E.Q.S.M o 5 BXBXBXBXBXBXBXBXBXBXBXBXBXBXBXBXBXBXBXBXBXBXBXBX7 + c i.z.l.l.l.p.J > 7 d BXBXBXBXBXBX",
"BXh 8 F e.j.k.S.I.^.U.^._.D.M O 5 BXBXBXBXBXBXBXBXBXBXBXBXBXBXBXBXBXBXBXBXBXBXBXBX6 # m i.c.l.l.c.s.U : & 5 BXBXBXBXBXBX",
"BX8 * n g.qXL.G.D.G.D.D.D.V.D s u BXBXBXBXBXBXBXBXBXBXBXBXBXBXBXBXBXBXBXBXBXBXBXBX@ # c 8.y.9.p.y.6.G < $ . BXBXBXBXBXBX",
"BX8 & & V ] A S L L D n x M X.BXBXBXBXBXBXBXBXBXBXBXBXBXBXBXBXBXBXBXBXBXBXBXBXBXBX. & > D H H / H H a # & . BXBXBXBXBXBX",
"BX8 & 8 p g g g g j r 7 $ $ BXBXBXBXBXBXBXBXBXBXBXBXBXBXBXBXBXBXBXBXBXBXBXBXBXBXBX& @ q j R r R R ! e @ & . BXBXBXBXBXBX",
"BX8 & 7 e j N N N k p * & 7 BXBXBXBXBXBXBXBXBXBXBXBXBXBXBXBXBXBXBXBXBXBXBXBXBXBXBX& # q k R T T R ! e @ * 7 BXBXBXBXBXBX",
"BX8 & q j ! r ! ! N f & * 9 BXBXBXBXBXBXBXBXBXBXBXBXBXBXBXBXBXBXBXBXBXBXBXBXBXBXBX* $ + h k T T k N w + $ BXBXBXBXBXBXBX"
};
